INTO-CPS-Association/DigitalTwins_RoboSim/UR5e/experiments/mappingFMU_URInterface_with_rmqfmu_2/resources/mapping_urinterface.csv
timestamp target_q_0 target_q_1 target_q_2 target_q_3 target_q_4 target_q_5 target_qd_0 target_qd_1 target_qd_2 target_qd_3 target_qd_4 target_qd_5 target_qdd_0 target_qdd_1 target_qdd_2 target_qdd_3 target_qdd_4 target_qdd_5 target_current_0 target_current_1 target_current_2 target_current_3 target_current_4 target_current_5 target_moment_0 target_moment_1 target_moment_2 target_moment_3 target_moment_4 target_moment_5 actual_q_0 actual_q_1 actual_q_2 actual_q_3 actual_q_4 actual_q_5 actual_qd_0 actual_qd_1 actual_qd_2 actual_qd_3 actual_qd_4 actual_qd_5 actual_current_0 actual_current_1 actual_current_2 actual_current_3 actual_current_4 actual_current_5 joint_control_output_0 joint_control_output_1 joint_control_output_2 joint_control_output_3 joint_control_output_4 joint_control_output_5 actual_TCP_pose_0 actual_TCP_pose_1 actual_TCP_pose_2 actual_TCP_pose_3 actual_TCP_pose_4 actual_TCP_pose_5 actual_TCP_speed_0 actual_TCP_speed_1 actual_TCP_speed_2 actual_TCP_speed_3 actual_TCP_speed_4 actual_TCP_speed_5 actual_TCP_force_0 actual_TCP_force_1 actual_TCP_force_2 actual_TCP_force_3 actual_TCP_force_4 actual_TCP_force_5 target_TCP_pose_0 target_TCP_pose_1 target_TCP_pose_2 target_TCP_pose_3 target_TCP_pose_4 target_TCP_pose_5 target_TCP_speed_0 target_TCP_speed_1 target_TCP_speed_2 target_TCP_speed_3 target_TCP_speed_4 target_TCP_speed_5 actual_digital_input_bits joint_temperatures_0 joint_temperatures_1 joint_temperatures_2 joint_temperatures_3 joint_temperatures_4 joint_temperatures_5 actual_execution_time robot_mode joint_mode_0 joint_mode_1 joint_mode_2 joint_mode_3 joint_mode_4 joint_mode_5 safety_mode actual_tool_accelerometer_0 actual_tool_accelerometer_1 actual_tool_accelerometer_2 speed_scaling target_speed_fraction actual_momentum actual_main_voltage actual_robot_voltage actual_robot_current actual_joint_voltage_0 actual_joint_voltage_1 actual_joint_voltage_2 actual_joint_voltage_3 actual_joint_voltage_4 actual_joint_voltage_5 actual_digital_output_bits runtime_state
8527.673999999999 -2.5847040000000003 -1.3422660000000004 1.3616510000000002 -2.0764069999999997 -0.9269629999999998 -0.8488470000000001 0.0 0.0 0.0 0.0 0.0 0.0 0.0 0.0 0.0 0.0 0.0 0.0 -1.1421958208084106 -3.491248607635498 -1.3258771896362305 -0.22248880565166473 1.940655010912451e-06 0.0 -13.122864626765587 -37.19278398367403 -15.071894474610644 -1.6178040589134184 1.4978295614830323e-05 0.0 -2.5847047011004847 -1.3422576946071167 1.3616836706744593 -2.076432844201559 -0.92694598833193 -0.8488534132586878 0.0 0.0 -0.0 -0.0 -0.0 -0.0 -1.0747276544570923 -4.116181373596191 -1.8478447198867798 -0.2515146732330322 -0.035025760531425476 0.06292113661766052 -1.1421958208084106 -3.491248607635498 -1.3258771896362305 -0.22248880565166473 1.940655010912451e-06 0.0 0.4163109822698747 0.5114278435391594 0.52199960188932 -2.362392682182779 -0.014780594160157721 -0.00014559691255923494 0.0 0.0 0.0 0.0 0.0 0.0 0.9473057300266147 13.512665434845507 -14.907476819174374 0.05128879737274256 -0.03251288460019269 -0.08587436224999113 0.41631008172286255 0.511425694045108 0.5220173347752907 -2.3623976153453077 -0.014774556886481075 -0.0001708987689424487 0.0 0.0 0.0 0.0 0.0 0.0 0 31.75 33.0 31.5 35.5 38.0 39.25 0.49416 7 253 253 253 253 253 253 1 0.038307227194309235 0.1149216815829277 -10.074800491333008 0.0 1.0 0.0 47.667179107666016 47.68509292602539 0.5908292531967163 47.6279296875 47.54193115234375 47.54193115234375 47.55626678466797 47.47026824951172 47.427268981933594 0 1
8527.774 -2.5847040000000003 -1.3422660000000004 1.3616510000000002 -2.0764069999999997 -0.9269629999999998 -0.8488470000000001 0.0 0.0 0.0 0.0 0.0 0.0 0.0 0.0 0.0 0.0 0.0 0.0 -1.1422312259674072 -3.4911530017852783 -1.3258986473083496 -0.22249135375022888 4.2234619286318775e-06 0.0 -13.123270969620451 -37.19176394332318 -15.072138107033082 -1.6178226204985249 3.25973731900929e-05 0.0 -2.5846834818469446 -1.3422354322722931 1.36163837114443 -2.076445241967672 -0.92694598833193 -0.8488219420062464 0.0 0.0 -0.0 -0.0 -0.0 -0.0 -1.0748006105422974 -4.102179050445557 -1.8529595136642456 -0.25679996609687805 -0.03501053899526596 0.05730457231402397 -1.1422312259674072 -3.4911530017852783 -1.3258986473083496 -0.22249135375022888 4.2234619286318775e-06 0.0 0.41630948880235985 0.5114425393541382 0.5220113020033074 -2.3623740464216856 -0.014783101237954021 -0.00015561150196331108 0.0 0.0 0.0 0.0 0.0 0.0 0.9214353786344623 13.628673131429867 -14.78863848985708 0.04695540971181626 -0.026078630273647367 -0.09071177327593632 0.41631008172286255 0.511425694045108 0.5220173347752907 -2.3623976153453077 -0.014774556886481075 -0.0001708987689424487 0.0 0.0 0.0 0.0 0.0 0.0 0 31.75 33.0 31.5 35.5 38.0 39.25 0.486732 7 253 253 253 253 253 253 1 0.07661445438861847 0.13407529890537262 -9.998186111450195 0.0 1.0 0.0 47.674346923828125 47.711063385009766 0.6602069735527039 47.61359786987305 47.55626678466797 47.55626678466797 47.57059860229492 47.5275993347168 47.455936431884766 0 1
8527.874 -2.5847040000000003 -1.3422660000000004 1.3616510000000002 -2.0764069999999997 -0.9269629999999998 -0.8488470000000001 0.0 0.0 0.0 0.0 0.0 0.0 0.0 0.0 0.0 0.0 0.0 0.0 -1.1422983407974243 -3.4910240173339844 -1.3258938789367676 -0.22248674929141998 -3.3919393445103196e-06 0.0 -13.124042800714772 -37.19039229463146 -15.072084869004888 -1.617789090081134 -2.6179546051866387e-05 0.0 -2.584700409566061 -1.3422158819488068 1.36169940630068 -2.0763994656004847 -0.9269626776324671 -0.8488376776324671 0.0 0.0 -0.0 -0.0 -0.0 -0.0 -1.0907920598983765 -4.059422016143799 -1.8535044193267822 -0.2490863800048828 -0.045711904764175415 0.05785282328724861 -1.1422983407974243 -3.4910240173339844 -1.3258938789367676 -0.22248674929141998 -3.3919393445103196e-06 0.0 0.41632098124889116 0.5114351293008088 0.5219595304829181 -2.362453240082084 -0.014724342279365765 -5.76941566344359e-05 0.0 0.0 0.0 0.0 0.0 0.0 0.9415109146862465 13.412606467758941 -14.67343835596284 0.05222394824104505 -0.028374537274392153 -0.09324426960926166 0.41631008172286255 0.511425694045108 0.5220173347752907 -2.3623976153453077 -0.014774556886481075 -0.0001708987689424487 0.0 0.0 0.0 0.0 0.0 0.0 0 31.75 33.0 31.5 35.5 38.0 39.0 0.470653 7 253 253 253 253 253 253 1 0.038307227194309235 0.17238251864910126 -10.036493301391602 0.0 1.0 0.0 47.667179107666016 47.67792510986328 0.5662114024162292 47.59926223754883 47.498931884765625 47.48460006713867 47.5275993347168 47.47026824951172 47.39860534667969 0 1
8527.974 -2.5847040000000003 -1.3422660000000004 1.3616510000000002 -2.0764069999999997 -0.9269629999999998 -0.8488470000000001 0.0 0.0 0.0 0.0 0.0 0.0 0.0 0.0 0.0 0.0 0.0 0.0 -1.1421867609024048 -3.490974187850952 -1.325892448425293 -0.22248588502407074 4.7153076110362235e-08 0.0 -13.122760622537838 -37.18985986060146 -15.0720685583419 -1.6177828389003632 3.639352081111812e-07 0.0 -2.5847254435168665 -1.3422696155360718 1.3616588751422327 -2.076468606988424 -0.9269626776324671 -0.8488376776324671 0.0 0.0 -0.0 -0.0 -0.0 -0.0 -1.1489572525024414 -4.089166164398193 -1.7998090982437134 -0.26778870820999146 -0.05108358711004257 0.061695072799921036 -1.1421867609024048 -3.490974187850952 -1.325892448425293 -0.22248588502407074 4.7153076110362235e-08 0.0 0.4163219286998163 0.5114174212403308 0.5220238542993645 -2.362367140255433 -0.01476210439781863 -0.00023387673889053913 0.0 0.0 0.0 0.0 0.0 0.0 0.9540244214594324 13.314852344009882 -14.892895432155544 0.05921399368089095 -0.03103831004068429 -0.0879312540662517 0.41631008172286255 0.511425694045108 0.5220173347752907 -2.3623976153453077 -0.014774556886481075 -0.0001708987689424487 0.0 0.0 0.0 0.0 0.0 0.0 0 31.75 33.0 31.5 35.5 38.0 39.25 0.477877 7 253 253 253 253 253 253 1 0.019153613597154617 0.15322890877723694 -9.998186111450195 0.0 1.0 0.0 47.667179107666016 47.68330383300781 0.5818773508071899 47.61359786987305 47.54193115234375 47.57059860229492 47.584930419921875 47.47026824951172 47.47026824951172 0 1
8528.073999999999 -2.5847040000000003 -1.3422660000000004 1.3616510000000002 -2.0764069999999997 -0.9269629999999998 -0.8488470000000001 0.0 0.0 0.0 0.0 0.0 0.0 0.0 0.0 0.0 0.0 0.0 0.0 -1.142210841178894 -3.4911038875579834 -1.3259061574935913 -0.22249045968055725 1.0164918649024912e-06 0.0 -13.123036764509944 -37.191243858222066 -15.07222323246256 -1.6178161315466002 7.845451764701401e-06 0.0 -2.5846923033343714 -1.342244343166687 1.3616250197040003 -2.0763751469054164 -0.9269583860980433 -0.8488352934466761 0.0 0.0 -0.0 -0.0 -0.0 -0.0 -1.1100295782089233 -4.066786289215088 -1.8295923471450806 -0.25731581449508667 -0.057494811713695526 0.06988878548145294 -1.142210841178894 -3.4911038875579834 -1.3259061574935913 -0.22249045968055725 1.0164918649024912e-06 0.0 0.4163102752091847 0.5114349507655304 0.522013504685817 -2.362408789358293 -0.014764597163539103 -0.0001283892669175987 0.0 0.0 0.0 0.0 0.0 0.0 1.1758924523329213 13.471341256287818 -14.87134334828064 0.05088723904948653 -0.02611813923331715 -0.08612176815682246 0.41631008172286255 0.511425694045108 0.5220173347752907 -2.3623976153453077 -0.014774556886481075 -0.0001708987689424487 0.0 0.0 0.0 0.0 0.0 0.0 0 31.75 33.0 31.5 35.5 38.0 39.0 0.463885 7 253 253 253 253 253 253 1 0.09576806426048279 0.19153612852096558 -9.940725326538086 0.0 1.0 0.0 47.71195983886719 47.7191276550293 0.577401340007782 47.61359786987305 47.584930419921875 47.55626678466797 47.584930419921875 47.513267517089844 47.427268981933594 0 1
8528.173999999999 -2.5847040000000003 -1.3422660000000004 1.3616510000000002 -2.0764069999999997 -0.9269629999999998 -0.8488470000000001 0.0 0.0 0.0 0.0 0.0 0.0 0.0 0.0 0.0 0.0 0.0 0.0 -1.1422110795974731 -3.491164445877075 -1.3258973360061646 -0.2224866896867752 5.835192951053614e-06 0.0 -13.12303978543501 -37.19188794741224 -15.072123671985038 -1.617788686611017 4.5036980622328525e-05 0.0 -2.584658447896139 -1.3422354024699708 1.36163837114443 -2.07641663173818 -0.9269745985614222 -0.8488920370685022 0.0 0.0 -0.0 -0.0 -0.0 -0.0 -1.1353946924209595 -4.050611972808838 -1.7982765436172485 -0.23248961567878723 -0.04795234277844429 0.06630416959524155 -1.1422110795974731 -3.491164445877075 -1.3258973360061646 -0.2224866896867752 5.835192951053614e-06 0.0 0.4162980820100568 0.5114502853111745 0.522005432052024 -2.362409955842505 -0.01487451731732828 -0.00017131276702420873 0.0 0.0 0.0 0.0 0.0 0.0 1.0436979706949037 13.470335327810968 -14.801200700176414 0.052436933017650865 -0.027939668687692428 -0.08785840532641898 0.41631008172286255 0.511425694045108 0.5220173347752907 -2.3623976153453077 -0.014774556886481075 -0.0001708987689424487 0.0 0.0 0.0 0.0 0.0 0.0 0 31.75 33.0 31.5 35.5 38.0 39.0 0.473773 7 253 253 253 253 253 253 1 0.09576806426048279 0.2298433631658554 -9.998186111450195 0.0 1.0 0.0 47.720916748046875 47.726287841796875 0.6445410251617432 47.64226150512695 47.59926223754883 47.6279296875 47.61359786987305 47.5275993347168 47.455936431884766 0 1
8528.274 -2.5847040000000003 -1.3422660000000004 1.3616510000000002 -2.0764069999999997 -0.9269629999999998 -0.8488470000000001 0.0 0.0 0.0 0.0 0.0 0.0 0.0 0.0 0.0 0.0 0.0 0.0 -1.1421780586242676 -3.4909632205963135 -1.3258929252624512 -0.22248640656471252 -2.0867639705102192e-06 0.0 -13.122660277170086 -37.18974474679606 -15.072074024565485 -1.6177866977911928 -1.6105989415926358e-05 0.0 -2.5847166220294397 -1.3422562640956421 1.361701790486471 -2.0764080486693324 -0.926971737538473 -0.8488991896258753 0.0 0.0 -0.0 -0.0 -0.0 -0.0 -1.1265374422073364 -4.080462455749512 -1.7995327711105347 -0.250626802444458 -0.06167438626289368 0.08425424247980118 -1.1421780586242676 -3.4909632205963135 -1.3258929252624512 -0.22248640656471252 -2.0867639705102192e-06 0.0 0.41631796452097547 0.5114202343162999 0.5219840143828591 -2.3624351512143136 -0.014794108413424479 -0.00014935063524133794 0.0 0.0 0.0 0.0 0.0 0.0 0.9486786520286239 13.455632964998284 -14.756726903226145 0.05251944804742936 -0.02897255585566403 -0.08816035396802832 0.41631008172286255 0.511425694045108 0.5220173347752907 -2.3623976153453077 -0.014774556886481075 -0.0001708987689424487 0.0 0.0 0.0 0.0 0.0 0.0 0 31.75 33.0 31.5 35.5 38.0 39.0 0.459109 7 253 253 253 253 253 253 1 0.0 0.13407528400421143 -9.921571731567383 0.0 1.0 0.0 47.660911560058594 47.679718017578125 0.6132091879844666 47.584930419921875 47.5275993347168 47.498931884765625 47.5275993347168 47.427268981933594 47.41293716430664 0 1
8528.374 -2.5847040000000003 -1.3422660000000004 1.3616510000000002 -2.0764069999999997 -0.9269629999999998 -0.8488470000000001 0.0 0.0 0.0 0.0 0.0 0.0 0.0 0.0 0.0 0.0 0.0 0.0 -1.1421738862991333 -3.491107225418091 -1.3259000778198242 -0.22249026596546173 8.081827900241478e-07 0.0 -13.122611551943228 -37.191276195585814 -15.072154799636571 -1.617814634776514 6.237687866718989e-06 0.0 -2.5847166220294397 -1.3422817301801224 1.3616364637957972 -2.076395650903219 -0.92694598833193 -0.8488591353045862 0.0 0.0 -0.0 -0.0 -0.0 -0.0 -1.0930525064468384 -4.033978462219238 -1.8127707242965698 -0.2509500980377197 -0.04664677754044533 0.0662693977355957 -1.1421738862991333 -3.491107225418091 -1.3259000778198242 -0.22249026596546173 8.081827900241478e-07 0.0 0.41631049017969446 0.511418756267541 0.5220344292613082 -2.3623749937017178 -0.01478709332780333 -0.00018862975527717142 0.0 0.0 0.0 0.0 0.0 0.0 1.0493293449293093 13.390140746550944 -14.723318678612284 0.05032185361580736 -0.028616630449947462 -0.08532644209044656 0.41631008172286255 0.511425694045108 0.5220173347752907 -2.3623976153453077 -0.014774556886481075 -0.0001708987689424487 0.0 0.0 0.0 0.0 0.0 0.0 0 31.75 33.0 31.5 35.5 38.0 39.0 0.463537 7 253 253 253 253 253 253 1 0.038307227194309235 0.13407529890537262 -9.998186111450195 0.0 1.0 0.0 47.692256927490234 47.702110290527344 0.6087331771850586 47.6279296875 47.55626678466797 47.57059860229492 47.55626678466797 47.48460006713867 47.427268981933594 0 1
8528.474 -2.5847040000000003 -1.3422660000000004 1.3616510000000002 -2.0764069999999997 -0.9269629999999998 -0.8488470000000001 0.0 0.0 0.0 0.0 0.0 0.0 0.0 0.0 0.0 0.0 0.0 0.0 -1.1421867609024048 -3.4910411834716797 -1.3258742094039917 -0.22248388826847076 -1.1063447118431213e-06 0.0 -13.122760856744025 -37.1905742031849 -15.071860064537972 -1.617768304055374 -8.538950651721441e-06 0.0 -2.5847047011004847 -1.3422578138164063 1.361704174672262 -2.0763660869994105 -0.9269416967975062 -0.8488591353045862 0.0 0.0 -0.0 -0.0 -0.0 -0.0 -1.1252013444900513 -4.040141582489014 -1.803625464439392 -0.22673234343528748 -0.06310876458883286 0.08760228008031845 -1.1421867609024048 -3.4910411834716797 -1.3258742094039917 -0.22248388826847076 -1.1063447118431213e-06 0.0 0.4163070525430531 0.5114258383073081 0.5219800540668745 -2.362435589840826 -0.014752669962060667 -5.76976371394677e-05 0.0 0.0 0.0 0.0 0.0 0.0 0.9399515015202791 13.459064822958355 -14.719704976290037 0.047760144070075006 -0.029231549853669346 -0.08872231881951981 0.41631008172286255 0.511425694045108 0.5220173347752907 -2.3623976153453077 -0.014774556886481075 -0.0001708987689424487 0.0 0.0 0.0 0.0 0.0 0.0 0 31.75 33.0 31.5 35.5 38.0 39.0 0.462253 7 253 253 253 253 253 253 1 0.07661445438861847 0.2106897532939911 -10.036493301391602 0.0 1.0 0.0 47.69673538208008 47.71017074584961 0.6378270983695984 47.57059860229492 47.55626678466797 47.54193115234375 47.55626678466797 47.498931884765625 47.427268981933594 0 1
8528.573999999999 -2.5847040000000003 -1.3422660000000004 1.3616510000000002 -2.0764069999999997 -0.9269629999999998 -0.8488470000000001 0.0 0.0 0.0 0.0 0.0 0.0 0.0 0.0 0.0 0.0 0.0 0.0 -1.1421804428100586 -3.4911303520202637 -1.3258546590805054 -0.22248584032058716 -2.8494034722825745e-06 0.0 -13.12268705782905 -37.19152433006464 -15.07163781266005 -1.6177824377847834 -2.1992166334662395e-05 0.0 -2.5846923033343714 -1.3422159266522904 1.361687962208883 -2.0763994656004847 -0.9269431273089808 -0.8488376776324671 0.0 0.0 -0.0 -0.0 -0.0 -0.0 -1.1334277391433716 -4.056675910949707 -1.8435412645339966 -0.2345210611820221 -0.07370597869157791 0.08899615705013275 -1.1421804428100586 -3.4911303520202637 -1.3258546590805054 -0.22248584032058716 -2.8494034722825745e-06 0.0 0.4163156484588473 0.5114401704564598 0.5219669294901924 -2.362432504968178 -0.014744838595780276 -4.994566951557665e-05 0.0 0.0 0.0 0.0 0.0 0.0 1.0157160261003606 13.329190776491414 -14.810419154459506 0.05468841299661849 -0.02804725320397443 -0.09073314561805801 0.41631008172286255 0.511425694045108 0.5220173347752907 -2.3623976153453077 -0.014774556886481075 -0.0001708987689424487 0.0 0.0 0.0 0.0 0.0 0.0 0 31.75 33.0 31.5 35.5 38.0 39.0 0.462168 7 253 253 253 253 253 253 1 0.07661445438861847 0.17238251864910126 -10.017339706420898 0.0 1.0 0.0 47.71554183959961 47.72270965576172 0.6199231147766113 47.6279296875 47.59926223754883 47.61359786987305 47.584930419921875 47.48460006713867 47.47026824951172 0 1
8528.673999999999 -2.5847040000000003 -1.3422660000000004 1.3616510000000002 -2.0764069999999997 -0.9269629999999998 -0.8488470000000001 0.0 0.0 0.0 0.0 0.0 0.0 0.0 0.0 0.0 0.0 0.0 0.0 -1.1420791149139404 -3.491135835647583 -1.3259109258651733 -0.222490131855011 2.0272789242881117e-06 0.0 -13.121522895570408 -37.19158014035985 -15.072277639335699 -1.6178137367580632 1.564687136177732e-05 0.0 -2.5847180525409144 -1.3422473233989258 1.3616951147662562 -2.07647766689443 -0.9269297758685511 -0.8488376776324671 0.0 0.0 -0.0 -0.0 -0.0 -0.0 -1.1632026433944702 -4.05345344543457 -1.7882195711135864 -0.22219380736351013 -0.0560571551322937 0.06116626039147377 -1.1420791149139404 -3.491135835647583 -1.3259109258651733 -0.222490131855011 2.0272789242881117e-06 0.0 0.4163207628119419 0.5114261601572329 0.521994310377841 -2.3623684468964368 -0.01476101089936751 -0.00015458067373898287 0.0 0.0 0.0 0.0 0.0 0.0 1.1223616242890044 13.594171387932619 -14.790679303312952 0.04886734337675917 -0.030743082032045815 -0.08236916233384416 0.41631008172286255 0.511425694045108 0.5220173347752907 -2.3623976153453077 -0.014774556886481075 -0.0001708987689424487 0.0 0.0 0.0 0.0 0.0 0.0 0 31.75 33.0 31.25 35.5 38.25 39.0 0.46032 7 253 253 253 253 253 253 1 0.019153613597154617 0.2298433631658554 -10.132261276245117 0.0 1.0 0.0 47.654640197753906 47.682403564453125 0.5796393156051636 47.61359786987305 47.55626678466797 47.55626678466797 47.513267517089844 47.455936431884766 47.455936431884766 0 1
8528.774 -2.5847040000000003 -1.3422660000000004 1.3616510000000002 -2.0764069999999997 -0.9269629999999998 -0.8488470000000001 0.0 0.0 0.0 0.0 0.0 0.0 0.0 0.0 0.0 0.0 0.0 0.0 -1.1421164274215698 -3.491103172302246 -1.3259046077728271 -0.2224898338317871 7.731446771686024e-08 0.0 -13.12195234325729 -37.19123465338795 -15.072206777060119 -1.6178116098731354 5.967257961884423e-07 0.0 -2.584696594868795 -1.342244343166687 1.3616622130023401 -2.0764080486693324 -0.92694598833193 -0.8488591353045862 0.0 0.0 -0.0 -0.0 -0.0 -0.0 -1.0954238176345825 -4.07361364364624 -1.8128396272659302 -0.22597944736480713 -0.05487332120537758 0.06422814726829529 -1.1421164274215698 -3.491103172302246 -1.3259046077728271 -0.2224898338317871 7.731446771686024e-08 0.0 0.416310943510509 0.5114337569481957 0.5219992138095035 -2.362401472775588 -0.014789988636197963 -0.00012778087018685037 0.0 0.0 0.0 0.0 0.0 0.0 1.0313480399846107 13.353603209819754 -14.891727320057507 0.05319793400030484 -0.030732664289295584 -0.08612658175557117 0.41631008172286255 0.511425694045108 0.5220173347752907 -2.3623976153453077 -0.014774556886481075 -0.0001708987689424487 0.0 0.0 0.0 0.0 0.0 0.0 0 31.75 33.0 31.25 35.5 38.25 39.0 0.474672 7 253 253 253 253 253 253 1 0.05746084079146385 0.2106897532939911 -9.979032516479492 0.0 1.0 0.0 47.67344665527344 47.68330383300781 0.6378270983695984 47.64226150512695 47.54193115234375 47.55626678466797 47.54193115234375 47.41293716430664 47.44160079956055 0 1
8528.874 -2.5847040000000003 -1.3422660000000004 1.3616510000000002 -2.0764069999999997 -0.9269629999999998 -0.8488470000000001 0.0 0.0 0.0 0.0 0.0 0.0 0.0 0.0 0.0 0.0 0.0 0.0 -1.1421316862106323 -3.491131544113159 -1.3258700370788574 -0.2224876433610916 6.069727191970742e-07 0.0 -13.122127713260884 -37.191536009931355 -15.071813936409415 -1.6177955827942094 4.684715446847167e-06 0.0 -2.5846670309649866 -1.3422233176282425 1.361612621937887 -2.0763822994627894 -0.926950756703512 -0.8488271872149866 0.0 0.0 -0.0 -0.0 -0.0 -0.0 -1.06072199344635 -4.090742111206055 -1.8506242036819458 -0.23354092240333557 -0.049375783652067184 0.06263495981693268 -1.1421316862106323 -3.491131544113159 -1.3258700370788574 -0.2224876433610916 6.069727191970742e-07 0.0 0.41630394727554115 0.5114505307610786 0.5220084247777712 -2.362403688881157 -0.014786732355658458 -0.00010466561051085635 0.0 0.0 0.0 0.0 0.0 0.0 0.9007355614523851 13.79484113918895 -14.859679114546632 0.05008394049727759 -0.03112303609480121 -0.08935054192131005 0.41631008172286255 0.511425694045108 0.5220173347752907 -2.3623976153453077 -0.014774556886481075 -0.0001708987689424487 0.0 0.0 0.0 0.0 0.0 0.0 0 31.75 33.0 31.25 35.5 38.0 39.25 0.459252 7 253 253 253 253 253 253 1 0.019153613597154617 0.19153612852096558 -9.940725326538086 0.0 1.0 0.0 47.698524475097656 47.69404983520508 0.5460695028305054 47.61359786987305 47.57059860229492 47.55626678466797 47.57059860229492 47.498931884765625 47.455936431884766 0 1
8528.974 -2.5847040000000003 -1.3422660000000004 1.3616510000000002 -2.0764069999999997 -0.9269629999999998 -0.8488470000000001 0.0 0.0 0.0 0.0 0.0 0.0 0.0 0.0 0.0 0.0 0.0 0.0 -1.1420447826385498 -3.491180419921875 -1.3258882761001587 -0.2224908471107483 -8.302833407469734e-07 0.0 -13.121129160795844 -37.19205966268216 -15.07202016957781 -1.6178189013594322 -6.408263600555868e-06 0.0 -2.5846789518939417 -1.342218817477562 1.3617585341082972 -2.0764037571349085 -0.92694598833193 -0.8488681952105921 0.0 0.0 -0.0 -0.0 -0.0 8.825211254060136e-38 -1.0877727270126343 -4.0690107345581055 -1.8078712224960327 -0.24904590845108032 -0.031347472220659256 0.06116635724902153 -1.1420447826385498 -3.491180419921875 -1.3258882761001587 -0.2224908471107483 -8.302833407469734e-07 0.0 0.41630509401847493 0.5114430310762552 0.5219318932652962 -2.3624676549667694 -0.014769731928211493 3.277263201964859e-06 0.0 -8.898531289294836e-55 -8.755006591080403e-55 -3.878655196411963e-40 6.200686120385516e-38 -6.279676816416178e-38 1.2605039122356263 13.431470297596027 -14.843008155600375 0.05050472669117467 -0.025315655778923214 -0.08117343436081577 0.41631008172286255 0.511425694045108 0.5220173347752907 -2.3623976153453077 -0.014774556886481075 -0.0001708987689424487 0.0 0.0 0.0 0.0 0.0 0.0 0 31.75 33.0 31.25 35.5 38.25 39.25 0.560869 7 253 253 253 253 253 253 1 0.1149216815829277 0.2298433631658554 -10.017339706420898 1.0 1.0 0.0 47.70658874511719 47.71017074584961 0.5259276032447815 47.59926223754883 47.55626678466797 47.57059860229492 47.54193115234375 47.513267517089844 47.44160079956055 0 2
8529.073999999999 -2.5845905099653894 -1.3423150333979406 1.3616864374225368 -2.0764300744021718 -0.9270342265886322 -0.8487504718351797 0.004539601384437255 -0.001961335917607515 0.001417496901467265 -0.0009229760868651875 -0.0028490635452946144 0.0038611265928267216 0.13177235852557212 -0.056932280576458105 0.04114610382959568 -0.026791501175825308 -0.08270061425211185 0.11207806911127166 -0.7854601740837097 -3.7506401538848877 -1.2066458463668823 -0.2444058507680893 -0.05515172332525253 0.07689833641052246 -12.65021569108563 -37.46879480711266 -15.019957771640865 -1.6280870679729724 -0.011256339397310373 0.02374175284587188 -2.584651533757345 -1.342251719241478 1.36169940630068 -2.076374670068258 -0.9269703070269983 -0.8488081137286585 0.0032329007517546415 -0.0003656187909655273 -0.0 -0.0 -0.003333653323352337 0.005002947524189949 -0.5285676717758179 -4.54958438873291 -1.5194517374038696 -0.3282661437988281 -0.15347036719322205 0.13888110220432281 -0.7854601740837097 -3.7506401538848877 -1.2066458463668823 -0.2444058507680893 -0.05515172332525253 0.07689833641052246 0.4162847610840991 0.5114475221963426 0.5219779855551903 -2.36245312326097 -0.014749145167592834 -3.692410749112924e-05 -0.00147481270881619 0.0010477240555016685 6.147672037079498e-07 -0.0023066924505047476 0.0016089911836790205 -0.001884335276276969 1.0542592677201537 13.366648439203015 -14.836596319487159 0.055626147391865034 -0.05957087441740136 -0.06444564548571939 0.4162425353378426 0.511458283516088 0.5220275114333262 -2.362431390515062 -0.014787099986865324 -0.00016186421502882527 -0.002701898254463563 0.0013033933332652033 0.0004070609824062482 -0.0013546715402700967 0.00010658446475144204 0.0004646776103719966 0 31.75 33.0 31.25 35.5 38.25 39.25 0.656677 7 253 253 253 253 253 253 1 0.0 0.15322890877723694 -9.959878921508789 1.0 1.0 0.02141580480188181 47.687782287597656 47.6976318359375 0.5841153264045715 47.64226150512695 47.57059860229492 47.54193115234375 47.55626678466797 47.48460006713867 47.455936431884766 0 2
8529.173999999999 -2.582923589630041 -1.343035226747233 1.3622069356359812 -2.076768986892045 -0.9280803893589216 -0.8473326842609215 0.035608207399188345 -0.015384534944647647 0.011118712719621357 -0.007239737840916401 -0.022347787178431656 0.03028631478156509 0.5253441048502921 -0.2269750523644226 0.1640394338107065 -0.10681115038309189 -0.3297070846342478 0.4468277987085146 -0.24578441679477692 -4.381996154785156 -0.5659060478210449 -0.39171481132507324 -0.20425188541412354 0.2145666629076004 -11.183790570406396 -38.32309014386604 -14.866689121183668 -1.6596188136140837 -0.044939573811597494 0.09465253900648073 -2.582926336918966 -1.3430877488902588 1.3620827833758753 -2.076779981652731 -0.9280679861651819 -0.847266976033346 0.036106009036302567 -0.017603889107704163 0.012487576343119144 -0.008903874084353447 -0.020612848922610283 0.028617843985557556 -0.21284350752830505 -4.842288494110107 -0.9430932998657227 -0.47742801904678345 -0.1889721006155014 0.2167706936597824 -0.24578441679477692 -4.381996154785156 -0.5659060478210449 -0.39171481132507324 -0.20425188541412354 0.2145666629076004 0.4152406200530282 0.5119294788414683 0.5222775514947391 -2.362818799461046 -0.014971040197424961 -0.0001784834705505477 -0.0222851367635715 0.010084903994261202 0.004198267923310288 -0.007951117015397684 -0.0016526670939885808 0.006127114446158283 1.4871000011508801 13.518537600508004 -14.513199391629895 0.03407232181799939 -0.10537987162293375 -0.04060172761490487 0.41525018056778784 0.5119358829237788 0.522176953521044 -2.362926611687067 -0.014971028598504826 -3.015989846368539e-05 -0.021203265974336288 0.010180949181305481 0.003191717893266239 -0.010591500672091443 0.0008108168623662884 0.0036236946147007384 0 31.75 33.0 31.25 35.5 38.25 39.25 0.654301 7 253 253 253 253 253 253 1 -0.19153612852096558 0.07661445438861847 -9.806650161743164 1.0 1.0 0.17126519285033776 47.69136047363281 47.68598556518555 0.6960148215293884 47.61359786987305 47.54193115234375 47.513267517089844 47.54193115234375 47.48460006713867 47.427268981933594 0 2
8529.274 -2.5757500682381878 -1.3461345484651712 1.3644468777552212 -2.0782274825048965 -0.9325825067384308 -0.8412312952038894 0.11938575682416828 -0.05158064620227101 0.03727837006961376 -0.02427310006529775 -0.07492675651241354 0.10154273061481213 1.1807152389741657 -0.5101283153638968 0.3686799899433324 -0.24005894762179833 -0.741019411146411 1.004249188791724 0.05986523628234863 -4.548112869262695 -0.5178321599960327 -0.4686084985733032 -0.22873324155807495 0.24844051897525787 -8.637012795213757 -39.8174441485949 -14.612914714036894 -1.713819198716942 -0.10193122546737773 0.21273219269182284 -2.5757585207568567 -1.3462620687535782 1.3643572966205042 -2.078228612939352 -0.9326913992511194 -0.8411420027362269 0.11888005584478378 -0.05094068497419357 0.03765516355633736 -0.023525001481175423 -0.07366283982992172 0.09886505454778671 0.02782961167395115 -4.880912780761719 -0.5810071229934692 -0.5518267154693604 -0.154170960187912 0.24455365538597107 0.05986523628234863 -4.548112869262695 -0.5178321599960327 -0.4686084985733032 -0.22873324155807495 0.24844051897525787 0.4109536917574917 0.5139354958928012 0.5229388821770272 -2.365004638617011 -0.015694566847975946 0.00024940134287938684 -0.07092783322428937 0.03348530951293741 0.010068422424799644 -0.03498862617253916 0.0025888786748755194 0.0138276673645409 1.801737380586748 12.999085959771413 -14.987989192453396 0.03674386362150261 -0.10937402807171687 -0.049171628995733296 0.41097444501355057 0.5139683732281037 0.5228194139291564 -2.3650392904244213 -0.015756086840492498 0.0005155169794525292 -0.07122803930507876 0.03351736887229195 0.010683307317698428 -0.03501144993966694 0.0023585795731189962 0.011845227454393745 0 31.75 33.0 31.5 35.5 38.25 39.25 0.666061 7 253 253 253 253 253 253 1 -0.47884035110473633 -0.07661445438861847 -9.90241813659668 1.0 1.0 0.5771249555491942 47.69136047363281 47.693153381347656 0.7452505826950073 47.6279296875 47.54193115234375 47.584930419921875 47.55626678466797 47.5275993347168 47.427268981933594 0 2
8529.374 -2.5564987811560713 -1.3544520718811635 1.3704581191566598 -2.0821415877563147 -0.9446646557160241 -0.8248572459858838 0.2806489437206884 -0.12125444657873446 0.08763302643442375 -0.057060574689704775 -0.1761358777713856 0.23870402004095992 1.39626340159546 -0.6032559531280318 0.43598520614140934 -0.2838834561676856 -0.8762978993601261 1.187582189258518 0.5539400577545166 -4.808889389038086 -0.4313739538192749 -0.48798203468322754 -0.2737858295440674 0.30615031719207764 -7.381425952292084 -40.610683156656364 -14.536292184647 -1.738973211280715 -0.12407844356214207 0.2515673720638325 -2.5565102736102503 -1.3544406306794663 1.3704035917865198 -2.082104345361227 -0.9446871916400355 -0.8250177542315882 0.27622032165527344 -0.11903069168329239 0.09008114784955978 -0.05705773085355759 -0.1737823635339737 0.24012210965156555 0.3673756718635559 -5.288098335266113 -0.7262581586837769 -0.5968632698059082 -0.2179127335548401 0.3594706654548645 0.5539400577545166 -4.808889389038086 -0.4313739538192749 -0.48798203468322754 -0.2737858295440674 0.30615031719207764 0.3994727568011776 0.5192364222058463 0.5245534082812908 -2.3705712684668643 -0.017982189542011202 0.0017067257654876068 -0.1656024604300857 0.07366219039174679 0.022485924696812296 -0.0799816914610994 0.00940399267402417 0.021625656709004987 2.570133672582104 13.153001994346722 -15.005395546737615 0.035653689291301104 -0.13032889219561525 -0.05943224509559828 0.3994603218703143 0.5192396013511855 0.5245382826202775 -2.370559201056794 -0.017810619567738314 0.001813737731555393 -0.1682543508768429 0.07489775254589473 0.0250019205509545 -0.07910365020961688 0.00335050538490525 0.025957518188584966 0 31.75 33.0 31.5 35.5 38.0 39.25 0.703417 7 253 253 253 253 253 253 1 -0.8810662031173706 -0.1149216815829277 -9.959878921508789 1.0 1.0 1.3622996681548947 47.620609283447266 47.635833740234375 0.7967243194580078 47.55626678466797 47.498931884765625 47.498931884765625 47.47026824951172 47.39860534667969 47.34127426147461 0 2
8529.474 -2.521452569776025 -1.3695937963046774 1.3814013478308091 -2.0892670625061243 -0.9666597329899629 -0.7950489330354955 0.42027528388023483 -0.18158004189153767 0.13123154704856493 -0.08544892030647332 -0.26376566770739834 0.3574622389668106 1.39626340159546 -0.6032559531280318 0.4359852061414232 -0.2838834561676856 -0.87629789936014 1.187582189258518 0.5725994110107422 -4.754504203796387 -0.4080178439617157 -0.49009376764297485 -0.2946358025074005 0.3226677179336548 -6.467204636383822 -41.197199769021445 -14.558199836325652 -1.7544558912514256 -0.13029353945391411 0.25156707675524237 -2.5215264002429407 -1.3695722979358216 1.3815258185016077 -2.089262624780172 -0.9665153662310999 -0.7953246275531214 0.4199427366256714 -0.18113882839679718 0.12942659854888916 -0.08292362838983536 -0.2625216841697693 0.3603177070617676 0.39030975103378296 -5.177456855773926 -0.6361604332923889 -0.59046471118927 -0.24675124883651733 0.36278969049453735 0.5725994110107422 -4.754504203796387 -0.4080178439617157 -0.49009376764297485 -0.2946358025074005 0.3226677179336548 0.37839484263926626 0.528131946464664 0.5275770404271632 -2.380016995708684 -0.021581447794759016 0.0036830848599436836 -0.2536605876372056 0.10159356846944824 0.03754343130483135 -0.1093870472043943 0.0030267317867151977 0.03212920517246193 2.0462586235394937 13.77244875760062 -15.230591156777436 0.0672665394184768 -0.10891786212768151 -0.02266445605162174 0.3783681579987717 0.5281497134226784 0.5276476400150023 -2.380035563375448 -0.021352036552272427 0.0035816486735877227 -0.25383970557010666 0.10154052069225666 0.037134098985999196 -0.10946682793058407 -0.0005265397941139893 0.03389829837232766 0 31.75 33.0 31.5 35.5 38.25 39.25 0.697945 7 253 253 253 253 253 253 1 -0.47884035110473633 0.24899697303771973 -10.266336441040039 1.0 1.0 2.0278852783179055 47.6421012878418 47.6313591003418 0.8549120426177979 47.54193115234375 47.44160079956055 47.455936431884766 47.455936431884766 47.369937896728516 47.31260681152344 0 2
8529.573999999999 -2.472443724380024 -1.3907680802594706 1.3967044285663728 -2.099231371817609 -0.9974177892575034 -0.7533647981925213 0.5599016240397813 -0.24190563720434088 0.1748300676627061 -0.11383726592324186 -0.35139545764341107 0.4762204578926613 1.3962634015954323 -0.6032559531280318 0.43598520614140934 -0.2838834561676856 -0.87629789936014 1.187582189258518 0.8087550401687622 -4.863814830780029 -0.36335036158561707 -0.5005500912666321 -0.32455143332481384 0.35469144582748413 -5.187871607494579 -41.98720380252032 -14.603331586374628 -1.7773562788583142 -0.138811693645292 0.2515682844832796 -2.472689692174093 -1.3907210987857361 1.3964803854571741 -2.099159379998678 -0.99725848833193 -0.7534130255328577 0.5540480613708496 -0.24287550151348114 0.17336098849773407 -0.11362238228321075 -0.34908023476600647 0.47220927476882935 1.1439757347106934 -5.214573383331299 -0.40445753931999207 -0.5481647253036499 -0.23422574996948242 0.4286171495914459 0.8087550401687622 -4.863814830780029 -0.36335036158561707 -0.5005500912666321 -0.32455143332481384 0.35469144582748413 0.348785842341734 0.5390651684700253 0.5320428463995274 -2.3918363140999106 -0.025718381055309672 0.004766210403360037 -0.337983641661449 0.11352538906810561 0.050376684391815994 -0.12542654665481962 -0.012837102285318147 0.03465924535532916 3.448800760830081 12.262434615922166 -15.07332667663474 0.037360088778029564 -0.16309661257775643 -0.05697197559895681 0.3486490033240867 0.5391253462269764 0.5319527570428324 -2.3920068894864213 -0.02586281754346491 0.004864151892753297 -0.34069236281889526 0.11551674369912027 0.048895633216207976 -0.1283874539943078 -0.009729957394388034 0.036397577942613724 0 31.75 33.0 31.5 35.5 38.25 39.25 0.715837 7 253 253 253 253 253 253 1 -1.3024457693099976 0.019153613597154617 -9.385271072387695 1.0 1.0 2.6750147084608136 47.62419128417969 47.62240219116211 1.1727066040039062 47.513267517089844 47.44160079956055 47.44160079956055 47.41293716430664 47.34127426147461 47.26960754394531 0 2
8529.673999999999 -2.4094722449680686 -1.417974923745545 1.4163673613633505 -2.1120345156907723 -1.0369388245186455 -0.6998048414569631 0.6995279641993277 -0.30223123251714407 0.21842858827684725 -0.1422256115400104 -0.4390252475794238 0.5949786768185119 1.3962634015954323 -0.6032559531280179 0.43598520614139546 -0.2838834561676856 -0.8762978993601123 1.1875821892584626 1.043592095375061 -4.9887871742248535 -0.3199986517429352 -0.5119954943656921 -0.3546788692474365 0.3773864209651947 -3.551030556939369 -42.93296160343367 -14.663543211883177 -1.8074185581130624 -0.1489843404525662 0.2515723524758711 -2.4098077456103724 -1.4177378577044983 1.4165027777301233 -2.112030168572897 -1.0367534796344202 -0.7002103964435022 0.7000249028205872 -0.2991257607936859 0.21643872559070587 -0.14086082577705383 -0.43838316202163696 0.5988610982894897 1.0680822134017944 -5.575421333312988 -0.6005100011825562 -0.553247332572937 -0.26838418841362 0.4474720060825348 1.043592095375061 -4.9887871742248535 -0.3199986517429352 -0.5119954943656921 -0.3546788692474365 0.3773864209651947 0.31045255304445224 0.5506575184406121 0.537205320950267 -2.4052354207157247 -0.03089629364203534 0.004900224829717914 -0.4270834157485296 0.11395770749216379 0.059206616818447425 -0.13273178725887916 -0.01902063724990294 0.03052486375061142 1.219712406639592 13.611191609570744 -15.543348554465238 0.061404126473445196 -0.12499858540707064 -0.011900502702365194 0.31022517916876347 0.5506954763734909 0.5374099392082496 -2.4051067870086014 -0.030876586981515804 0.004730568270601721 -0.4276365526951021 0.11277678441213201 0.060151724915827695 -0.13114445333946487 -0.023768169030314645 0.032489202628684655 0 31.75 33.0 31.5 35.5 38.25 39.25 0.695353 7 253 253 253 253 253 253 1 -0.49799394607543945 0.7852981090545654 -10.304643630981445 1.0 1.0 3.2979551069606554 47.60986328125 47.60269546508789 1.2532743215560913 47.455936431884766 47.369937896728516 47.369937896728516 47.31260681152344 47.298274993896484 47.22661209106445 0 2
8529.774 -2.3325381315401583 -1.4512143267628996 1.4403901462217423 -2.1276764941256117 -1.0852228387733884 -0.634369062828819 0.8391543043588742 -0.3625568278299473 0.26202710889098846 -0.17061395715677893 -0.5266550375154365 0.7137368957443627 1.3962634015954323 -0.6032559531280179 0.4359852061414371 -0.2838834561676856 -0.8762978993601123 1.187582189258518 1.3080170154571533 -5.124358177185059 -0.27988532185554504 -0.5246652960777283 -0.3816179037094116 0.3975975215435028 -1.5760451645766853 -43.98431564922322 -14.761420739632568 -1.8463946206416222 -0.16042516920990818 0.2515814269578381 -2.3328869978534144 -1.4509579551270981 1.4403098265277308 -2.1275235615172328 -1.0850322882281702 -0.6348450819598597 0.8351808190345764 -0.3627254366874695 0.266168475151062 -0.16878189146518707 -0.5270419120788574 0.7181774377822876 1.6303167343139648 -5.630096912384033 -0.6408569812774658 -0.6415616273880005 -0.24655121564865112 0.4894792437553406 1.3080170154571533 -5.124358177185059 -0.27988532185554504 -0.5246652960777283 -0.3816179037094116 0.3975975215435028 0.2634400621170032 0.5609864176488406 0.5438409200335689 -2.41760387939899 -0.03588011967189282 0.0024669284126262385 -0.5101645776474109 0.08856585613824737 0.06835537592411871 -0.11750648493592121 -0.0334664385714572 0.014499441319891782 1.279229510634713 12.934152304487256 -15.956450088801791 0.053699449011414574 -0.13094407175684908 0.006049245951448054 0.26319951231428246 0.5609996666074822 0.5439611559082287 -2.4174820241776165 -0.03576034880454841 0.0023790879636893855 -0.5121952338810628 0.089628745196481 0.07074827351935185 -0.11271588592517771 -0.04006843580860986 0.021933520317409805 0 31.75 33.0 31.5 35.5 38.25 39.25 0.703213 7 253 253 253 253 253 253 1 -0.5746084451675415 0.4213795065879822 -10.228029251098633 1.0 1.0 3.8914327858901916 47.57135009765625 47.557918548583984 1.4412654638290405 47.41293716430664 47.298274993896484 47.32693862915039 47.298274993896484 47.240943908691406 47.154945373535156 0 2
8529.874 -2.241641384096294 -1.4904862893115345 1.4687727831415482 -2.1461573071221283 -1.142269832021733 -0.55705746230809 0.9787806445184207 -0.42288242314275054 0.3056256295051296 -0.1990023027735475 -0.6142848274514493 0.8324951146702134 1.3962634015954878 -0.6032559531280457 0.43598520614140934 -0.2838834561676856 -0.8762978993601678 1.187582189258518 1.5978915691375732 -5.259316921234131 -0.24303023517131805 -0.5385807156562805 -0.4006369709968567 0.41780954599380493 0.6865140532641116 -45.03086413470343 -14.896919623978418 -1.8944124077449993 -0.17283241383905154 0.25159772769428 -2.2420371214496058 -1.4903281194022675 1.468464199696676 -2.1460472546019496 -1.1420095602618616 -0.5573151747332972 0.9778242707252502 -0.423152893781662 0.3073047995567322 -0.19890069961547852 -0.6107854247093201 0.8291093707084656 1.7867213487625122 -5.735518455505371 -0.3280826807022095 -0.5627012252807617 -0.3327447175979614 0.5388819575309753 1.5978915691375732 -5.259316921234131 -0.24303023517131805 -0.5385807156562805 -0.4006369709968567 0.41780954599380493 0.20823431117205837 0.5678234551577624 0.5516021986548184 -2.4266177994896396 -0.039639787311939914 -0.0025863379250736307 -0.5903850040211369 0.04318137197388379 0.07989300560269268 -0.0679022965177145 -0.052242889293791284 0.009030625504330647 1.4279355526033317 14.508849862311456 -14.02605141783146 0.14336697795248 -0.10024683834779433 0.005633182312124112 0.20799685734314907 0.5678401740578471 0.5515313485607728 -2.4267811103440686 -0.039697625666301785 -0.0025295133238915895 -0.5903780067060228 0.0430886814467563 0.08049551739194906 -0.06832825682566053 -0.05339686743160044 0.005394747739689731 0 31.75 33.0 31.5 35.5 38.25 39.25 0.715957 7 253 253 253 253 253 253 1 0.019153613597154617 1.3215993642807007 -10.20887565612793 1.0 1.0 4.4508672278765475 47.526573181152344 47.516719818115234 1.6919201612472534 47.32693862915039 47.25527572631836 47.240943908691406 47.22661209106445 47.12628173828125 47.06895065307617 0 2
8529.974 -2.138597843190249 -1.535006277024407 1.5009482733621815 -2.167107764245575 -1.20694017884556 -0.4694144905319071 1.0471975511965976 -0.4524419648460238 0.32698890460605856 -0.2129125921257639 -0.657223424520095 0.8906866419438796 0.0 0.0 0.0 0.0 0.0 0.0 1.4872907400131226 -5.06252908706665 -0.2862033545970917 -0.5342216491699219 -0.3942256271839142 0.39611002802848816 -1.175915745810549 -42.92695622166224 -15.681376980002716 -1.8361437764910349 -0.056150445641152215 4.0748379701597147e-05 -2.1391752401935022 -1.534856816088297 1.5007360617267054 -2.1670619450011195 -1.206506077443258 -0.4697230497943323 1.0506126880645752 -0.4583248496055603 0.32743513584136963 -0.20882682502269745 -0.6569077968597412 0.8903788328170776 1.6177712678909302 -5.147552490234375 -0.30734750628471375 -0.5901629328727722 -0.4087108075618744 0.49347153306007385 1.4872907400131226 -5.06252908706665 -0.2862033545970917 -0.5342216491699219 -0.3942256271839142 0.39611002802848816 0.1468988351328379 0.5688083444579206 0.5599195984617065 -2.430028134152627 -0.04152039478114152 -0.009269907528752211 -0.6185722710640317 -0.02682284357211569 0.08594689434682333 0.004774206342989216 -0.05270678219666891 -0.010197454949647189 -2.4963935675351143 14.183170687536492 -14.165941541598016 0.13647665739578188 0.02706265627399205 0.147613702617707 0.14658752351060256 0.5688216621417076 0.5598789721231017 -2.430225755591838 -0.04166968275698495 -0.00933351362593225 -0.6151499745439731 -0.025572213097249528 0.08351616299682561 0.003883117727482905 -0.05211287404697251 -0.014116074901271092 0 31.5 33.0 31.5 35.5 38.25 39.25 0.696985 7 253 253 253 253 253 253 1 1.0726022720336914 1.1492167711257935 -9.749189376831055 1.0 1.0 4.663634255899424 47.570457458496094 47.561500549316406 1.6807302236557007 47.35560607910156 47.28394317626953 47.28394317626953 47.32693862915039 47.18361282348633 47.12628173828125 0 2
8530.073999999999 -2.034263908689047 -1.580083779613962 1.5335266907933578 -2.1883205797415126 -1.2724203794516278 -0.3806739833988626 1.0143735596924184 -0.43826035107766625 0.3167395672059798 -0.2062389314520131 -0.6366230171966203 0.8627684227552987 -1.3962634015954878 0.6032559531280457 -0.43598520614140934 0.2838834561676995 0.8762978993601123 -1.187582189258518 1.3197458982467651 -4.800134658813477 -0.3693941533565521 -0.5239408612251282 -0.37345290184020996 0.3597543239593506 -2.7947960164400922 -40.37917097431568 -16.52374935274764 -1.7733608555715572 0.07394029475373899 -0.25153410554651773 -2.034844223652975 -1.5799108944334925 1.533233944569723 -2.1881734333434046 -1.2721417585956019 -0.38118058839906865 1.0171314477920532 -0.4408058822154999 0.3193284571170807 -0.2088680863380432 -0.6503655314445496 0.867849588394165 1.5007400512695312 -5.139409065246582 -0.4809189438819885 -0.555007815361023 -0.1948891133069992 0.46344107389450073 1.3197458982467651 -4.800134658813477 -0.3693941533565521 -0.5239408612251282 -0.37345290184020996 0.3597543239593506 0.08679285238219041 0.562842796381554 0.5681114726937685 -2.4260198383958054 -0.040916200561687106 -0.01586027610065709 -0.5723044316252679 -0.091955721864339 0.07813095179784108 0.07487735337949762 -0.0396229298459263 -0.037897303114638126 2.361496806303115 14.281839248995583 -14.602201456133342 0.11655621999903532 -0.14628241400672345 0.02131832190135262 0.08646882041830883 0.5628208219561232 0.5680600584849903 -2.4260888858198815 -0.040894169093578424 -0.015698013283774372 -0.5718616431195915 -0.09119191116929523 0.07814404908611812 0.0774910144918451 -0.032041424346371805 -0.028416400135404696 0 31.75 33.0 31.5 35.5 38.25 39.25 0.701725 7 253 253 253 253 253 253 1 0.9193733930587769 1.2449848651885986 -9.864110946655273 1.0 1.0 4.424085703485304 47.51850891113281 47.50955581665039 1.6046385765075684 47.35560607910156 47.240943908691406 47.25527572631836 47.240943908691406 47.12628173828125 47.09761428833008 0 2
8530.173999999999 -1.9398078697277823 -1.620893534956088 1.5630207214832486 -2.207525055605875 -1.3317011916744894 -0.30033505206962463 0.874747219532872 -0.377934755764863 0.27314104659183863 -0.17785058583524455 -0.5489932272606075 0.744010203829448 -1.3962634015954878 0.6032559531280457 -0.43598520614140934 0.2838834561676995 0.8762978993601678 -1.187582189258518 1.4383695125579834 -4.7561869621276855 -0.4388541281223297 -0.5219771265983582 -0.3542362153530121 0.3395427465438843 -0.35167792017634314 -40.245089728635094 -16.767336810393736 -1.8122494111486287 0.08780483243351334 -0.2515466424552558 -1.9403098265277308 -1.620744367639059 1.562728230153219 -2.207468172112936 -1.331536595021383 -0.30073434511293584 0.8744839429855347 -0.38399213552474976 0.27274349331855774 -0.17753303050994873 -0.5537021160125732 0.7402462959289551 1.865442156791687 -4.955381393432617 -0.35568028688430786 -0.5652416348457336 -0.16085954010486603 0.4831506013870239 1.4383695125579834 -4.7561869621276855 -0.4388541281223297 -0.5219771265983582 -0.3542362153530121 0.3395427465438843 0.03475702679509908 0.5517323125272688 0.5752890971010972 -2.415847305811908 -0.03771290296401766 -0.019671884125045867 -0.4692906218137019 -0.12922002775218328 0.06832998739726524 0.12583009422956856 -0.01161888669138833 -0.0329613226276525 3.415172748869629 13.6948144890649 -14.782317135806618 0.08310793185083144 -0.16031255230723135 -0.005263806793059669 0.03447803247034261 0.5516865249532987 0.5752125803321358 -2.415967821100129 -0.03775200367762037 -0.019410605192052333 -0.46899929064236323 -0.12698614223029836 0.06505930052095805 0.12146062574691023 -0.0035438581103587885 -0.03252280571998012 0 31.75 33.0 31.5 35.5 38.25 39.25 0.707593 7 253 253 253 253 253 253 1 0.2298433631658554 1.3407529592514038 -9.308656692504883 1.0 1.0 3.7412405202403733 47.514034271240234 47.5059700012207 1.4614073038101196 47.32693862915039 47.28394317626953 47.22661209106445 47.26960754394531 47.16927719116211 47.083282470703125 0 2
8530.274 -1.8593144647824724 -1.6556707307669338 1.5881549001117257 -2.223890696908562 -1.3822190249037494 -0.2318719426329725 0.7351208793733255 -0.3176091604520598 0.22954252597769742 -0.14946224021847604 -0.46136343732459484 0.6252519849035973 -1.3962634015954878 0.6032559531280457 -0.4359852061414371 0.28388345616767174 0.8762978993601123 -1.187582189258518 1.5067013502120972 -4.69312047958374 -0.5049300193786621 -0.5188787579536438 -0.33010196685791016 0.3193308115005493 1.5045156387708234 -39.91751553849193 -16.972115819910854 -1.8429202489263525 0.10174113578781746 -0.2515622055113363 -1.8596966902362269 -1.6556316814818324 1.587813679371969 -2.223795076409811 -1.381946865712301 -0.23239642778505498 0.7352634072303772 -0.32219770550727844 0.2313459813594818 -0.14922524988651276 -0.4622846245765686 0.6318262219429016 1.8619012832641602 -4.8187737464904785 -0.5808382034301758 -0.5926218628883362 -0.27012866735458374 0.4175301492214203 1.5067013502120972 -4.69312047958374 -0.5049300193786621 -0.5188787579536438 -0.33010196685791016 0.3193308115005493 -0.007411421442496438 0.538244807423672 0.5812591046167208 -2.402592405396681 -0.033559127830136246 -0.020176952843980862 -0.37431964179465316 -0.14056759011743666 0.05418577372807208 0.1406689062760328 0.023154781758712106 -0.036224079545349674 -1.1436248734912045 13.650241500956785 -14.730711018481063 0.08788512751277414 -0.02877353188793582 0.1256685337168152 -0.007586713291185354 0.5382220710716713 0.5811020840930393 -2.4028466939940816 -0.03324128051016977 -0.020001131157164564 -0.3737368383824832 -0.13880539018431887 0.05287846635882917 0.13849149137688205 0.01999721807795657 -0.030930419594920378 0 31.75 33.0 31.5 35.5 38.25 39.25 0.696145 7 253 253 253 253 253 253 1 1.149216890335083 0.38307225704193115 -9.500192642211914 1.0 1.0 3.0936290588405044 47.54448318481445 47.53104782104492 1.3651736974716187 47.38426971435547 47.34127426147461 47.31260681152344 47.32693862915039 47.22661209106445 47.16927719116211 0 2
8530.374 -1.7927836938531172 -1.6844153670465003 1.6089292266787882 -2.2374175036495707 -1.4239738791394085 -0.17528465508890534 0.5954945392137789 -0.25728356513925654 0.18594400536355626 -0.12107389460170748 -0.37373364738858195 0.5064937659777466 -1.3962634015954878 0.6032559531280457 -0.43598520614140934 0.28388345616767174 0.8762978993601678 -1.187582189258518 1.5324457883834839 -4.620139122009277 -0.5671167969703674 -0.5147051811218262 -0.2996845841407776 0.29911884665489197 2.8668158387564695 -39.48802930939596 -17.131590676082745 -1.8657346241943644 0.11413067599095238 -0.2515781875627099 -1.7931841055499476 -1.6842318973936976 1.6089442412005823 -2.2373906574644984 -1.4237645308123987 -0.17552692094911748 0.5977164506912231 -0.2604508101940155 0.1837081015110016 -0.12205380946397781 -0.3742351830005646 0.5081918835639954 1.5896788835525513 -5.055389881134033 -0.7800142168998718 -0.5796385407447815 -0.23962828516960144 0.3650361895561218 1.5324457883834839 -4.620139122009277 -0.5671167969703674 -0.5147051811218262 -0.2996845841407776 0.29911884665489197 -0.040371839147895286 0.524627697630719 0.585714653628331 -2.389297402771878 -0.028136200400108127 -0.018129966892973214 -0.2889907768390379 -0.13361172193270865 0.0445378112241647 0.14069980836534415 0.033779908224653654 -0.02564745754679848 -1.1400786624153227 13.918616380637541 -15.181330157245766 0.0813642743018359 -0.03866816604636376 0.12386102529489858 -0.04057192436704648 0.5245334314928096 0.5858168111613199 -2.389106030501612 -0.028248089595729463 -0.018135028452015083 -0.28750037767551706 -0.13235767855861566 0.04155238697993285 0.13466094000600057 0.03456319573707306 -0.02629393787260581 0 31.75 33.0 31.5 35.5 38.25 39.25 0.705181 7 253 253 253 253 253 253 1 1.1683704853057861 0.26815056800842285 -9.921571731567383 1.0 1.0 2.474002184183289 47.575828552246094 47.57224655151367 1.1368987560272217 47.44160079956055 47.38426971435547 47.38426971435547 47.38426971435547 47.26960754394531 47.22661209106445 0 2
8530.474 -1.7402155569397166 -1.7071274437947856 1.625343701184437 -2.2481054758289023 -1.456965754381466 -0.13057318943742313 0.4558681990542326 -0.1969579698264533 0.1423454847494151 -0.09268554898493891 -0.2861038574525694 0.38773554705189595 -1.3962634015954878 0.6032559531280457 -0.43598520614140934 0.2838834561676995 0.8762978993600568 -1.187582189258518 1.5105583667755127 -4.546772480010986 -0.6267012357711792 -0.5096954703330994 -0.2695387601852417 0.2678566873073578 3.830738162101367 -39.05372390926366 -17.26065704705904 -1.882472865692446 0.12443615976339933 -0.2515928394985434 -1.740424935017721 -1.7070819340147914 1.6252525488482874 -2.2480269871153773 -1.4568255583392542 -0.1308196226703089 0.4577644169330597 -0.20000453293323517 0.14675195515155792 -0.09391283243894577 -0.28390082716941833 0.39288654923439026 1.6679730415344238 -4.915926456451416 -0.8365561962127686 -0.6202344298362732 -0.2265055775642395 0.2914971113204956 1.5105583667755127 -4.546772480010986 -0.6267012357711792 -0.5096954703330994 -0.2695387601852417 0.2678566873073578 -0.06529233873016899 0.5122267370060455 0.589454600812445 -2.376554020555373 -0.023609393774676322 -0.014930788928456305 -0.21165208685547204 -0.11383682017645917 0.030283710305589198 0.11568620702766169 0.044054194989054135 -0.02061801174818617 -1.490644578834852 13.228245709404582 -15.396519510558061 0.046762254167158304 -0.0575354924892689 0.10816575248704857 -0.06538434270395382 0.5121949268192622 0.5894381230562332 -2.3765370244904562 -0.023501479070996714 -0.014884604739716195 -0.21015447541584184 -0.11255014928948495 0.030991740375419418 0.11560356004254511 0.038913976296588465 -0.02032007959603388 0 31.5 33.0 31.5 35.5 38.25 39.25 0.712453 7 253 253 253 253 253 253 1 0.9576807022094727 0.0 -9.59596061706543 1.0 1.0 1.8758641153915954 47.59105682373047 47.586578369140625 1.0585691928863525 47.498931884765625 47.39860534667969 47.41293716430664 47.38426971435547 47.298274993896484 47.25527572631836 0 2
8530.573999999999 -1.7016100540422707 -1.7238069610117908 1.6373983236286715 -2.2559546134465585 -1.4811946506299218 -0.09773754567852588 0.31624185889468603 -0.13663237451365007 0.09874696413527395 -0.06429720336817035 -0.1984740675165566 0.26897732812604525 -1.3962634015954878 0.6032559531280457 -0.43598520614140934 0.2838834561676995 0.8762978993600568 -1.187582189258518 1.4137916564941406 -4.479043006896973 -0.6828136444091797 -0.5039070248603821 -0.23971480131149292 0.2358315885066986 4.471508898639806 -38.67355171496528 -17.348980803343338 -1.8934872671864555 0.1322748136739871 -0.25160459228276766 -1.7018440405475062 -1.723722597161764 1.6374767462359827 -2.255909105340475 -1.4810846487628382 -0.09789020219911748 0.3173982501029968 -0.13848067820072174 0.09613657742738724 -0.06495863944292068 -0.20108383893966675 0.2702270448207855 1.6239162683486938 -4.768209457397461 -0.925676703453064 -0.6059209108352661 -0.16875386238098145 0.2567063570022583 1.4137916564941406 -4.479043006896973 -0.6828136444091797 -0.5039070248603821 -0.23971480131149292 0.2358315885066986 -0.0827509573206228 0.5023876893997127 0.591945352265928 -2.36661147397492 -0.019515169976953024 -0.011415658729166245 -0.14084946860918912 -0.08433652562609925 0.023498056768919563 0.09095257695307682 0.0320896940585787 -0.015539385817797902 1.2771069136201878 13.440195071489605 -15.136221722149514 0.04434989803202005 -0.040946504609424894 0.09991825122335034 -0.08285899498045782 0.5023319192040416 0.5920363481146648 -2.3664127922954505 -0.01956993825084785 -0.011391889797908531 -0.1404701067828189 -0.08346252643770231 0.02106550872350647 0.08611281860771629 0.03382701250439821 -0.013981775288480935 0 31.75 33.0 31.5 35.5 38.25 39.25 0.711673 7 253 253 253 253 253 253 1 0.5363011360168457 0.07661445438861847 -9.710882186889648 1.0 1.0 1.2934220975403932 47.62419128417969 47.61613082885742 0.8750540018081665 47.513267517089844 47.455936431884766 47.44160079956055 47.41293716430664 47.38426971435547 47.26960754394531 0 2
8530.673999999999 -1.6769671851607795 -1.7344539186975165 1.6450930940114916 -2.2609649165025365 -1.4966605678847769 -0.0767777238122136 0.1766155187351397 -0.07630677920084683 0.055148443521132684 -0.035908857751401846 -0.11084427758054383 0.15021910920019454 -1.3962634015953768 0.6032559531280457 -0.43598520614140934 0.28388345616767174 0.8762978993600568 -1.187582189258518 1.2984652519226074 -4.422860145568848 -0.7364495992660522 -0.49753445386886597 -0.21023046970367432 0.20380695164203644 4.853580173070885 -38.408314789322695 -17.408170815187212 -1.9002629778403604 0.13747718800198283 -0.251612608512844 -1.677054230366842 -1.7344137630858363 1.644869629536764 -2.260991235772604 -1.4964717070208948 -0.07703620592226201 0.17747975885868073 -0.07687357813119888 0.056225743144750595 -0.035934124141931534 -0.11513552069664001 0.15451277792453766 1.5063669681549072 -4.75741720199585 -0.8617047071456909 -0.5943058133125305 -0.19974246621131897 0.2258695363998413 1.2984652519226074 -4.422860145568848 -0.7364495992660522 -0.49753445386886597 -0.21023046970367432 0.20380695164203644 -0.0936490554161132 0.49572387370006904 0.5937761459250247 -2.359355819915976 -0.017167929145228564 -0.008614177272685741 -0.07639827652082933 -0.04878183122556038 0.011264199979687018 0.049315531953291504 0.021513281934463904 -0.01290875083303794 0.13435851854726066 13.112948810508946 -14.390669946684827 0.050022510365691275 -0.020167812569457058 0.11326652603885123 -0.09366917376847606 0.4956994066825376 0.5936668016165096 -2.359578100028731 -0.01686478076052746 -0.008641206909014638 -0.07649566287864773 -0.04844693507677263 0.011605633813449357 0.050081633092806534 0.021440203321892323 -0.007716386698742209 0 31.75 33.0 31.5 35.5 38.25 39.25 0.694104 7 253 253 253 253 253 253 1 0.9576807022094727 -0.019153613597154617 -9.59596061706543 1.0 1.0 0.7214751418943699 47.61165237426758 47.604488372802734 0.7832964062690735 47.54193115234375 47.48460006713867 47.48460006713867 47.455936431884766 47.38426971435547 47.369937896728516 0 2
8530.774 -1.6662869502952429 -1.7390683168519603 1.6484280123328978 -2.2631363849968382 -1.503363506146031 -0.06769372383848715 0.03698917857559314 -0.015981183888043704 0.011549922906991528 -0.007520512134633284 -0.023214487644531046 0.031460890274343845 -1.3962634015953768 0.6032559531279902 -0.43598520614140934 0.28388345616767174 0.8762978993601678 -1.187582189258518 1.1636435985565186 -4.380502223968506 -0.7869860529899597 -0.44068533182144165 -0.18113845586776733 0.17178291082382202 5.012842239874834 -38.28164860850833 -17.431530767503634 -1.9029960230340097 0.13965866338078484 -0.25161618096053723 -1.6663320700274866 -1.7389995060362757 1.6483848730670374 -2.263127943078512 -1.5033276716815394 -0.06774312654604131 0.03949188068509102 -0.01729854941368103 0.012570710852742195 -0.006562970578670502 -0.026299433782696724 0.03338097035884857 1.2383900880813599 -4.70886754989624 -1.0802110433578491 -0.5627360939979553 -0.13230188190937042 0.14791879057884216 1.1636435985565186 -4.380502223968506 -0.7869860529899597 -0.44068533182144165 -0.18113845586776733 0.17178291082382202 -0.09824868181781991 0.4927797250031875 0.5943560238707285 -2.356561523493949 -0.015666443006958505 -0.007318337533023163 -0.01672801991414341 -0.011143741255386402 0.0023158531549296933 0.009837640586115892 0.003960217018231613 -0.0026430819953075883 0.9761312955987341 13.4897762756518 -14.605939686665009 0.04818006577064418 -0.04217094590540271 0.0966001494711052 -0.09826901144726702 0.4927462683236162 0.5943664994123279 -2.35652961722395 -0.0156453277988343 -0.007318382737034135 -0.0158404878009069 -0.010308536944330548 0.0024159389789064796 0.010663018913715565 0.004727081737673024 -0.0016051335226313357 0 31.75 33.0 31.5 35.5 38.25 39.25 0.672805 7 253 253 253 253 253 253 1 0.4213795065879822 -0.05746084079146385 -9.557653427124023 1.0 1.0 0.15525941583596128 47.61882019042969 47.661808013916016 0.6915388107299805 47.55626678466797 47.54193115234375 47.5275993347168 47.513267517089844 47.427268981933594 47.39860534667969 0 2
8530.874 -1.6657969999999995 -1.73928 1.6485810000000003 -2.263236 -1.5036709999999998 -0.06727699999999981 0.0 0.0 0.0 0.0 0.0 0.0 0.0 0.0 0.0 0.0 0.0 0.0 0.7782978415489197 -3.854757308959961 -1.4764997959136963 -0.2775488495826721 -6.0699817368004005e-06 0.0 8.941985831471472 -41.065287551207746 -16.784089974174865 -2.018164781956561 -4.592405240727345e-05 0.0 -1.6658762137042444 -1.7391463718810023 1.6484959761248987 -2.263162752191061 -1.5036261717425745 -0.06732827821840459 -4.461482240003534e-05 3.8910617149667814e-05 -0.0001290032669203356 -0.0013751606456935406 -0.0020074299536645412 0.0006363135762512684 1.03056800365448 -4.512747287750244 -1.4386366605758667 -0.5932255387306213 -0.1449718177318573 0.1347181499004364 0.7782978415489197 -3.854757308959961 -1.4764997959136963 -0.2775488495826721 -6.0699817368004005e-06 0.0 -0.09844031962353152 0.49267244069274324 0.5943695053125465 -2.356507603632041 -0.015572542957233228 -0.007252909430905921 0.0002856672340156052 3.9801462574878176e-05 0.0002658429201107527 0.0013515276262720732 -0.0011013304537839594 -0.0019025982074534153 1.2380340533968763 14.08291377191464 -14.43793118683569 0.05440451198260377 -0.05802475934323687 0.061533995054496346 -0.09847877593741647 0.4926096749333949 0.5943984959155817 -2.3563885441095627 -0.015588705836319246 -0.0072557728748750445 0.0 0.0 0.0 0.0 0.0 0.0 0 31.75 33.0 31.5 35.5 38.25 39.25 0.472632 7 253 253 253 253 253 253 1 0.15322890877723694 0.17238251864910126 -9.749189376831055 0.0 1.0 0.0 47.66986846923828 47.6761360168457 0.6355891227722168 47.584930419921875 47.5275993347168 47.54193115234375 47.498931884765625 47.47026824951172 47.38426971435547 0 1
8530.974 -1.6657969999999995 -1.73928 1.6485810000000003 -2.263236 -1.5036709999999998 -0.06727699999999981 0.0 0.0 0.0 0.0 0.0 0.0 0.0 0.0 0.0 0.0 0.0 0.0 0.7783021330833435 -3.8548355102539062 -1.4765223264694214 -0.2775532007217407 -4.231230832374422e-06 0.0 8.942029352570305 -41.066127487533876 -16.784352372488186 -2.0181985661261925 -3.267508555467072e-05 0.0 -1.665905777608053 -1.7391978702940882 1.6485207716571253 -2.263177534142965 -1.5036662260638636 -0.06730062166322881 0.00023394214804284275 0.0 4.4631000491790473e-05 -0.0002603071043267846 -0.00014813659072387964 0.00039790032315067947 1.2142529487609863 -4.725241184234619 -1.365229606628418 -0.5601236820220947 -0.11912655830383301 0.1603531688451767 0.7783021330833435 -3.8548355102539062 -1.4765223264694214 -0.2775532007217407 -4.231230832374422e-06 0.0 -0.09842260410977678 0.4926536553773482 0.5943827893302783 -2.3564691602406747 -0.015487332990683578 -0.00730574477755377 -9.56567377596236e-05 -1.7454713693263968e-05 1.6855771128616684e-05 0.00020709529610244776 0.00015738058976653648 -0.00015052055280928968 0.792830934365741 13.898229535041498 -15.097280216571827 0.04651516950966482 -0.048324933249252786 0.07948889424068835 -0.09847877593741647 0.4926096749333949 0.5943984959155817 -2.3563885441095627 -0.015588705836319246 -0.0072557728748750445 0.0 0.0 0.0 0.0 0.0 0.0 0 31.75 33.0 31.5 35.5 38.25 39.25 0.484728 7 253 253 253 253 253 253 1 0.40222588181495667 -0.019153613597154617 -10.15141487121582 0.0 1.0 0.0 47.6761360168457 47.68509292602539 0.6512550115585327 47.61359786987305 47.55626678466797 47.57059860229492 47.5275993347168 47.498931884765625 47.47026824951172 0 1
8531.073999999999 -1.6657969999999995 -1.73928 1.6485810000000003 -2.263236 -1.5036709999999998 -0.06727699999999981 0.0 0.0 0.0 0.0 0.0 0.0 0.0 0.0 0.0 0.0 0.0 0.0 0.7783864736557007 -3.854672908782959 -1.4766063690185547 -0.27756425738334656 -2.0653141064030933e-07 0.0 8.942982296239776 -41.06446276061686 -16.785274030615255 -2.0182773294726477 -2.1189229871649163e-06 0.0 -1.6658895651446741 -1.7392031155028285 1.6485570112811487 -2.2632185421385707 -1.5036609808551233 -0.06729776064027959 0.0005783698288723826 -0.0013918215408921242 0.00022641767282038927 -6.501228926936164e-05 -5.006817082175985e-05 0.00011213942343601957 1.417556643486023 -4.904233932495117 -1.074721336364746 -0.5674811005592346 -0.13019481301307678 0.1517152339220047 0.7783864736557007 -3.854672908782959 -1.4766063690185547 -0.27756425738334656 -2.0653141064030933e-07 0.0 -0.09843138581971593 0.4926511952021062 0.594371972854904 -2.3564587222568574 -0.01550615612705314 -0.007291110445379518 -0.0003350229319962542 -0.0006510753712094636 0.0005548919559450584 0.001222259592403214 -7.2632148665277e-05 0.0004638868084426473 1.6481942147649946 13.906210560087596 -14.676596468491905 0.048424643640996114 -0.055014987914349014 0.06530814017576551 -0.09847877593741647 0.4926096749333949 0.5943984959155817 -2.3563885441095627 -0.015588705836319246 -0.0072557728748750445 0.0 0.0 0.0 0.0 0.0 0.0 0 31.75 33.0 31.5 35.5 38.25 39.25 0.459997 7 253 253 253 253 253 253 1 0.09576806426048279 0.19153612852096558 -9.921571731567383 0.0 1.0 0.0 47.663597106933594 47.66807556152344 0.6825868487358093 47.59926223754883 47.5275993347168 47.584930419921875 47.5275993347168 47.498931884765625 47.41293716430664 0 1
8531.173999999999 -1.6657969999999995 -1.73928 1.6485810000000003 -2.263236 -1.5036709999999998 -0.06727699999999981 0.0 0.0 0.0 0.0 0.0 0.0 0.0 0.0 0.0 0.0 0.0 0.0 0.7784483432769775 -3.8545103073120117 -1.4765716791152954 -0.27756062150001526 1.3973249224363826e-06 0.0 8.943707905194925 -41.06267412161093 -16.784917842986108 -2.018253234430372 1.0524136283385062e-05 0.0 -1.6657727400409144 -1.739235063592428 1.6485641638385218 -2.2631894550719203 -1.5036867300616663 -0.06727677980531865 0.00022197522048372775 -6.813731306465343e-05 0.00024744431721046567 -1.7280641259276308e-05 -0.0 6.994797877268866e-05 1.2724498510360718 -4.788556098937988 -1.2135604619979858 -0.5381110906600952 -0.13062307238578796 0.1513279229402542 0.7784483432769775 -3.8545103073120117 -1.4765716791152954 -0.27756062150001526 1.3973249224363826e-06 0.0 -0.09848691950959444 0.49262527990718386 0.5943785481023365 -2.356463596537127 -0.015606263806135973 -0.007253929017707491 -0.00011171943675509028 -4.764101595155761e-05 -0.00010110429525953773 -0.00016124942004177084 6.488429905565464e-05 0.0001724093206537014 1.6617695170985158 13.833389549669977 -14.680048395956497 0.051264000172438325 -0.05550900721115351 0.06418455423744002 -0.09847877593741647 0.4926096749333949 0.5943984959155817 -2.3563885441095627 -0.015588705836319246 -0.0072557728748750445 0.0 0.0 0.0 0.0 0.0 0.0 0 31.5 33.0 31.5 35.5 38.25 39.25 0.463189 7 253 253 253 253 253 253 1 0.038307227194309235 0.1149216741323471 -10.017339706420898 0.0 1.0 0.0 47.65732955932617 47.664493560791016 0.6020192503929138 47.55626678466797 47.5275993347168 47.54193115234375 47.5275993347168 47.38426971435547 47.41293716430664 0 1
8531.274 -1.6657969999999995 -1.73928 1.6485810000000003 -2.263236 -1.5036709999999998 -0.06727699999999981 0.0 0.0 0.0 0.0 0.0 0.0 0.0 0.0 0.0 0.0 0.0 0.0 0.7784706354141235 -3.8545072078704834 -1.4765923023223877 -0.27756059169769287 5.641376446874347e-06 0.0 8.943969094203618 -41.06263177554561 -16.785147639934788 -2.0182529268933496 4.35252601870556e-05 0.0 -1.6658099333392542 -1.739235063592428 1.6485183874713343 -2.2631732426085414 -1.5037067572223108 -0.06728583971132451 1.4127095710136928e-05 -1.4238243238651194e-05 6.599552580155432e-05 -2.334316354827774e-19 -0.0 0.0 1.2366719245910645 -4.758496284484863 -1.209818959236145 -0.5492495894432068 -0.11891809105873108 0.14381904900074005 0.7784706354141235 -3.8545072078704834 -1.4765923023223877 -0.27756059169769287 5.641376446874347e-06 0.0 -0.0984660859925744 0.4926279054082885 0.5944011072864872 -2.3564356718779935 -0.015564514013860211 -0.007303663139915016 -7.4350781239474535e-06 -6.676208797038359e-06 -2.9606145829472515e-05 -5.1524134706067376e-05 4.9069214282270554e-06 1.4076486335882489e-05 1.2346199797974384 13.7179552258838 -14.883121512425683 0.05085936420544685 -0.05780764879368701 0.0658510653062252 -0.09847877593741647 0.4926096749333949 0.5943984959155817 -2.3563885441095627 -0.015588705836319246 -0.0072557728748750445 0.0 0.0 0.0 0.0 0.0 0.0 0 31.5 33.0 31.5 35.5 38.25 39.25 0.454801 7 253 253 253 253 253 253 1 0.17238251864910126 0.1149216815829277 -10.017339706420898 0.0 1.0 0.0 47.62419128417969 47.62598419189453 0.6243991255760193 47.54193115234375 47.48460006713867 47.513267517089844 47.498931884765625 47.44160079956055 47.35560607910156 0 1
8531.374 -1.6657969999999995 -1.73928 1.6485810000000003 -2.263236 -1.5036709999999998 -0.06727699999999981 0.0 0.0 0.0 0.0 0.0 0.0 0.0 0.0 0.0 0.0 0.0 0.0 0.778430163860321 -3.8545145988464355 -1.4765578508377075 -0.2775578498840332 2.082183982565766e-06 0.0 8.943504728944289 -41.06270836672733 -16.784755307379285 -2.0182329252102535 1.6070638220675304e-05 0.0 -1.6657374540912073 -1.73930086712026 1.648588005696432 -2.2632276020445765 -1.5036371389972132 -0.06725436845888311 0.0 0.0 -0.0 -0.0 -0.0 4.4845961858333937e-29 1.281333088874817 -4.737232208251953 -1.196703314781189 -0.5503213405609131 -0.12992584705352783 0.14674538373947144 0.778430163860321 -3.8545145988464355 -1.4765578508377075 -0.2775578498840332 2.082183982565766e-06 0.0 -0.0985133599051744 0.49259491361100805 0.5944034679727493 -2.356380653197411 -0.015648823568885247 -0.007176564973398317 1.2447254854145977e-45 -2.443259986018888e-46 -2.4341433442800117e-46 2.2636979113817079e-32 3.170368747249698e-29 -3.1718070294590074e-29 1.4032569026220112 13.798913810279945 -14.902765865938097 0.0492975673361694 -0.060787251543999395 0.06608665754603603 -0.09847877593741647 0.4926096749333949 0.5943984959155817 -2.3563885441095627 -0.015588705836319246 -0.0072557728748750445 0.0 0.0 0.0 0.0 0.0 0.0 0 31.5 33.0 31.5 35.5 38.25 39.0 0.469501 7 253 253 253 253 253 253 1 0.19153612852096558 0.07661445438861847 -10.017339706420898 0.0 1.0 0.0 47.65374755859375 47.68330383300781 0.6378270983695984 47.57059860229492 47.54193115234375 47.54193115234375 47.55626678466797 47.47026824951172 47.44160079956055 0 1
8531.474 -1.6657969999999995 -1.73928 1.6485810000000003 -2.263236 -1.5036709999999998 -0.06727699999999981 0.0 0.0 0.0 0.0 0.0 0.0 0.0 0.0 0.0 0.0 0.0 0.0 0.7784183621406555 -3.85459041595459 -1.4765676259994507 -0.27755963802337646 2.11652559301001e-06 0.0 8.943368609349028 -41.063519965847576 -16.784866595593833 -2.018245820956005 1.633569222906683e-05 0.0 -1.6658147017108362 -1.7392059765257777 1.6486056486712855 -2.263273378411764 -1.5036738554583948 -0.06730539003481084 0.0 0.0 -0.0 -0.0 -6.417946966607662e-43 0.0 1.2459155321121216 -4.737300872802734 -1.1633129119873047 -0.5409970283508301 -0.123996302485466 0.12812452018260956 0.7784183621406555 -3.85459041595459 -1.4765676259994507 -0.27755963802337646 2.11652559301001e-06 0.0 -0.09846657485380819 0.49264435553871894 0.5943553156350817 -2.3564497042610726 -0.015597650311655989 -0.0072740724114243845 8.339882486224757e-44 -3.2211746135033306e-45 -3.133052189880161e-45 -3.452709873017182e-44 -4.535930320555327e-43 -4.527269302635204e-43 1.6951450399375991 14.18784650884041 -14.748655920602577 0.04567455623652 -0.0563291123145081 0.0603226631033696 -0.09847877593741647 0.4926096749333949 0.5943984959155817 -2.3563885441095627 -0.015588705836319246 -0.0072557728748750445 0.0 0.0 0.0 0.0 0.0 0.0 0 31.5 33.0 31.5 35.5 38.25 39.25 0.450565 7 253 253 253 253 253 253 1 0.0 0.1149216815829277 -10.036493301391602 0.0 1.0 0.0 47.661808013916016 47.67882537841797 0.6758729219436646 47.57059860229492 47.54193115234375 47.55626678466797 47.513267517089844 47.48460006713867 47.44160079956055 0 1
8531.573999999999 -1.6657969999999995 -1.73928 1.6485810000000003 -2.263236 -1.5036709999999998 -0.06727699999999981 0.0 0.0 0.0 0.0 0.0 0.0 0.0 0.0 0.0 0.0 0.0 0.0 0.7783973813056946 -3.8545453548431396 -1.4765429496765137 -0.27755600214004517 -6.0328284234856255e-06 0.0 8.943127621968795 -41.06303804124056 -16.784586827570017 -2.0182194684747663 -4.6562362126817294e-05 0.0 -1.6657846609698694 -1.739267965356344 1.648559872304098 -2.263236185113424 -1.503690544758932 -0.067268196736471 0.0 0.0 -0.0 -0.0 -0.0 0.0 1.2401092052459717 -4.690972328186035 -1.244918704032898 -0.5695199966430664 -0.1192534863948822 0.13476230204105377 0.7783973813056946 -3.8545453548431396 -1.4765429496765137 -0.27755600214004517 -6.0328284234856255e-06 0.0 -0.09848185602302836 0.49261327127864823 0.594404311713026 -2.356380423408393 -0.015583757270691747 -0.007269535721023167 0.0 0.0 0.0 0.0 0.0 0.0 1.7953471444109617 13.844698150574846 -14.746450458650251 0.05209639732615823 -0.05755815883450974 0.06208530927614546 -0.09847877593741647 0.4926096749333949 0.5943984959155817 -2.3563885441095627 -0.015588705836319246 -0.0072557728748750445 0.0 0.0 0.0 0.0 0.0 0.0 0 31.5 33.0 31.5 35.5 38.25 39.25 0.466213 7 253 253 253 253 253 253 1 0.019153613597154617 0.2298433631658554 -10.055646896362305 0.0 1.0 0.0 47.6761360168457 47.694942474365234 0.5975432395935059 47.59926223754883 47.513267517089844 47.5275993347168 47.5275993347168 47.455936431884766 47.41293716430664 0 1
8531.673999999999 -1.6657969999999995 -1.73928 1.6485810000000003 -2.263236 -1.5036709999999998 -0.06727699999999981 0.0 0.0 0.0 0.0 0.0 0.0 0.0 0.0 0.0 0.0 0.0 0.0 0.7784557342529297 -3.8544251918792725 -1.4765315055847168 -0.27755725383758545 -2.771374738586019e-06 0.0 8.943797596680719 -41.061757906555854 -16.784455953434996 -2.018228477490367 -2.13899271254834e-05 0.0 -1.6658027807818812 -1.73927702526235 1.6486313978778284 -2.2632481060423792 -1.5036781469928187 -0.06726342836488897 0.0 0.0 -0.0 -7.106323775957213e-12 -0.0 0.0 1.2636232376098633 -4.724623680114746 -1.1728354692459106 -0.5529446601867676 -0.11883625388145447 0.11142908036708832 0.7784557342529297 -3.8544251918792725 -1.4765315055847168 -0.27755725383758545 -2.771374738586019e-06 0.0 -0.098474783210221 0.4926123910659865 0.594371153659506 -2.356430187784255 -0.01556081948750885 -0.0072554296037204355 7.445443696302496e-15 1.569874365034431e-13 1.1529754888362326e-12 7.077430854895263e-12 -6.388318453391738e-13 4.1279247714106696e-14 1.64007089268182 13.94120309652976 -14.59862497363073 0.042587964316696994 -0.0553514463226126 0.06588327374424748 -0.09847877593741647 0.4926096749333949 0.5943984959155817 -2.3563885441095627 -0.015588705836319246 -0.0072557728748750445 0.0 0.0 0.0 0.0 0.0 0.0 0 31.5 33.0 31.5 35.5 38.25 39.25 0.460081 7 253 253 253 253 253 253 1 0.1149216815829277 0.09576806426048279 -9.998186111450195 0.0 1.0 0.0 47.65285110473633 47.656436920166016 0.5841153264045715 47.584930419921875 47.498931884765625 47.5275993347168 47.498931884765625 47.427268981933594 47.39860534667969 0 1
8531.774 -1.6657969999999995 -1.73928 1.6485810000000003 -2.263236 -1.5036709999999998 -0.06727699999999981 0.0 0.0 0.0 0.0 0.0 0.0 0.0 0.0 0.0 0.0 0.0 0.0 0.778440535068512 -3.8544981479644775 -1.476502537727356 -0.2775537073612213 4.413286092130875e-07 0.0 8.94362385174149 -41.0625337407317 -16.784125449956132 -2.018202739224563 3.4062468258600523e-06 0.0 -1.6658294836627405 -1.739267965356344 1.6485756079303187 -2.2631942234435023 -1.5036323706256312 -0.06725627580751592 0.0 0.0 -0.0 -0.0 -0.0 0.0 1.2049152851104736 -4.634081840515137 -1.2644368410110474 -0.5721571445465088 -0.1172773689031601 0.12929049134254456 0.778440535068512 -3.8544981479644775 -1.476502537727356 -0.2775537073612213 4.413286092130875e-07 0.0 -0.09846735356918673 0.49261724917534394 0.5943890950814402 -2.356434871368927 -0.015542705725293591 -0.0072107109193188575 0.0 0.0 0.0 0.0 0.0 0.0 1.558296889990451 13.554572400882469 -14.860036185076005 0.05410531423461641 -0.052459475037972304 0.0667900304589272 -0.09847877593741647 0.4926096749333949 0.5943984959155817 -2.3563885441095627 -0.015588705836319246 -0.0072557728748750445 0.0 0.0 0.0 0.0 0.0 0.0 0 31.5 33.0 31.5 35.5 38.25 39.25 0.46716 7 253 253 253 253 253 253 1 0.1149216815829277 0.15322890877723694 -10.055646896362305 0.0 1.0 0.0 47.65911865234375 47.66270446777344 0.6378270983695984 47.59926223754883 47.513267517089844 47.54193115234375 47.455936431884766 47.455936431884766 47.39860534667969 0 1
8531.874 -1.6657969999999995 -1.73928 1.6485810000000003 -2.263236 -1.5036709999999998 -0.06727699999999981 0.0 0.0 0.0 0.0 0.0 0.0 0.0 0.0 0.0 0.0 0.0 0.0 0.7784442901611328 -3.8545382022857666 -1.4764968156814575 -0.27755293250083923 3.6818337321165018e-06 0.0 8.94366669123028 -41.06296337910185 -16.78406219971761 -2.018197171676723 2.8417000454016503e-05 0.0 -1.6657803694354456 -1.739267965356344 1.648555103932516 -2.2632600269713343 -1.5036910215960901 -0.06730968156923467 0.0 0.0 -0.0 -0.0 -0.0 -2.7901810537250553e-25 1.2416313886642456 -4.568542957305908 -1.169359803199768 -0.5585190653800964 -0.1064266562461853 0.12263204157352448 0.7784442901611328 -3.8545382022857666 -1.4764968156814575 -0.27755293250083923 3.6818337321165018e-06 0.0 -0.09848389093579225 0.4926133123408036 0.5944108117794777 -2.356351660598553 -0.015638691916737748 -0.007291407594500129 -7.744308121796093e-42 2.5978221092157794e-42 2.58836860809054e-42 -1.648504638723747e-28 -1.9725661017181106e-25 1.9733450203528356e-25 1.5935251242126818 13.9303361127524 -14.75881469275253 0.04440050737653579 -0.05678944196435958 0.06772246997488449 -0.09847877593741647 0.4926096749333949 0.5943984959155817 -2.3563885441095627 -0.015588705836319246 -0.0072557728748750445 0.0 0.0 0.0 0.0 0.0 0.0 0 31.75 33.0 31.5 35.5 38.25 39.25 0.451428 7 253 253 253 253 253 253 1 0.15322890877723694 0.09576806426048279 -10.036493301391602 0.0 1.0 0.0 47.67792510986328 47.69046401977539 0.6423030495643616 47.64226150512695 47.55626678466797 47.55626678466797 47.513267517089844 47.48460006713867 47.35560607910156 0 1
8531.974 -1.6657969999999995 -1.73928 1.6485810000000003 -2.263236 -1.5036709999999998 -0.06727699999999981 0.0 0.0 0.0 0.0 0.0 0.0 0.0 0.0 0.0 0.0 0.0 0.0 0.7784458994865417 -3.854475259780884 -1.4765957593917847 -0.2775583267211914 -4.345889465184882e-06 0.0 8.94368532670899 -41.06229127117962 -16.78518657559554 -2.0182363033717734 -3.354229357015757e-05 0.0 -1.665755573903219 -1.739288946191305 1.6485713163958948 -2.2631942234435023 -1.5036652723895472 -0.06730968156923467 0.0 0.0 -0.0 -0.0 -0.0 -0.0 1.1610016822814941 -4.627048969268799 -1.2162307500839233 -0.5539678335189819 -0.08666683733463287 0.11383727192878723 0.7784458994865417 -3.854475259780884 -1.4765957593917847 -0.2775583267211914 -4.345889465184882e-06 0.0 -0.09850035255988612 0.4926007331661858 0.5944013991558245 -2.3564106690448186 -0.015677717142876347 -0.007242396874463409 0.0 0.0 0.0 0.0 0.0 0.0 1.567244838650921 13.753162708791615 -14.856245440221649 0.05167283610045032 -0.05412842204046704 0.059800188829127195 -0.09847877593741647 0.4926096749333949 0.5943984959155817 -2.3563885441095627 -0.015588705836319246 -0.0072557728748750445 0.0 0.0 0.0 0.0 0.0 0.0 0 31.75 33.0 31.5 35.5 38.25 39.25 0.47034 7 253 253 253 253 253 253 1 0.09576806426048279 0.07661445438861847 -9.90241813659668 0.0 1.0 0.0 47.65553665161133 47.66539001464844 0.6378270983695984 47.57059860229492 47.513267517089844 47.513267517089844 47.5275993347168 47.44160079956055 47.44160079956055 0 1
8532.073999999999 -1.6657969999999995 -1.73928 1.6485810000000003 -2.263236 -1.5036709999999998 -0.06727699999999981 0.0 0.0 0.0 0.0 0.0 0.0 0.0 0.0 0.0 0.0 0.0 0.0 0.7784460783004761 -3.854527235031128 -1.4765057563781738 -0.2775554060935974 -1.854774041021301e-06 0.0 8.943687182098548 -41.06284182603993 -16.784162263777088 -2.0182151329876623 -1.4315451980513335e-05 0.0 -1.6657713095294397 -1.739218374291891 1.6485665480243128 -2.26326908687734 -1.5036738554583948 -0.06729776064027959 0.0 0.0 -0.0 -0.0 -0.0 -0.0 1.1498959064483643 -4.608582019805908 -1.2569433450698853 -0.5359702706336975 -0.09006883203983307 0.10980385541915894 0.7784460783004761 -3.854527235031128 -1.4765057563781738 -0.2775554060935974 -1.854774041021301e-06 0.0 -0.0984885269601711 0.49263416595164367 0.5943821840967056 -2.3564023522801847 -0.015641654760730667 -0.007254771027866545 0.0 0.0 0.0 0.0 0.0 0.0 1.6856837467797516 13.854750993954319 -14.788106325905204 0.04819235922957948 -0.05041429986596524 0.06148309601036047 -0.09847877593741647 0.4926096749333949 0.5943984959155817 -2.3563885441095627 -0.015588705836319246 -0.0072557728748750445 0.0 0.0 0.0 0.0 0.0 0.0 0 31.75 33.0 31.5 35.5 38.25 39.25 0.454728 7 253 253 253 253 253 253 1 0.038307227194309235 0.13407529890537262 -10.074800491333008 0.0 1.0 0.0 47.63941955566406 47.6421012878418 0.6423030495643616 47.55626678466797 47.5275993347168 47.513267517089844 47.47026824951172 47.39860534667969 47.41293716430664 0 1
8532.173999999999 -1.6657969999999995 -1.73928 1.6485810000000003 -2.263236 -1.5036709999999998 -0.06727699999999981 0.0 0.0 0.0 0.0 0.0 0.0 0.0 0.0 0.0 0.0 0.0 0.0 0.7783997058868408 -3.8545753955841064 -1.4765057563781738 -0.27755212783813477 -3.84803661290789e-06 0.0 8.943154747624728 -41.0633565688448 -16.784162473008447 -2.018191372865209 -2.9699780961534636e-05 0.0 -1.6657803694354456 -1.739281793633932 1.6485641638385218 -2.2632514439024867 -1.5037038961993616 -0.06731731096376592 0.0 0.0 -0.0 -0.0 -2.8286649370334214e-32 -0.0 1.1444629430770874 -4.557023048400879 -1.3084356784820557 -0.5191900134086609 -0.07791993021965027 0.11901895701885223 0.7783997058868408 -3.8545753955841064 -1.4765057563781738 -0.27755212783813477 -3.84803661290789e-06 0.0 -0.09848277818899005 0.49260722914339183 0.5944110045402216 -2.3563561902676735 -0.01564122761415625 -0.007309905136108167 3.6757505302699154e-33 -1.4191018514589368e-34 -1.3798863093861166e-34 -1.5208905591837219e-33 -1.9989951350076307e-32 -1.9955532303819834e-32 1.527578053957705 14.004967529228518 -14.863565174716735 0.045451237450628776 -0.057910324648866356 0.05798273601035818 -0.09847877593741647 0.4926096749333949 0.5943984959155817 -2.3563885441095627 -0.015588705836319246 -0.0072557728748750445 0.0 0.0 0.0 0.0 0.0 0.0 0 31.75 33.0 31.5 35.5 38.25 39.25 0.466201 7 253 253 253 253 253 253 1 0.05746084079146385 0.07661445438861847 -10.036493301391602 0.0 1.0 0.0 47.63762283325195 47.64748001098633 0.6557310223579407 47.55626678466797 47.5275993347168 47.5275993347168 47.55626678466797 47.47026824951172 47.41293716430664 0 1
8532.274 -1.6657969999999995 -1.73928 1.6485810000000003 -2.263236 -1.5036709999999998 -0.06727699999999981 0.0 0.0 0.0 0.0 0.0 0.0 0.0 0.0 0.0 0.0 0.0 0.0 0.7784172892570496 -3.854442596435547 -1.4766103029251099 -0.2775647044181824 -3.9146928543232207e-07 0.0 8.943356372301471 -41.0619421425559 -16.785351237084026 -2.018282672633185 -3.0214243723651414e-06 0.0 -1.6657937208758753 -1.7392422161498011 1.6485756079303187 -2.2632528744139613 -1.503669563923971 -0.06725627580751592 0.0 0.0 -0.0 -2.0489797304433592e-18 -0.0 -0.0 1.1100680828094482 -4.619196891784668 -1.2268751859664917 -0.4955151081085205 -0.0781891718506813 0.10310553014278412 0.7784172892570496 -3.854442596435547 -1.4766103029251099 -0.2775647044181824 -3.9146928543232207e-07 0.0 -0.09847902224833789 0.492625903657733 0.5943860408966536 -2.3564039945725104 -0.015568320802359634 -0.007240393311979517 2.1455341140054225e-21 4.5255882070210226e-20 3.324406440577225e-19 2.040650633141772e-18 -1.8417726168256047e-19 1.1902331911800542e-20 1.6987312755375088 13.846624962198042 -14.871895215014208 0.048938497251081514 -0.05135958295840302 0.06279564696708723 -0.09847877593741647 0.4926096749333949 0.5943984959155817 -2.3563885441095627 -0.015588705836319246 -0.0072557728748750445 0.0 0.0 0.0 0.0 0.0 0.0 0 31.75 33.0 31.5 35.5 38.25 39.25 0.460933 7 253 253 253 253 253 253 1 0.05746084079146385 0.17238251864910126 -9.959878921508789 0.0 1.0 0.0 47.66001510620117 47.667179107666016 0.6020192503929138 47.61359786987305 47.55626678466797 47.48460006713867 47.54193115234375 47.455936431884766 47.41293716430664 0 1
8532.374 -1.6657969999999995 -1.73928 1.6485810000000003 -2.263236 -1.5036709999999998 -0.06727699999999981 0.0 0.0 0.0 0.0 0.0 0.0 0.0 0.0 0.0 0.0 0.0 0.0 0.7784321308135986 -3.8544704914093018 -1.476502537727356 -0.27755406498908997 1.616621943867358e-06 0.0 8.943527226883909 -41.062239328626106 -16.784126695067254 -2.018205376084208 1.2477354534216102e-05 0.0 -1.6658056418048304 -1.739251276055807 1.6485193411456507 -2.263257165948385 -1.503653351460592 -0.06724435487856084 0.0 0.0 -0.0 -0.0 -0.0 -0.0 1.1385834217071533 -4.608624458312988 -1.3086971044540405 -0.4734612703323364 -0.06465396285057068 0.10154569149017334 0.7784321308135986 -3.8544704914093018 -1.476502537727356 -0.27755406498908997 1.616621943867358e-06 0.0 -0.09847571436879167 0.4926226476475587 0.5944222576794964 -2.356333897141432 -0.01555091425313494 -0.007229469487772978 0.0 0.0 0.0 0.0 0.0 0.0 1.7385583618332623 13.723429452450176 -14.935483228055912 0.05304708239878855 -0.050526107643305423 0.06506525152578037 -0.09847877593741647 0.4926096749333949 0.5943984959155817 -2.3563885441095627 -0.015588705836319246 -0.0072557728748750445 0.0 0.0 0.0 0.0 0.0 0.0 0 31.75 33.0 31.5 35.5 38.25 39.25 0.463033 7 253 253 253 253 253 253 1 0.13407529890537262 0.1149216815829277 -9.959878921508789 0.0 1.0 0.0 47.65285110473633 47.68330383300781 0.6199231147766113 47.55626678466797 47.513267517089844 47.55626678466797 47.55626678466797 47.48460006713867 47.39860534667969 0 1
8532.474 -1.6657969999999995 -1.73928 1.6485810000000003 -2.263236 -1.5036709999999998 -0.06727699999999981 0.0 0.0 0.0 0.0 0.0 0.0 0.0 0.0 0.0 0.0 0.0 0.0 0.7783910632133484 -3.854588031768799 -1.476483702659607 -0.2775525748729706 1.8250277662446024e-06 0.0 8.943055575919791 -41.06349224397619 -16.783913443340342 -2.0181945483197627 1.408586441515155e-05 0.0 -1.6658266226397913 -1.739293714562887 1.6486247221576136 -2.2632318935790003 -1.503620449696676 -0.06730920473207647 0.0 0.0 -0.0 -0.0 -0.0 -0.0 1.126314401626587 -4.5837178230285645 -1.2940375804901123 -0.4591725468635559 -0.060022324323654175 0.09059782326221466 0.7783910632133484 -3.854588031768799 -1.476483702659607 -0.2775525748729706 1.8250277662446024e-06 0.0 -0.09847124717257 0.49260741290089366 0.5943805221267877 -2.35641953847265 -0.015614917021460022 -0.00722249369344976 0.0 0.0 0.0 0.0 0.0 0.0 1.5375793333287966 13.864176063198055 -14.738201259020554 0.04668299753941819 -0.05447418536867593 0.06333142231149426 -0.09847877593741647 0.4926096749333949 0.5943984959155817 -2.3563885441095627 -0.015588705836319246 -0.0072557728748750445 0.0 0.0 0.0 0.0 0.0 0.0 0 31.75 33.0 31.5 35.5 38.25 39.0 0.458917 7 253 253 253 253 253 253 1 0.019153613597154617 0.1149216741323471 -9.998186111450195 0.0 1.0 0.0 47.62598419189453 47.66001510620117 0.6311131119728088 47.584930419921875 47.513267517089844 47.5275993347168 47.513267517089844 47.38426971435547 47.369937896728516 0 1
8532.573999999999 -1.6657969999999995 -1.73928 1.6485810000000003 -2.263236 -1.5036709999999998 -0.06727699999999981 0.0 0.0 0.0 0.0 0.0 0.0 0.0 0.0 0.0 0.0 0.0 0.0 0.7783893942832947 -3.854562520980835 -1.4764487743377686 -0.2775459885597229 -7.917275979707483e-06 0.0 8.94303606514299 -41.06322254088875 -16.78351563573007 -2.018146632068038 -6.110684210619639e-05 0.0 -1.6657517592059534 -1.739235063592428 1.648588005696432 -2.26324524501943 -1.5036991278277796 -0.06726056734193975 0.0 0.0 -0.0 -0.0 -0.0 -0.0 1.1249656677246094 -4.571391582489014 -1.2782567739486694 -0.47515562176704407 -0.05408136546611786 0.08271950483322144 0.7783893942832947 -3.854562520980835 -1.4764487743377686 -0.2775459885597229 -7.917275979707483e-06 0.0 -0.09849554703885631 0.4926246849153828 0.5943743687988767 -2.3564324157269443 -0.015607337335916563 -0.007253664153266923 0.0 0.0 0.0 0.0 0.0 0.0 1.7656708535209837 13.813809389780253 -14.89649742614145 0.04898888300549217 -0.050928780124634476 0.06236801470288155 -0.09847877593741647 0.4926096749333949 0.5943984959155817 -2.3563885441095627 -0.015588705836319246 -0.0072557728748750445 0.0 0.0 0.0 0.0 0.0 0.0 0 31.75 33.0 31.5 35.5 38.25 39.25 0.466789 7 253 253 253 253 253 253 1 0.1149216815829277 0.09576806426048279 -10.036493301391602 0.0 1.0 0.0 47.68330383300781 47.68867492675781 0.6378270983695984 47.64226150512695 47.55626678466797 47.57059860229492 47.54193115234375 47.48460006713867 47.455936431884766 0 1
8532.673999999999 -1.6657969999999995 -1.73928 1.6485810000000003 -2.263236 -1.5036709999999998 -0.06727699999999981 0.0 0.0 0.0 0.0 0.0 0.0 0.0 0.0 0.0 0.0 0.0 0.0 0.778412401676178 -3.854487657546997 -1.4766020774841309 -0.27755817770957947 -3.2179157187783858e-06 0.0 8.943300340223335 -41.06242482671082 -16.785257244821075 -2.018235288400604 -2.4836404008466534e-05 0.0 -1.6658218542682093 -1.7392603359618128 1.6485512892352503 -2.2632528744139613 -1.503669563923971 -0.06728870073427373 0.0 0.0 -0.0 -0.0 -0.0 -0.0 1.1973540782928467 -4.622854232788086 -1.2268425226211548 -0.47268715500831604 -0.051562145352363586 0.10207383334636688 0.778412401676178 -3.854487657546997 -1.4766020774841309 -0.27755817770957947 -3.2179157187783858e-06 0.0 -0.09846594448717763 0.4926205783346297 0.5944081926649528 -2.356361809465841 -0.015575066009475603 -0.007274933457327457 0.0 0.0 0.0 0.0 0.0 0.0 1.5349639854671924 13.880980715332077 -14.662643605090599 0.04462094502148093 -0.05502926978886385 0.05878658100964991 -0.09847877593741647 0.4926096749333949 0.5943984959155817 -2.3563885441095627 -0.015588705836319246 -0.0072557728748750445 0.0 0.0 0.0 0.0 0.0 0.0 0 31.75 33.0 31.5 35.5 38.25 39.25 0.451789 7 253 253 253 253 253 253 1 0.07661445438861847 0.19153612852096558 -10.017339706420898 0.0 1.0 0.0 47.68867492675781 47.70121383666992 0.6087331771850586 47.64226150512695 47.54193115234375 47.584930419921875 47.59926223754883 47.513267517089844 47.48460006713867 0 1
8532.774 -1.6657969999999995 -1.73928 1.6485810000000003 -2.263236 -1.5036709999999998 -0.06727699999999981 0.0 0.0 0.0 0.0 0.0 0.0 0.0 0.0 0.0 0.0 0.0 0.0 0.7784162759780884 -3.854530096054077 -1.4765149354934692 -0.277556836605072 -1.694608840807632e-06 0.0 8.943344794830812 -41.062872184344066 -16.784268013657545 -2.0182254347810433 -1.3079270307468762e-05 0.0 -1.6658056418048304 -1.739239355126852 1.6485965887652796 -2.263257165948385 -1.503690544758932 -0.06733066240419561 0.0 0.0 -0.0 -0.0 -0.0 -0.0 1.1350327730178833 -4.5962324142456055 -1.2899545431137085 -0.46500930190086365 -0.033983856439590454 0.0815112441778183 0.7784162759780884 -3.854530096054077 -1.4765149354934692 -0.277556836605072 -1.694608840807632e-06 0.0 -0.09847026760703925 0.49262856168280805 0.594373668201567 -2.356424367568629 -0.015630956009582718 -0.0073048481216081845 0.0 0.0 0.0 0.0 0.0 0.0 1.650651848479387 13.942914653723042 -14.651506755345757 0.04592992357789657 -0.050981430682535585 0.06204318613126442 -0.09847877593741647 0.4926096749333949 0.5943984959155817 -2.3563885441095627 -0.015588705836319246 -0.0072557728748750445 0.0 0.0 0.0 0.0 0.0 0.0 0 31.75 33.0 31.5 35.5 38.25 39.25 0.475033 7 253 253 253 253 253 253 1 0.07661445438861847 0.13407529890537262 -10.055646896362305 0.0 1.0 0.0 47.63941955566406 47.651058197021484 0.6154471635818481 47.59926223754883 47.513267517089844 47.513267517089844 47.513267517089844 47.39860534667969 47.39860534667969 0 1
8532.874 -1.6657969999999995 -1.73928 1.6485810000000003 -2.263236 -1.5036709999999998 -0.06727699999999981 0.0 0.0 0.0 0.0 0.0 0.0 0.0 0.0 0.0 0.0 0.0 0.0 0.7783955931663513 -3.854496717453003 -1.4765784740447998 -0.2775537669658661 1.2976398693353985e-06 0.0 8.943107714896028 -41.062519170208006 -16.78498949300988 -2.0182031439984094 1.0015397959016813e-05 0.0 -1.6658056418048304 -1.7392322025694789 1.6485922972308558 -2.263198514977926 -1.503669563923971 -0.06733352342714483 0.0 0.0 -0.0 -0.0 -0.0 -0.0 1.1648132801055908 -4.551954746246338 -1.3095861673355103 -0.4572356343269348 -0.04586277902126312 0.07660554349422455 0.7783955931663513 -3.854496717453003 -1.4765784740447998 -0.2775537669658661 1.2976398693353985e-06 0.0 -0.09847276960924468 0.49263039100599015 0.5943631841242476 -2.356484349117106 -0.015641851979556837 -0.007274809617318997 0.0 0.0 0.0 0.0 0.0 0.0 1.410338602066085 13.770157817143096 -14.913629529027421 0.047838033212033185 -0.05646853025073271 0.05680381680842773 -0.09847877593741647 0.4926096749333949 0.5943984959155817 -2.3563885441095627 -0.015588705836319246 -0.0072557728748750445 0.0 0.0 0.0 0.0 0.0 0.0 0 31.75 33.0 31.5 35.5 38.0 39.0 0.470544 7 253 253 253 253 253 253 1 0.07661445438861847 0.09576806426048279 -9.979032516479492 0.0 1.0 0.0 47.668968200683594 47.667179107666016 0.6199231147766113 47.584930419921875 47.513267517089844 47.54193115234375 47.513267517089844 47.455936431884766 47.39860534667969 0 1
8532.974 -1.6657969999999995 -1.73928 1.6485810000000003 -2.263236 -1.5036709999999998 -0.06727699999999981 0.0 0.0 0.0 0.0 0.0 0.0 0.0 0.0 0.0 0.0 0.0 0.0 0.7783674597740173 -3.854520320892334 -1.4764535427093506 -0.2775467038154602 -6.6448733377910685e-06 0.0 8.942784593093643 -41.062771931410495 -16.78356994155627 -2.018151654619512 -5.128622720954441e-05 0.0 -1.6658056418048304 -1.739209314385885 1.648552719746725 -2.263214727441305 -1.5036948362933558 -0.06724292436708623 0.0 0.0 -0.0 -0.0 -0.0 -0.0 1.1039808988571167 -4.610492706298828 -1.353173017501831 -0.4651334881782532 -0.04155287891626358 0.06828464567661285 0.7783674597740173 -3.854520320892334 -1.4764535427093506 -0.2775467038154602 -6.6448733377910685e-06 0.0 -0.09846859576039686 0.49263996020254186 0.5943765419036909 -2.356453672161962 -0.01552422295598276 -0.007264069495983823 0.0 0.0 0.0 0.0 0.0 0.0 1.1965393314805728 13.591985948762066 -14.840602878531886 0.05433196685279814 -0.06129349274607082 0.05504222844438807 -0.09847877593741647 0.4926096749333949 0.5943984959155817 -2.3563885441095627 -0.015588705836319246 -0.0072557728748750445 0.0 0.0 0.0 0.0 0.0 0.0 0 31.75 33.0 31.5 35.5 38.0 39.0 0.489516 7 253 253 253 253 253 253 1 0.05746084079146385 0.09576806426048279 -9.998186111450195 0.0 1.0 0.0 47.68061447143555 47.68509292602539 0.6378270983695984 47.55626678466797 47.54193115234375 47.498931884765625 47.54193115234375 47.47026824951172 47.44160079956055 0 1
8533.073999999999 -1.6657969999999995 -1.73928 1.6485810000000003 -2.263236 -1.5036709999999998 -0.06727699999999981 0.0 0.0 0.0 0.0 0.0 0.0 0.0 0.0 0.0 0.0 0.0 0.0 0.7784029841423035 -3.8544747829437256 -1.476517915725708 -0.27755531668663025 -7.048880434012972e-06 0.0 8.943192494602314 -41.06228681425157 -16.78430188428592 -2.0182144748797635 -5.440441991949393e-05 0.0 -1.6658251921283167 -1.7392188511290492 1.6485756079303187 -2.2632528744139613 -1.5036738554583948 -0.06724769273866826 0.0 0.0 -0.0 -0.0 -0.0 -0.0 1.1497581005096436 -4.571242332458496 -1.322974443435669 -0.4619723856449127 -0.021114885807037354 0.0698293000459671 0.7784029841423035 -3.8544747829437256 -1.476517915725708 -0.27755531668663025 -7.048880434012972e-06 0.0 -0.09846200421379424 0.49263902337157606 0.5943747783007016 -2.3564278598443913 -0.015518125624500122 -0.007253852087530446 0.0 0.0 0.0 0.0 0.0 0.0 1.1226247561499771 13.893750404785573 -14.789556398025592 0.045836137072452446 -0.05975921790939567 0.05060254818741853 -0.09847877593741647 0.4926096749333949 0.5943984959155817 -2.3563885441095627 -0.015588705836319246 -0.0072557728748750445 0.0 0.0 0.0 0.0 0.0 0.0 0 31.75 33.0 31.5 35.5 38.25 39.0 0.480432 7 253 253 253 253 253 253 1 0.09576806426048279 0.09576806426048279 -10.017339706420898 0.0 1.0 0.0 47.68151092529297 47.69136047363281 0.6288751363754272 47.57059860229492 47.54193115234375 47.54193115234375 47.54193115234375 47.48460006713867 47.41293716430664 0 1
8533.173999999999 -1.6657969999999995 -1.73928 1.6485810000000003 -2.263236 -1.5036709999999998 -0.06727699999999981 0.0 0.0 0.0 0.0 0.0 0.0 0.0 0.0 0.0 0.0 0.0 0.0 0.7784097194671631 -3.854443311691284 -1.4764958620071411 -0.27755123376846313 -1.7253817077289568e-06 0.0 8.943269925662188 -41.06194917568641 -16.784050669548577 -2.0181847000365565 -1.3316780731164227e-05 0.0 -1.6658218542682093 -1.7392059765257777 1.6486004034625452 -2.2632395229735316 -1.5036323706256312 -0.06724292436708623 0.0 0.0 -0.0 -0.0 -0.0 -0.0 1.1585134267807007 -4.587311744689941 -1.318152904510498 -0.46977847814559937 -0.023981422185897827 0.05461960658431053 0.7784097194671631 -3.854443311691284 -1.4764958620071411 -0.27755123376846313 -1.7253817077289568e-06 0.0 -0.09846848598857487 0.4926444538144773 0.5943529228612288 -2.3564761581501865 -0.015534512784378311 -0.00719519778432971 0.0 0.0 0.0 0.0 0.0 0.0 1.6178244182879156 13.838096743217207 -14.818257903916962 0.047320403251969866 -0.055357181000503866 0.06247061182142315 -0.09847877593741647 0.4926096749333949 0.5943984959155817 -2.3563885441095627 -0.015588705836319246 -0.0072557728748750445 0.0 0.0 0.0 0.0 0.0 0.0 0 31.75 33.0 31.5 35.5 38.25 39.0 0.474936 7 253 253 253 253 253 253 1 0.1149216815829277 0.07661445438861847 -9.979032516479492 0.0 1.0 0.0 47.6421012878418 47.664493560791016 0.6355891227722168 47.57059860229492 47.5275993347168 47.55626678466797 47.455936431884766 47.47026824951172 47.41293716430664 0 1
8533.274 -1.6657969999999995 -1.73928 1.6485810000000003 -2.263236 -1.5036709999999998 -0.06727699999999981 0.0 0.0 0.0 0.0 0.0 0.0 0.0 0.0 0.0 0.0 0.0 0.0 0.7784081697463989 -3.8545567989349365 -1.4765148162841797 -0.27755099534988403 9.930453188644606e-07 0.0 8.943251651941925 -41.0631601473801 -16.784265669807688 -2.01818309837424 7.664487358931511e-06 0.0 -1.6657937208758753 -1.739236970941061 1.6485756079303187 -2.2632695637144984 -1.5036590735064905 -0.06724006334413701 0.0 0.0 -0.0 -0.0 -0.0 -0.0 1.1363513469696045 -4.537600517272949 -1.308106780052185 -0.45768046379089355 -0.01733270287513733 0.04322734475135803 0.7784081697463989 -3.8545567989349365 -1.4765148162841797 -0.27755099534988403 9.930453188644606e-07 0.0 -0.09848015325044178 0.49262857928800635 0.5943862762869955 -2.3563920628742197 -0.015554841057574787 -0.007221346710218768 0.0 0.0 0.0 0.0 0.0 0.0 1.3815330729386655 14.080777060519347 -14.8301396066234 0.044741561502244745 -0.0572796724944611 0.05262754865378981 -0.09847877593741647 0.4926096749333949 0.5943984959155817 -2.3563885441095627 -0.015588705836319246 -0.0072557728748750445 0.0 0.0 0.0 0.0 0.0 0.0 0 31.75 33.0 31.5 35.5 38.0 39.0 0.542809 7 253 253 253 253 253 253 1 0.05746084079146385 0.15322890877723694 -9.90241813659668 0.0 1.0 0.0 47.66807556152344 47.68509292602539 0.64006507396698 47.59926223754883 47.55626678466797 47.57059860229492 47.55626678466797 47.48460006713867 47.44160079956055 0 0
8533.374 -1.6657969999999995 -1.73928 1.6485810000000003 -2.263236 -1.5036709999999998 -0.06727699999999981 0.0 0.0 0.0 0.0 0.0 0.0 0.0 0.0 0.0 0.0 0.0 0.0 0.7784144878387451 -3.8544931411743164 -1.4764759540557861 -0.2775481641292572 -5.051761036156677e-06 0.0 8.943324112177308 -41.06248155002939 -16.783825518707186 -2.0181624698708913 -3.8990326235012215e-05 0.0 -1.6658132711993616 -1.739235063592428 1.6486175696002405 -2.2632600269713343 -1.5036409536944788 -0.06723529497255498 0.0 0.0 -0.0 1.2679509024596675e-40 -0.0 -0.0 1.1882033348083496 -4.6440935134887695 -1.3248792886734009 -0.4714202582836151 -0.026627682149410248 0.05382741615176201 0.7784144878387451 -3.8544931411743164 -1.4764759540557861 -0.2775481641292572 -5.051761036156677e-06 0.0 -0.09847274057438074 0.4926317340888946 0.5943607196617724 -2.356444353834149 -0.015532815404053407 -0.007201041838925956 -1.3290568560937404e-43 -2.801363596043274e-42 -2.0571970687529595e-41 -1.262794487583243e-40 1.1399705466420294e-41 -7.365100511654407e-43 1.4257453997492604 13.630976563196487 -14.88192248465751 0.05223244210418756 -0.05552427716123457 0.056055844518280884 -0.09847877593741647 0.4926096749333949 0.5943984959155817 -2.3563885441095627 -0.015588705836319246 -0.0072557728748750445 0.0 0.0 0.0 0.0 0.0 0.0 0 31.75 33.0 31.5 35.5 38.0 39.0 0.477085 7 253 253 253 253 253 253 1 0.0 0.15322890877723694 -10.055646896362305 0.0 1.0 0.0 47.638519287109375 47.667179107666016 0.5841153264045715 47.57059860229492 47.5275993347168 47.513267517089844 47.498931884765625 47.455936431884766 47.39860534667969 0 1
