INTO-CPS-Association/DigitalTwins_RoboSim/UR5e/experiments/mapping_urinterface_without_rmqfmu.csv
timestamp target_q_0 target_q_1 target_q_2 target_q_3 target_q_4 target_q_5 target_qd_0 target_qd_1 target_qd_2 target_qd_3 target_qd_4 target_qd_5 target_qdd_0 target_qdd_1 target_qdd_2 target_qdd_3 target_qdd_4 target_qdd_5 target_current_0 target_current_1 target_current_2 target_current_3 target_current_4 target_current_5 target_moment_0 target_moment_1 target_moment_2 target_moment_3 target_moment_4 target_moment_5 actual_q_0 actual_q_1 actual_q_2 actual_q_3 actual_q_4 actual_q_5 actual_qd_0 actual_qd_1 actual_qd_2 actual_qd_3 actual_qd_4 actual_qd_5 actual_current_0 actual_current_1 actual_current_2 actual_current_3 actual_current_4 actual_current_5 joint_control_output_0 joint_control_output_1 joint_control_output_2 joint_control_output_3 joint_control_output_4 joint_control_output_5 actual_TCP_pose_0 actual_TCP_pose_1 actual_TCP_pose_2 actual_TCP_pose_3 actual_TCP_pose_4 actual_TCP_pose_5 actual_TCP_speed_0 actual_TCP_speed_1 actual_TCP_speed_2 actual_TCP_speed_3 actual_TCP_speed_4 actual_TCP_speed_5 actual_TCP_force_0 actual_TCP_force_1 actual_TCP_force_2 actual_TCP_force_3 actual_TCP_force_4 actual_TCP_force_5 target_TCP_pose_0 target_TCP_pose_1 target_TCP_pose_2 target_TCP_pose_3 target_TCP_pose_4 target_TCP_pose_5 target_TCP_speed_0 target_TCP_speed_1 target_TCP_speed_2 target_TCP_speed_3 target_TCP_speed_4 target_TCP_speed_5 actual_digital_input_bits joint_temperatures_0 joint_temperatures_1 joint_temperatures_2 joint_temperatures_3 joint_temperatures_4 joint_temperatures_5 actual_execution_time robot_mode joint_mode_0 joint_mode_1 joint_mode_2 joint_mode_3 joint_mode_4 joint_mode_5 safety_mode actual_tool_accelerometer_0 actual_tool_accelerometer_1 actual_tool_accelerometer_2 speed_scaling target_speed_fraction actual_momentum actual_main_voltage actual_robot_voltage actual_robot_current actual_joint_voltage_0 actual_joint_voltage_1 actual_joint_voltage_2 actual_joint_voltage_3 actual_joint_voltage_4 actual_joint_voltage_5 actual_digital_output_bits runtime_state
7212.839999999999 -2.5847040000000003 -1.3422660000000004 1.3616509999999997 -2.0764069999999997 -0.9269629999999998 -0.8488470000000001 0.0 0.0 0.0 0.0 0.0 0.0 0.0 0.0 0.0 0.0 0.0 0.0 -1.1421310901641846 -3.4910531044006348 -1.3259321451187134 -0.22249099612236023 -6.362771728163352e-06 0.0 -13.12212077242816 -37.19069927207647 -15.072519376760438 -1.617820071051702 -4.910891831004884e-05 0.0 -2.5847581068622034 -1.342256249194481 1.3615911642657679 -2.076428075829977 -0.9269583860980433 -0.8488500753985804 0.0 0.0 -0.0 -0.0 0.0 0.0 -1.322229266166687 -3.5587775707244873 -1.1257045269012451 -0.29805752635002136 0.040058739483356476 0.007310430519282818 -1.1421310901641846 -3.4910531044006348 -1.3259321451187134 -0.22249099612236023 -6.362771728163352e-06 0.0 0.4163438974956831 0.5114076108328031 0.522046005689091 -2.3623569973520344 -0.014745055374123957 -0.00026647054080405566 0.0 0.0 0.0 0.0 0.0 0.0 1.0349405791648212 13.430956588035674 -14.90100855895079 0.0538288126924228 0.010118695579138082 -0.13753513320411348 0.4163100817228626 0.511425694045108 0.5220173347752908 -2.3623976153453077 -0.014774556886481166 -0.00017089876894282188 0.0 0.0 0.0 0.0 0.0 0.0 0 31.75 32.75 31.25 35.75 38.25 39.25 0.464905 7 253 253 253 253 253 253 1 0.0 0.24899697303771973 -9.979032516479492 0.0 1.0 0.0 47.69046401977539 47.689571380615234 0.5930672883987427 47.61359786987305 47.498931884765625 47.55626678466797 47.5275993347168 47.5275993347168 47.427268981933594 0 1
7212.94 -2.5847040000000003 -1.3422660000000004 1.3616509999999997 -2.0764069999999997 -0.9269629999999998 -0.8488470000000001 0.0 0.0 0.0 0.0 0.0 0.0 0.0 0.0 0.0 0.0 0.0 0.0 -1.1420611143112183 -3.491114377975464 -1.3259278535842896 -0.22249330580234528 1.7291930021201551e-07 0.0 -13.121315916413712 -37.19135262083527 -15.072469880123576 -1.6178368071771578 1.334619671753291e-06 0.0 -2.584712330495016 -1.3422772300294419 1.3616765181170862 -2.076432844201559 -0.9269712607013147 -0.8488634268390101 0.0 0.0 -0.0 -0.0 0.0 0.0 -1.283246636390686 -3.642415761947632 -1.181215524673462 -0.28113994002342224 0.03104938194155693 0.02352338284254074 -1.1420611143112183 -3.491114377975464 -1.3259278535842896 -0.22249330580234528 1.7291930021201551e-07 0.0 0.41631145445856677 0.511419431727202 0.5220138367536568 -2.3623975404225983 -0.01478633586829534 -0.0002008905100477533 0.0 0.0 0.0 0.0 0.0 0.0 0.7778333323926069 13.444432756429078 -14.72092866333101 0.05453956275477236 0.010691696952412427 -0.1398638739094878 0.4163100817228626 0.511425694045108 0.5220173347752908 -2.3623976153453077 -0.014774556886481166 -0.00017089876894282188 0.0 0.0 0.0 0.0 0.0 0.0 0 31.75 32.75 31.25 35.75 38.25 39.25 0.462577 7 253 253 253 253 253 253 1 0.09576806426048279 0.1149216815829277 -9.959878921508789 0.0 1.0 0.0 47.6707649230957 47.689571380615234 0.6713969111442566 47.6279296875 47.55626678466797 47.57059860229492 47.55626678466797 47.455936431884766 47.427268981933594 0 1
7213.04 -2.5847040000000003 -1.3422660000000004 1.3616509999999997 -2.0764069999999997 -0.9269629999999998 -0.8488470000000001 0.0 0.0 0.0 0.0 0.0 0.0 0.0 0.0 0.0 0.0 0.0 0.0 -1.1421042680740356 -3.4911201000213623 -1.3259055614471436 -0.22249144315719604 -8.018486141736503e-07 0.0 -13.121812193676481 -37.19141530527525 -15.072216863843298 -1.6178232452900816 -6.188799964749253e-06 0.0 -2.5847342650042933 -1.342260719542839 1.3616226355182093 -2.0763822994627894 -0.9270113150226038 -0.8488634268390101 0.0 0.0 -0.0 -0.0 0.0 0.0 -1.2843276262283325 -3.5675981044769287 -1.1339737176895142 -0.3075346052646637 0.033392533659935 0.01979050040245056 -1.1421042680740356 -3.4911201000213623 -1.3259055614471436 -0.22249144315719604 -8.018486141736503e-07 0.0 0.4163317322267367 0.5114109894771505 0.5220223416259764 -2.362434838342894 -0.014742123969164012 -0.00023005011089889264 0.0 0.0 0.0 0.0 0.0 0.0 0.8137268450918419 13.43080130573405 -14.772785564601405 0.052778174231067114 0.009658382705948265 -0.13795061711493511 0.4163100817228626 0.511425694045108 0.5220173347752908 -2.3623976153453077 -0.014774556886481166 -0.00017089876894282188 0.0 0.0 0.0 0.0 0.0 0.0 0 31.75 32.75 31.25 35.75 38.25 39.25 0.459 7 253 253 253 253 253 253 1 0.019153613597154617 0.15322890877723694 -9.940725326538086 0.0 1.0 0.0 47.69136047363281 47.70658874511719 0.6243991255760193 47.656593322753906 47.57059860229492 47.61359786987305 47.55626678466797 47.513267517089844 47.48460006713867 0 1
7213.139999999999 -2.5847040000000003 -1.3422660000000004 1.3616509999999997 -2.0764069999999997 -0.9269629999999998 -0.8488470000000001 0.0 0.0 0.0 0.0 0.0 0.0 0.0 0.0 0.0 0.0 0.0 0.0 -1.141977071762085 -3.4911885261535645 -1.3259530067443848 -0.2224995344877243 2.151264197891578e-06 0.0 -13.120350742175843 -37.19214199528526 -15.072756185652231 -1.6178821222682855 1.660381221848401e-05 0.0 -2.5846877733813685 -1.34232650816951 1.3616259733783167 -2.0764080486693324 -0.9269712607013147 -0.8488333860980433 0.0 0.0 -0.0 -0.0 0.0 0.0 -1.3265188932418823 -3.5968849658966064 -1.1757607460021973 -0.29893428087234497 0.03047218918800354 0.02852708101272583 -1.141977071762085 -3.4911885261535645 -1.3259530067443848 -0.2224995344877243 2.151264197891578e-06 0.0 0.41628523619520025 0.5114211428938824 0.5220678601537433 -2.362358229367332 -0.014810535923946502 -0.00025005971411440955 0.0 0.0 0.0 0.0 0.0 0.0 0.8268524274360869 13.477178131996688 -14.824759297441322 0.054081357115005814 0.011817937351037783 -0.1416858703549483 0.4163100817228626 0.511425694045108 0.5220173347752908 -2.3623976153453077 -0.014774556886481166 -0.00017089876894282188 0.0 0.0 0.0 0.0 0.0 0.0 0 31.75 32.75 31.25 35.75 38.25 39.25 0.462012 7 253 253 253 253 253 253 1 0.0 0.2298433631658554 -10.036493301391602 0.0 1.0 0.0 47.70121383666992 47.71017074584961 0.5594974160194397 47.656593322753906 47.584930419921875 47.584930419921875 47.55626678466797 47.498931884765625 47.47026824951172 0 1
7213.24 -2.584623410887866 -1.3423008185461258 1.3616761640633321 -2.076423385100158 -0.9270135778992659 -0.8487784554874747 0.0035956575117886413 -0.0015535047304953105 0.0011227491028553656 -0.0007310566763230236 -0.0022566423504322007 0.003058261653778506 0.11456341210090769 -0.04949715095415512 0.03577258616390289 -0.023292637578558584 -0.0719002426424985 0.09744111862866026 -0.8548459410667419 -3.7205419540405273 -1.228232979774475 -0.23982299864292145 -0.043662745505571365 0.06095198541879654 -12.709170300306974 -37.43282191228287 -15.02715978545416 -1.6267760349250762 -0.009789066184876044 0.02064117446641779 -2.584602657948629 -1.3422683042338868 1.361650292073385 -2.076395650903219 -0.9270241896258753 -0.8487871328936976 0.001234605791978538 0.0 -0.0 -0.0 -0.001944337273016572 0.0044336821883916855 -0.7997066974639893 -3.9338836669921875 -0.9872920513153076 -0.35482069849967957 -0.05689554661512375 0.11516346037387848 -0.8548459410667419 -3.7205419540405273 -1.228232979774475 -0.23982299864292145 -0.043662745505571365 0.06095198541879654 0.4162624695480372 0.5114629823923531 0.5220134241854133 -2.362447532099857 -0.014800661679315505 -0.0001325259596714219 -0.00046219958221739306 0.0003805781479291838 -0.00013264450723955793 -0.0014643440618825518 0.0021844332115549315 -0.002828646012521406 0.6858215136068576 13.502475186848793 -14.898265273237127 0.057609602124175284 -0.004480015758383797 -0.12955273885685065 0.4162621173515319 0.5114488367368712 0.5220245612331621 -2.3624215998150975 -0.014783463993989346 -0.00016448245647481788 -0.0021400582576851586 0.0010324568978456357 0.00032242104224972096 -0.0010730558785442576 8.447215519067448e-05 0.0003680969634959532 0 31.75 32.75 31.25 35.75 38.25 39.25 0.667681 7 253 253 253 253 253 253 1 0.038307227194309235 0.19153612852096558 -9.998186111450195 1.0 1.0 0.016901985229242 47.667179107666016 47.67524337768555 0.5930672883987427 47.59926223754883 47.48460006713867 47.54193115234375 47.513267517089844 47.44160079956055 47.44160079956055 0 2
7213.339999999999 -2.5831629280964434 -1.3429318205027485 1.3621322018640485 -2.0767203254210376 -0.9279301800251343 -0.847536251939899 0.03214226275740793 -0.013887072692197947 0.010036466642416544 -0.006535053937671354 -0.02017255290285001 0.027338379513168677 0.4924271951576836 -0.21275329326942913 0.1537610825759223 -0.10011859790393833 -0.3090483616568322 0.4188305485967429 -0.2607788145542145 -4.376372814178467 -0.5772883892059326 -0.3745492696762085 -0.2031918317079544 0.21303662657737732 -11.317203967154843 -38.25055727036771 -14.8759277662902 -1.656673412795341 -0.0421985420633718 0.0887218014433062 -2.583261315022604 -1.34273715436969 1.362182919179098 -2.0766636333861292 -0.9279692808734339 -0.8475588003741663 0.032671008259058 -0.013307014480233192 0.013754542917013168 -0.007556790020316839 -0.01933646947145462 0.02576041966676712 -0.2525637447834015 -4.9185566902160645 -0.7973439693450928 -0.48667219281196594 -0.17309537529945374 0.23493236303329468 -0.2607788145542145 -4.376372814178467 -0.5772883892059326 -0.3745492696762085 -0.2031918317079544 0.21303662657737732 0.4155012806979235 0.5118580409414888 0.5219969543409849 -2.3630448972199427 -0.0147186838582855 0.00016512803845887403 -0.019436584250532473 0.009503969943991775 0.0007549370682306971 -0.010675514342759675 0.0028052285034575342 0.005321269663022269 1.3503490963589073 13.266942582828419 -15.331007165358164 0.030064306144539376 -0.10491118903988159 -0.055450163144027655 0.41539269234516124 0.51186743164687 0.5221554999837521 -2.3628556065417334 -0.014944654696486441 -4.895589833234673e-05 -0.0191381650408057 0.009195521172814941 0.0028812097150359203 -0.009565035552084785 0.0007351586162945012 0.003273724648864433 0 31.75 32.75 31.25 35.75 38.25 39.25 0.660265 7 253 253 253 253 253 253 1 -0.26815059781074524 -0.07661445438861847 -9.998186111450195 1.0 1.0 0.15448968141764413 47.66807556152344 47.67524337768555 0.6557310223579407 47.59926223754883 47.5275993347168 47.54193115234375 47.513267517089844 47.47026824951172 47.41293716430664 0 2
7213.44 -2.5765260605429936 -1.3457992807951014 1.364204573069308 -2.0780697104275117 -0.9320954923070248 -0.8418913100973082 0.11182701508646117 -0.048314889937214806 0.03491814235690697 -0.02273628278116117 -0.07018287401933253 0.09511369505415168 1.1320903660136037 -0.4891199267962054 0.35349680513945686 -0.23017270626075892 -0.7105023368011928 0.9628916390507919 0.034881651401519775 -4.537337303161621 -0.5192945599555969 -0.46643710136413574 -0.22663761675357819 0.2456175684928894 -8.835724994806153 -39.70226464537675 -14.629483666768289 -1.7095240074788833 -0.09769160766992055 0.2039713288742194 -2.576599423085348 -1.3457584542087098 1.3642438093768519 -2.078031679193014 -0.932138744984762 -0.8418486754046839 0.11106789112091064 -0.05063426494598389 0.03303075581789017 -0.02197299525141716 -0.07057797163724899 0.09387849271297455 0.002235226333141327 -5.071432590484619 -0.5828211903572083 -0.537946879863739 -0.16035984456539154 0.23077134788036346 0.034881651401519775 -4.537337303161621 -0.5192945599555969 -0.46643710136413574 -0.22663761675357819 0.2456175684928894 0.4114880243507077 0.5137229128537897 0.5226957142086851 -2.3649083407594698 -0.015472475325705889 0.0005271184032991734 -0.06692578010571207 0.030713692485307382 0.012318803521339034 -0.031297756091491456 -0.001728015631714555 0.01106062984416821 2.0976633555431543 13.229501047080173 -15.019461559639305 0.031874784420388894 -0.10566048438748699 -0.06646897463122454 0.41143737038643635 0.5137502976576178 0.5227499675407954 -2.3648122037196098 -0.01567167117617373 0.00045813226864778515 -0.06670453080953505 0.03145778218460221 0.010008708117430758 -0.03284554086687822 0.0022454206357612194 0.011125961815742325 0 31.75 32.75 31.25 35.75 38.25 39.25 0.663289 7 253 253 253 253 253 253 1 -0.6129156351089478 -0.07661445438861847 -9.883264541625977 1.0 1.0 0.5405111170727098 47.664493560791016 47.68330383300781 0.6445410251617432 47.6279296875 47.57059860229492 47.54193115234375 47.55626678466797 47.48460006713867 47.427268981933594 0 2
7213.54 -2.558298723226437 -1.3536744064578672 1.3698960847198227 -2.081775629746348 -0.9435350082201222 -0.8263881742777954 0.26882985327886333 -0.11614800558669652 0.08394249886147813 -0.05465755800993658 -0.16871819131288213 0.22865137432532456 2.0335529246686965 -0.8785970515345006 0.6349797538545073 -0.4134549626490201 -1.2762621680755675 1.7296243899908303 0.5171587467193604 -4.791855335235596 -0.4350598156452179 -0.48529836535453796 -0.2692040503025055 0.3018351197242737 -5.154905808008056 -41.916854839388435 -14.281573942867357 -1.787982562762038 -0.17803750344382194 0.366389318460107 -2.5583022276507776 -1.3537020844272156 1.369836155568258 -2.081696172753805 -0.9435203711139124 -0.826599423085348 0.2624407112598419 -0.11499471217393875 0.08355723321437836 -0.05361498147249222 -0.1665927767753601 0.2304724156856537 0.6130499839782715 -5.22425651550293 -0.5390664935112 -0.6067243218421936 -0.2037653923034668 0.33648431301116943 0.5171587467193604 -4.791855335235596 -0.4350598156452179 -0.48529836535453796 -0.2692040503025055 0.3018351197242737 0.4005309891092215 0.5187518455119349 0.5244168015934818 -2.3700356917763736 -0.017875605587187614 0.0016023821777471892 -0.15764870445258705 0.06988796272453704 0.023443979381754083 -0.07553085743286894 0.007235870079861706 0.018342207926517834 1.8039091673841856 12.803968093254158 -15.260993798971787 0.025475767207528976 -0.12127035678103124 -0.06601228349766752 0.40053918981432307 0.518758076764856 0.5243778991530056 -2.3700524356372354 -0.017621776571770068 0.0017024485297057138 -0.16109934426410222 0.07209239109150462 0.023959053207954294 -0.07606186490586676 0.003401335099484648 0.025031613930500435 0 31.75 32.75 31.25 35.75 38.25 39.25 0.709693 7 253 253 253 253 253 253 1 -0.9193734526634216 -0.05746084079146385 -9.653421401977539 1.0 1.0 1.2987287410061967 47.71017074584961 47.700321197509766 0.8571500182151794 47.584930419921875 47.55626678466797 47.513267517089844 47.513267517089844 47.47026824951172 47.38426971435547 0 2
7213.639999999999 -2.5241752101053074 -1.3684174788670145 1.3805511995680564 -2.088713504670478 -0.9649509980918509 -0.7973646559564838 0.41112975859978457 -0.17762871539854927 0.12837584394833887 -0.08358948366857497 -0.2580259164665895 0.3496835756271672 1.3962634015954878 -0.6032559531280318 0.43598520614140934 -0.2838834561676856 -0.87629789936014 1.1875821892584904 0.5566421151161194 -4.7504191398620605 -0.40809884667396545 -0.4881725609302521 -0.2926884889602661 0.3205701410770416 -6.5389781051556435 -41.15109182519869 -14.556240850708827 -1.7532134182665826 -0.12983057455764568 0.2515670650293654 -2.524269167576925 -1.368300051694252 1.3806903998004358 -2.088700910607809 -0.9647792021380823 -0.7975719610797327 0.4111075699329376 -0.17695488035678864 0.12711311876773834 -0.08291728049516678 -0.2562982738018036 0.35299214720726013 0.4904935956001282 -5.141577243804932 -0.62549889087677 -0.5691390037536621 -0.26434338092803955 0.3273768424987793 0.5566421151161194 -4.7504191398620605 -0.40809884667396545 -0.4881725609302521 -0.2926884889602661 0.3205701410770416 0.3800745157311805 0.5274850940336874 0.5272702267053598 -2.379356802427716 -0.02117298555759082 0.0037339946114778757 -0.24810667563952374 0.1004411468794657 0.03662063764216005 -0.10676629677356356 0.0031118591408677287 0.03200242560505556 1.309951128058069 13.616569408905509 -15.285717894200713 0.0604797510155253 -0.10537010933191544 -0.02789854641448771 0.3800121702548697 0.527489238555874 0.5274069994143048 -2.3793262987252204 -0.02108622821799182 0.0034708030319900328 -0.248188687214819 0.10013787081967652 0.03634938493932331 -0.10777959806143472 -0.00011385737222335823 0.033530738706781416 0 31.75 32.75 31.25 35.75 38.25 39.25 0.706573 7 253 253 253 253 253 253 1 -0.47884035110473633 0.15322890877723694 -10.285490036010742 1.0 1.0 1.9847899406542535 47.64031219482422 47.65285110473633 0.9914294481277466 47.55626678466797 47.455936431884766 47.498931884765625 47.455936431884766 47.41293716430664 47.32693862915039 0 2
7213.74 -2.476080917237352 -1.3891966301725098 1.3955687099935972 -2.098491870318174 -0.9951350792353102 -0.7564583874474753 0.5507560987593311 -0.23795431071135256 0.1719743645624801 -0.1119778292853435 -0.34565570640260224 0.4684417945530178 1.3962634015954878 -0.6032559531280318 0.43598520614140934 -0.2838834561676856 -0.8762978993601123 1.1875821892584904 0.7944449186325073 -4.85867166519165 -0.3631555438041687 -0.49852800369262695 -0.32258620858192444 0.35259389877319336 -5.282933931086124 -41.929639911117356 -14.600108213783988 -1.7756423454017602 -0.13820835068039097 0.2515681368564307 -2.476373259221212 -1.3890876036933442 1.3952925840960901 -2.098455091516012 -0.995002571736471 -0.7566741148578089 0.5456487536430359 -0.23657970130443573 0.17146338522434235 -0.11090897768735886 -0.3477602005004883 0.46891745924949646 1.0780811309814453 -5.355737209320068 -0.3452259600162506 -0.5630260705947876 -0.21644863486289978 0.4071154296398163 0.7944449186325073 -4.85867166519165 -0.3631555438041687 -0.49852800369262695 -0.32258620858192444 0.35259389877319336 0.3510472722073833 0.538308197144134 0.5317183326614329 -2.391001231803557 -0.025547076803502176 0.004566737216712769 -0.33164111732667595 0.11355632455957007 0.047305337397685124 -0.1302054285313486 -0.008162748689804988 0.02992926612412522 3.465677412562743 13.034255418568499 -14.901697779090327 0.061355585989709575 -0.17092703668429277 -0.06030283188626858 0.3508617066727284 0.5383701793478828 0.5316349853087644 -2.391170943960013 -0.025546081468957423 0.004813431743964966 -0.33498166081860226 0.11507007134295315 0.048139180698467156 -0.12758908806410701 -0.008964240236889465 0.03642286355624008 0 31.75 32.75 31.25 35.75 38.25 39.25 0.702889 7 253 253 253 253 253 253 1 -1.0534486770629883 0.13407529890537262 -9.53849983215332 1.0 1.0 2.6333075745967225 47.633148193359375 47.638519287109375 1.0921390056610107 47.455936431884766 47.44160079956055 47.427268981933594 47.39860534667969 47.34127426147461 47.31260681152344 0 2
7213.839999999999 -2.4140239903534413 -1.4160083410092845 1.4149460724805523 -2.1111090705275473 -1.0340821393723711 -0.7036762970458801 0.6903824389188775 -0.2982799060241558 0.21557288517662138 -0.14036617490211203 -0.43328549633861496 0.5872000134788685 1.3962634015954878 -0.6032559531280179 0.4359852061414232 -0.2838834561676856 -0.8762978993601123 1.187582189258518 1.0273162126541138 -4.982937335968018 -0.3195011615753174 -0.5098609328269958 -0.35269415378570557 0.3760626018047333 -3.668484527749822 -42.86687807620294 -14.65853720239073 -1.8051743989571694 -0.1482334376997948 0.25157195265431354 -2.414429012929098 -1.4158354264548798 1.4151809851275843 -2.1110736332335414 -1.0339277426349085 -0.7041257063495081 0.6908650398254395 -0.2956993579864502 0.21312075853347778 -0.13871799409389496 -0.4312754273414612 0.5895280838012695 1.0928306579589844 -5.593747138977051 -0.502502977848053 -0.5619174242019653 -0.2986502945423126 0.4810935854911804 1.0273162126541138 -4.982937335968018 -0.3195011615753174 -0.5098609328269958 -0.35269415378570557 0.3760626018047333 0.31325391318234697 0.5498714536696773 0.5367927849360161 -2.404439011559269 -0.030498529336211895 0.004948813862621215 -0.42166938318786096 0.11468680149090295 0.05907545406402988 -0.1318007121667571 -0.018786020366534262 0.03282643583323547 2.232647477420099 14.134750855566889 -15.202596288036029 0.09266159226924547 -0.12053309729311099 -0.028214031814352523 0.3130075499740596 0.5499542644553996 0.5370183164906236 -2.404248164736236 -0.03054436584033588 0.004800085220334707 -0.4219801961930476 0.11354341396073064 0.05943281329336591 -0.1315572683089003 -0.022738693686328082 0.03295037607780804 0 31.75 32.75 31.25 35.75 38.25 39.25 0.700669 7 253 253 253 253 253 253 1 -0.651222825050354 0.5937620401382446 -10.47702693939209 1.0 1.0 3.2579998029751533 47.5489616394043 47.5543327331543 1.2443222999572754 47.427268981933594 47.34127426147461 47.32693862915039 47.32693862915039 47.25527572631836 47.12628173828125 0 2
7213.94 -2.338004429453576 -1.4488526113773403 1.4386832870289215 -2.1265651052985968 -1.0817921785030329 -0.6390183847517008 0.830008779078424 -0.3586055013369591 0.2591714057907626 -0.1687545205188806 -0.5209152862746277 0.7059582324047191 1.3962634015954323 -0.6032559531280179 0.43598520614140934 -0.2838834561676856 -0.8762978993601123 1.187582189258518 1.2900890111923218 -5.118127822875977 -0.2791230082511902 -0.5224363803863525 -0.3803621530532837 0.396273672580719 -1.712170840646655 -43.914435382663626 -14.755264524085073 -1.8437405248203038 -0.1595331814980421 0.25158066624866104 -2.3382683436023157 -1.448652946656086 1.4385088125811976 -2.1264454327025355 -1.0816400686847132 -0.6394642035113733 0.8264103531837463 -0.35643821954727173 0.26179131865501404 -0.16860008239746094 -0.5212510824203491 0.7083255052566528 1.5247219800949097 -5.727540016174316 -0.5335067510604858 -0.5640616416931152 -0.2583916187286377 0.5149151682853699 1.2900890111923218 -5.118127822875977 -0.2791230082511902 -0.5224363803863525 -0.3803621530532837 0.396273672580719 0.26672245830095087 0.5603994472746937 0.5434664203874351 -2.4167477296602318 -0.0356885419984264 0.002558018085121221 -0.5042794744795371 0.09154123015675468 0.06737333671115708 -0.11862660352921892 -0.0342361030433565 0.017324178816763514 2.6232216702474696 13.329087425829254 -14.960387157932347 0.08818664046133602 -0.15903359977172898 -0.0347766921143764 0.2665366070114094 0.5604053462744283 0.5434999661321739 -2.4167375303017664 -0.03545956178635635 0.002611321763665201 -0.5067999951060328 0.09183338669290933 0.07007787378917132 -0.11466922216913261 -0.03901927310250741 0.022820471405783693 0 31.75 32.75 31.25 35.5 38.25 39.25 0.707785 7 253 253 253 253 253 253 1 -0.9385271072387695 0.7086837291717529 -9.90241813659668 1.0 1.0 3.8535564231662063 47.529258728027344 47.5274658203125 1.5330229997634888 47.38426971435547 47.31260681152344 47.28394317626953 47.28394317626953 47.18361282348633 47.154945373535156 0 2
7214.04 -2.248022234537757 -1.4877294412766773 1.466780353638705 -2.1448599746313235 -1.1382651966272963 -0.5624846505649366 0.9696351192379705 -0.4189310966497624 0.30276992640490386 -0.19714286613564913 -0.6085450762106405 0.8247164513305698 1.3962634015954878 -0.6032559531280179 0.43598520614140934 -0.2838834561676856 -0.8762978993601123 1.187582189258518 1.5780885219573975 -5.253718852996826 -0.24180404841899872 -0.537642776966095 -0.39938679337501526 0.41648563742637634 0.5291680021888805 -44.96522827679718 -14.88750876669735 -1.8910726162144145 -0.1719807907634395 0.2515964074433777 -2.2483933607684534 -1.487539367084839 1.4664304892169397 -2.144785543481344 -1.1380499045001429 -0.5626924673663538 0.9691227674484253 -0.42075037956237793 0.3015557527542114 -0.1969834864139557 -0.6052129864692688 0.8212590217590332 1.7691963911056519 -5.622807025909424 -0.3261970281600952 -0.5501336455345154 -0.32085859775543213 0.5356898307800293 1.5780885219573975 -5.253718852996826 -0.24180404841899872 -0.537642776966095 -0.39938679337501526 0.41648563742637634 0.21208638464218935 0.5675420538606561 0.5510841244251647 -2.4261439223660175 -0.03939452233657504 -0.002240038856290858 -0.5861189442009694 0.046677673965590104 0.0817343539050485 -0.06826655132770071 -0.05449571223066163 0.010651679023713001 2.447013804497752 14.025556057202998 -14.16330024364664 0.10794481136222828 -0.12134102772214117 -0.004643540428336944 0.21184793497402798 0.5675454243567681 0.5510061087825107 -2.4263192902602166 -0.03948760232057735 -0.002134389829867089 -0.5855541613738197 0.0468961229908537 0.07988757551080432 -0.07211054793999183 -0.05276209384868957 0.0066330680415479515 0 31.75 32.75 31.25 35.5 38.25 39.25 0.712945 7 253 253 253 253 253 253 1 -0.8810662031173706 1.5322890281677246 -9.672574996948242 1.0 1.0 4.415343004416088 47.576725006103516 47.557918548583984 1.6919201612472534 47.34127426147461 47.26960754394531 47.26960754394531 47.22661209106445 47.1406135559082 47.09761428833008 0 2
7214.139999999999 -2.145456775965748 -1.5320428733971285 1.4988065619797737 -2.165713229704524 -1.2026354979550113 -0.4752483084148329 1.0471975511965976 -0.4524419648460243 0.32698890460605906 -0.21291259212576388 -0.657223424520095 0.890686641943879 0.0 0.0 0.0 0.0 0.0 0.0 1.4716798067092896 -5.062318801879883 -0.28135862946510315 -0.5337833166122437 -0.3942219316959381 0.396109938621521 -1.3559643139390698 -42.89493646906766 -15.668020037947551 -1.832954435466103 -0.05611992554184688 4.0010307667220895e-05 -2.1459859053241175 -1.5318741512349625 1.4984858671771448 -2.1656910381712855 -1.2021997610675257 -0.4757497946368616 1.046453595161438 -0.4568822979927063 0.3274095058441162 -0.21074190735816956 -0.6518536806106567 0.8957016468048096 1.733720064163208 -5.355624675750732 -0.35263481736183167 -0.5341383218765259 -0.3895885944366455 0.5002903938293457 1.4716798067092896 -5.062318801879883 -0.28135862946510315 -0.5337833166122437 -0.3942219316959381 0.396109938621521 0.15091160193900724 0.5689754028865373 0.5594237994328836 -2.429930881973625 -0.04179278035854856 -0.00895302760242371 -0.6178235341996449 -0.022036678020386783 0.08582405726786733 0.0023089432860805056 -0.04669346173000577 -0.014238457294212803 -1.8329748968766408 14.34577203802085 -13.742008925084436 0.16796713321654133 -0.029731574405261606 0.11691124841542838 0.15062107524503052 0.5689739076122566 0.5593313706181222 -2.430230814136071 -0.04162228806491537 -0.00887551339075191 -0.6165009177364311 -0.020913505663739385 0.08369540426520478 -0.0012108782946666247 -0.052876816921443304 -0.01294309625284984 0 31.5 32.75 31.25 35.5 38.25 39.25 0.716485 7 253 253 253 253 253 253 1 0.5746083855628967 1.5514427423477173 -9.634267807006836 1.0 1.0 4.670524037913689 47.54358673095703 47.53104782104492 1.7143000364303589 47.31260681152344 47.26960754394531 47.240943908691406 47.212276458740234 47.18361282348633 47.05461502075195 0 2
7214.24 -2.0409378006906715 -1.5772003228994809 1.5314427586522088 -2.1869636670520105 -1.2682318305468172 -0.38635041613004173 1.0235188033930824 -0.44221155591403805 0.3195951823825233 -0.20809831084008118 -0.6423625917173527 0.8705468465991999 -1.3962634015954878 0.6032559531280457 -0.43598520614140934 0.28388345616767174 0.8762978993601678 -1.187582189258407 1.4764269590377808 -4.91680908203125 -0.3750377595424652 -0.5298615097999573 -0.3684564232826233 0.3610779941082001 -2.978697609675667 -40.38070885687476 -16.506270570851285 -1.7705180506977012 0.07316882014449506 -0.2515334765500001 -2.041511837636129 -1.577099462548727 1.5311177412616175 -2.186845918694967 -1.267768685017721 -0.38699657121767217 1.027482271194458 -0.44597798585891724 0.3222493827342987 -0.2037411481142044 -0.6398354768753052 0.8768938779830933 1.3673408031463623 -5.279423236846924 -0.5408062934875488 -0.6502097249031067 -0.40890541672706604 0.4613128900527954 1.4764269590377808 -4.91680908203125 -0.3750377595424652 -0.5298615097999573 -0.3684564232826233 0.3610779941082001 0.09052341689226467 0.5634094376864315 0.5676633952611553 -2.426319627445596 -0.041329579569288406 -0.015433088032691722 -0.5822330453366337 -0.08866805304596807 0.07901877130445069 0.071152937977658 -0.02635565509460458 -0.027074655222295907 -4.307249451848113 13.792642765746796 -14.936373855551563 0.13178293525431442 0.11325074036602904 0.23209359984139982 0.09023708845454177 0.5634072755671402 0.5675453210672611 -2.4265787116774193 -0.04102826375937044 -0.015343984054038104 -0.5787929282182486 -0.08786161988145941 0.07903318146126762 0.07352868970426302 -0.03392150809973693 -0.027864047458861174 0 31.5 32.75 31.25 35.5 38.25 39.25 0.708073 7 253 253 253 253 253 253 1 2.0877437591552734 0.5554547905921936 -10.15141487121582 1.0 1.0 4.470227912234235 47.54717254638672 47.537322998046875 1.6337324380874634 47.32693862915039 47.298274993896484 47.298274993896484 47.212276458740234 47.1406135559082 47.09761428833008 0 2
7214.339999999999 -1.9455672373593407 -1.6184051987252452 1.561222350859754 -2.2063540808551805 -1.3280866002217513 -0.3052336424164146 0.8838924632335361 -0.3818859606012348 0.27599666176838206 -0.17970996522331262 -0.55473280178134 0.7517886276733492 -1.3962634015954878 0.6032559531280457 -0.43598520614140934 0.28388345616767174 0.8762978993601123 -1.187582189258518 1.4371085166931152 -4.762600898742676 -0.43086710572242737 -0.5221260786056519 -0.35548949241638184 0.3408665657043457 -0.4942905443812715 -40.26078983979791 -16.752007403553236 -1.8098812321921292 0.08694302545703352 -0.25154569432170243 -1.9461000601397913 -1.6181775532164515 1.5609210173236292 -2.206357618371481 -1.3278916517840784 -0.3055170218097132 0.8838735818862915 -0.3889733850955963 0.2763579785823822 -0.18089604377746582 -0.5644112825393677 0.750219464302063 1.7998651266098022 -4.911059856414795 -0.39966291189193726 -0.574837327003479 -0.20642276108264923 0.4272357225418091 1.4371085166931152 -4.762600898742676 -0.43086710572242737 -0.5221260786056519 -0.35548949241638184 0.3408665657043457 0.03787688917368592 0.5525892678053331 0.5748337576075662 -2.416633002535998 -0.03780583006199992 -0.019449324381461762 -0.4755201589282889 -0.12811903827810084 0.06942461851618437 0.12410310506276462 -0.016199368105341838 -0.037453585168333636 2.2319821380569143 13.574749993804158 -14.993572192153703 0.10064996142265321 -0.11500724687591193 0.030070125668108766 0.037571252884197145 0.5525132564524903 0.5747837421726784 -2.4167518601380715 -0.03801016489245739 -0.01926649203407966 -0.4755300769405798 -0.12544148160034851 0.06588832951287737 0.11947128921573927 -0.005320703726273912 -0.03246318665035941 0 31.5 32.75 31.25 35.5 38.25 39.25 0.720505 7 253 253 253 253 253 253 1 0.6129156351089478 0.7661445140838623 -9.519346237182617 1.0 1.0 3.7848041902490235 47.54717254638672 47.537322998046875 1.5352609157562256 47.39860534667969 47.31260681152344 47.32693862915039 47.26960754394531 47.18361282348633 47.12628173828125 0 2
7214.44 -1.8641593080439645 -1.6535775150197285 1.5866420910058854 -2.2229056600966732 -1.3791783909030846 -0.23599269059537153 0.7442661230739898 -0.32156036528843157 0.2323981411542409 -0.1513216196065441 -0.4671030118453273 0.6330304087474987 -1.3962634015954878 0.6032559531280457 -0.43598520614140934 0.28388345616767174 0.8762978993601123 -1.187582189258518 1.508338212966919 -4.700443744659424 -0.49725547432899475 -0.5191062688827515 -0.33209872245788574 0.3206546902656555 1.399372006227293 -39.94300177133567 -16.958715606651758 -1.841101655137948 0.10090108754581407 -0.251561137257355 -1.8645690123187464 -1.6534444294371546 1.5863445440875452 -2.2228218517699183 -1.3789294401751917 -0.23647004762758428 0.7458035349845886 -0.3253851532936096 0.2326805591583252 -0.1487065553665161 -0.4717446565628052 0.6382941603660583 1.7653814554214478 -5.061595439910889 -0.5876646637916565 -0.588833212852478 -0.24937254190444946 0.39617618918418884 1.508338212966919 -4.700443744659424 -0.49725547432899475 -0.5191062688827515 -0.33209872245788574 0.3206546902656555 -0.004914313293737434 0.539190166694524 0.5808393330512642 -2.4036194273547804 -0.03376345391983753 -0.02019736785406638 -0.3805306866610483 -0.14021667497068324 0.05497277556025519 0.13791110318906902 0.018628983576389202 -0.036555397110095644 0.6465124032988042 13.018641833058576 -15.264071605510361 0.06504674404768798 -0.07601207319276677 0.0833225727065418 -0.005119284464518508 0.5391307471526149 0.5807532181078296 -2.4037477294263834 -0.03356031477031393 -0.020047873030007723 -0.37970627423724707 -0.13864836109393106 0.053649393616261636 0.1380795049070924 0.01870264772446667 -0.031151272866953572 0 31.5 32.75 31.25 35.5 38.25 39.25 0.707965 7 253 253 253 253 253 253 1 0.727837324142456 0.4213795065879822 -9.557653427124023 1.0 1.0 3.1351150579647125 47.52567672729492 47.5274658203125 1.434551477432251 47.41293716430664 47.34127426147461 47.35560607910156 47.34127426147461 47.298274993896484 47.16927719116211 0 2
7214.54 -1.796714012744543 -1.6827172717829315 1.6077019790906024 -2.2366184047764897 -1.421507202590817 -0.17862756066691432 0.6046397829144432 -0.26123476997562833 0.18879962054009958 -0.12293327398977555 -0.37947322190931465 0.514272189821648 -1.3962634015954878 0.6032559531279902 -0.43598520614146485 0.2838834561676995 0.8762978993600568 -1.187582189258518 1.5361723899841309 -4.627504348754883 -0.5598642230033875 -0.5149914026260376 -0.30167993903160095 0.3004426956176758 2.7895448945465535 -39.515500037842834 -17.120988703799267 -1.8643386751908275 0.11329820438716677 -0.2515771457481951 -1.7971213499652308 -1.6825348339476527 1.6077917257892054 -2.2365666828551234 -1.4212611357318323 -0.1788728872882288 0.6089959740638733 -0.26222407817840576 0.1879878044128418 -0.12285177409648895 -0.37733516097068787 0.511366605758667 1.8281186819076538 -5.038617134094238 -0.8720975518226624 -0.5826289653778076 -0.24750855565071106 0.3759801685810089 1.5361723899841309 -4.627504348754883 -0.5598642230033875 -0.5149914026260376 -0.30167993903160095 0.3004426956176758 -0.038471844303466646 0.5254964280656004 0.5853959179332153 -2.3902675558791673 -0.02846549016418563 -0.018240093130902277 -0.29562530280845567 -0.13365164261511808 0.043237467535898855 0.1372650504330859 0.03285543414508851 -0.018738385488563936 -1.3341462128415302 13.071351627579771 -15.875872490412995 0.06135560017962933 -0.04013498837328226 0.113023652206556 -0.03867129599139378 0.5254032611781532 0.5855423044060201 -2.389986713609676 -0.028574664837601044 -0.018312248386494243 -0.29286847221230106 -0.1332377423148258 0.04226960274988782 0.13543510243580523 0.033920475843568 -0.026652789935248 0 31.5 32.75 31.25 35.5 38.25 39.25 0.710101 7 253 253 253 253 253 253 1 1.2449848651885986 0.24899697303771973 -9.921571731567383 1.0 1.0 2.513862124227394 47.60090637207031 47.5883674621582 1.2913200855255127 47.455936431884766 47.39860534667969 47.39860534667969 47.34127426147461 47.240943908691406 47.22661209106445 0 2
7214.639999999999 -1.743231351461076 -1.7058244690148543 1.6244020151139051 -2.247492314894629 -1.455073035284948 -0.13313825263104206 0.46501344275489664 -0.20090917466282499 0.14520109992595842 -0.09454492837300704 -0.29184343197330187 0.3955139708957973 -1.3962634015954878 0.6032559531280457 -0.43598520614140934 0.28388345616767174 0.8762978993600568 -1.187582189258518 1.515772819519043 -4.55398416519165 -0.620056688785553 -0.5087707042694092 -0.2715112864971161 0.26995426416397095 3.778576781735196 -39.080353001380104 -17.255189405334463 -1.8816331997964677 0.12378205061215646 -0.2515919748779299 -1.7434495131122034 -1.7057177029051722 1.6242597738849085 -2.247382780114645 -1.4550078550921839 -0.13348085085024053 0.46620458364486694 -0.20002910494804382 0.14862605929374695 -0.09533214569091797 -0.2910780608654022 0.40196213126182556 1.829115629196167 -5.103841781616211 -0.9621940851211548 -0.6117547750473022 -0.1834716796875 0.31664395332336426 1.515772819519043 -4.55398416519165 -0.620056688785553 -0.5087707042694092 -0.2715112864971161 0.26995426416397095 -0.06388139042554394 0.5129934155169619 0.5892415870895883 -2.3773624778173317 -0.02396603132399718 -0.015292936195478866 -0.21565094665198348 -0.11378387171732633 0.02947868984648546 0.11384212400106346 0.04449467277883684 -0.023668300794000174 0.2472026839292512 13.535505394760381 -15.332095942883326 0.051828776985150996 -0.08003679775205044 0.08286523439702644 -0.06399212721073899 0.5129374399142933 0.5892329385962771 -2.377296841391019 -0.023792770039648387 -0.015116890415030643 -0.21496813991982175 -0.11417170939603075 0.031662391526315864 0.11721829742615171 0.03893473017317106 -0.02072985832932761 0 31.5 32.75 31.25 35.75 38.25 39.25 0.708493 7 253 253 253 253 253 253 1 0.47884035110473633 0.17238251864910126 -9.730035781860352 1.0 1.0 1.9145010322557248 47.617027282714844 47.615234375 1.1458507776260376 47.498931884765625 47.427268981933594 47.427268981933594 47.427268981933594 47.35560607910156 47.298274993896484 0 2
7214.74 -1.7037113241935629 -1.7228991067154968 1.636742199075794 -2.255527390451091 -1.479875888985477 -0.09952476648775477 0.3253871025953503 -0.14058357935002175 0.10160257931181715 -0.06615658275623848 -0.2042136420372891 0.2767557519699466 -1.3962634015954878 0.6032559531279902 -0.43598520614140934 0.28388345616767174 0.8762978993601678 -1.187582189258518 1.4241249561309814 -4.485545635223389 -0.6763038039207458 -0.5030465126037598 -0.2416575402021408 0.23792913556098938 4.4379876534747185 -38.6943538201136 -17.34310028807289 -1.892836580600037 0.13184476475659074 -0.2516039101446499 -1.7039569059955042 -1.72277893642568 1.6368454138385218 -2.2554599247374476 -1.4797757307635706 -0.0996926466571253 0.3277676999568939 -0.14276881515979767 0.09740408509969711 -0.06707721948623657 -0.20829907059669495 0.28091591596603394 1.4785932302474976 -4.819061756134033 -0.881753146648407 -0.6181398034095764 -0.1907080113887787 0.2577703595161438 1.4241249561309814 -4.485545635223389 -0.6763038039207458 -0.5030465126037598 -0.2416575402021408 0.23792913556098938 -0.08180728100630894 0.5029568626013867 0.5917705161243368 -2.367263677301441 -0.01973357133461899 -0.011641600040007385 -0.14566899381534604 -0.08671169576577117 0.025206704049082297 0.09516699697575381 0.033325736176503334 -0.017839685043434028 0.9863337196502626 13.19133279941581 -14.802035766261795 0.06001738781548474 -0.03873035270992047 0.11244884123718946 -0.08192466153866225 0.5028855377470627 0.5918962985046639 -2.3669824352427398 -0.01979357471111715 -0.011607305030222568 -0.14483549157472894 -0.08558223167821997 0.02169938709463152 0.08828246916867498 0.03441223580335953 -0.014397201433515111 0 31.5 32.75 31.25 35.75 38.25 39.25 0.711025 7 253 253 253 253 253 253 1 0.727837324142456 -0.038307227194309235 -9.672574996948242 1.0 1.0 1.3311958225498053 47.635833740234375 47.62956237792969 0.9645735621452332 47.5275993347168 47.47026824951172 47.47026824951172 47.498931884765625 47.38426971435547 47.34127426147461 0 2
7214.839999999999 -1.6781539309420053 -1.7339411848848583 1.6447225309762685 -2.2607236314458756 -1.4959157636924054 -0.07778710223705243 0.18576076243580397 -0.0802579840372184 0.058004058697675887 -0.03776823713946992 -0.11658385210127631 0.15799753304409614 -1.3962634015953768 0.6032559531280457 -0.43598520614140934 0.2838834561676995 0.8762978993601678 -1.187582189258407 1.3096575736999512 -4.428394794464111 -0.7304982542991638 -0.4967730939388275 -0.21214379370212555 0.20590446889400482 4.835793810797247 -38.42065070282301 -17.407029937245422 -1.9000627301945119 0.13727647761787387 -0.25161224013088473 -1.678305451069967 -1.7339207134642542 1.644581143056051 -2.2607180080809535 -1.4957101980792444 -0.07806522050966436 0.1877925992012024 -0.08312518149614334 0.0589468888938427 -0.03695489838719368 -0.11932691186666489 0.16327856481075287 1.399332046508789 -4.695343017578125 -0.8131235837936401 -0.5945783853530884 -0.19202786684036255 0.2252335250377655 1.3096575736999512 -4.428394794464111 -0.7304982542991638 -0.4967730939388275 -0.21214379370212555 0.20590446889400482 -0.09310568668112938 0.49604699979334094 0.5936572371292801 -2.3597844252079274 -0.017252577521005705 -0.008765435597826946 -0.0813499247742551 -0.05229863971713533 0.012930800703813795 0.05348780587300513 0.024088321692069897 -0.011765990276888447 0.2536542491451953 13.231277570406197 -14.402693003774928 0.04092054150540619 -0.023560201705893513 0.10856577167367851 -0.09315485109834419 0.4960246482171466 0.5935887930063005 -2.3599136580134665 -0.016998529355581046 -0.008783264326735285 -0.08055670840434355 -0.0508642406322925 0.01221472157111323 0.052576455134279915 0.02241926453216772 -0.008121568247903221 0 31.5 32.75 31.25 35.75 38.25 39.25 0.708385 7 253 253 253 253 253 253 1 0.9002198576927185 0.019153613597154617 -9.653421401977539 1.0 1.0 0.7587110903345907 47.65016555786133 47.64657974243164 0.8213422298431396 47.57059860229492 47.498931884765625 47.513267517089844 47.48460006713867 47.44160079956055 47.41293716430664 0 2
7214.94 -1.6665591717064023 -1.7389507035229403 1.6483430108153292 -2.263081037878985 -1.503192659405733 -0.06792525987893594 0.046134422276257414 -0.019932388724415162 0.01440553808353462 -0.009379891522701411 -0.028954062165263528 0.03923931411824544 -1.3962634015953768 0.6032559531279902 -0.43598520614140934 0.28388345616767174 0.8762978993601678 -1.187582189258518 1.1755335330963135 -4.385061740875244 -0.7813063263893127 -0.4821891784667969 -0.18303273618221283 0.17388038337230682 5.008787652116485 -38.285150371993645 -17.43154207694878 -1.9029766456138921 0.139601353074247 -0.2516161028201581 -1.6665781180011194 -1.738946100274557 1.6482966581927698 -2.2630516491331996 -1.5031359831439417 -0.06799966493715459 0.04800448194146156 -0.0212251003831625 0.016621191054582596 -0.01108522154390812 -0.03005840815603733 0.04196571931242943 1.3446543216705322 -4.759300708770752 -0.9891433119773865 -0.5975934863090515 -0.18147705495357513 0.15359143912792206 1.1755335330963135 -4.385061740875244 -0.7813063263893127 -0.4821891784667969 -0.18303273618221283 0.17388038337230682 -0.09815036098903857 0.4928250106832896 0.5943676194804596 -2.3565919282529086 -0.015770046343244186 -0.007333652016047611 -0.020588996394529407 -0.013531131143609368 0.0026830037269106894 0.014012958132777226 0.006968613429668907 -0.002831533544982043 0.9602783681131997 13.319778443069877 -14.549230327880164 0.03930844104014824 -0.036199551720336155 0.09476412697247164 -0.09815241658560202 0.4928221187929584 0.594348717956603 -2.3566079527293837 -0.015676761780009645 -0.007353096077634463 -0.019762663227738352 -0.01285211772903423 0.003013726735380053 0.013293875247293155 0.0058882327825728505 -0.0020023599477799435 0 31.5 32.75 31.25 35.75 38.25 39.25 0.672181 7 253 253 253 253 253 253 1 0.47884032130241394 -0.1149216815829277 -9.749189376831055 1.0 1.0 0.19225973561875206 47.68061447143555 47.694942474365234 0.7452505826950073 47.6279296875 47.54193115234375 47.584930419921875 47.57059860229492 47.498931884765625 47.44160079956055 0 2
7215.04 -1.6657969999999995 -1.73928 1.6485809999999996 -2.263236 -1.5036709999999998 -0.06727699999999981 0.0 0.0 0.0 0.0 0.0 0.0 0.0 0.0 0.0 0.0 0.0 0.0 0.7783252596855164 -3.854820489883423 -1.476575493812561 -0.2775515615940094 -3.0931780656828778e-06 0.0 8.94229638935208 -41.06596047519087 -16.784954692919836 -2.0181855439230953 -2.380999028431769e-05 0.0 -1.6659014860736292 -1.7391673527159632 1.6484935919391077 -2.2631927929320277 -1.5036352316485804 -0.06733495393861944 0.00010979655053233728 6.993237184360623e-05 -8.631425589555874e-05 -0.0012987741502001882 -0.0001469676208216697 9.177537867799401e-05 1.0460182428359985 -4.525529384613037 -1.4351518154144287 -0.6156183481216431 -0.18363255262374878 0.12061118334531784 0.7783252596855164 -3.854820489883423 -1.476575493812561 -0.2775515615940094 -3.0931780656828778e-06 0.0 -0.09842752342149198 0.4926664992164307 0.5943857471954561 -2.356455165597553 -0.015548464022756702 -0.007285196425782014 -3.090550581148803e-05 4.611800709624973e-05 0.00022403477338618318 0.0013019310429492183 -0.00015742895673019372 -5.1176654898554616e-05 1.0574527585489868 13.321117684356839 -14.736353216092775 0.03721540078948357 -0.03602322842184508 0.07346532756347501 -0.09847877593741648 0.4926096749333949 0.5943984959155819 -2.356388544109562 -0.01558870583631925 -0.007255772874875099 0.0 0.0 0.0 0.0 0.0 0.0 0 31.5 32.75 31.25 35.75 38.25 39.25 0.468901 7 253 253 253 253 253 253 1 0.363918662071228 -0.019153613597154617 -9.787496566772461 0.0 1.0 0.0 47.704795837402344 47.707481384277344 0.6602069735527039 47.61359786987305 47.55626678466797 47.57059860229492 47.584930419921875 47.5275993347168 47.455936431884766 0 1
7215.139999999999 -1.6657969999999995 -1.73928 1.6485809999999996 -2.263236 -1.5036709999999998 -0.06727699999999981 0.0 0.0 0.0 0.0 0.0 0.0 0.0 0.0 0.0 0.0 0.0 0.0 0.7783304452896118 -3.8548007011413574 -1.4765055179595947 -0.2775498032569885 -5.2778223107452504e-06 0.0 8.942355408848714 -41.06575858843752 -16.784161954872722 -2.018174010286514 -4.070033469776751e-05 0.0 -1.6658895651446741 -1.7391721210875453 1.6484554449664515 -2.263210435906881 -1.5036409536944788 -0.06733352342714483 0.00019872041593771428 3.0895254009063194e-39 5.129926648805849e-05 -0.0002887338923756033 -0.00014376705803442746 0.0003485583292786032 1.244336485862732 -4.745274066925049 -1.2885839939117432 -0.5778917074203491 -0.14996783435344696 0.1406923085451126 0.7783304452896118 -3.8548007011413574 -1.4765055179595947 -0.2775498032569885 -5.2778223107452504e-06 0.0 -0.09843289181241274 0.4926631550952985 0.5944119488399215 -2.356395113943967 -0.015560535929605749 -0.007292394010144869 -7.883389702933323e-05 -1.3257134471202145e-05 1.7805757698858334e-05 0.00022896299370874038 0.00012369337785263264 -0.00014758818462384658 0.9584000104193797 13.57344266931691 -14.999767107706347 0.046284686267887676 -0.059042801394519395 0.05994765119355262 -0.09847877593741648 0.4926096749333949 0.5943984959155819 -2.356388544109562 -0.01558870583631925 -0.007255772874875099 0.0 0.0 0.0 0.0 0.0 0.0 0 31.5 32.75 31.25 35.5 38.25 39.25 0.465877 7 253 253 253 253 253 253 1 0.24899697303771973 0.038307227194309235 -10.170568466186523 0.0 1.0 0.0 47.7030029296875 47.71195983886719 0.6243991255760193 47.61359786987305 47.57059860229492 47.584930419921875 47.584930419921875 47.513267517089844 47.455936431884766 0 1
7215.24 -1.6657969999999995 -1.73928 1.6485809999999996 -2.263236 -1.5036709999999998 -0.06727699999999981 0.0 0.0 0.0 0.0 0.0 0.0 0.0 0.0 0.0 0.0 0.0 0.0 0.7783424258232117 -3.8546242713928223 -1.4765162467956543 -0.2775532007217407 -3.398194394321763e-06 0.0 8.942480165338807 -41.06391661996928 -16.78426706432509 -2.018197854450721 -2.6681431555422248e-05 0.0 -1.6658523718463343 -1.7392240963377894 1.6484420935260218 -2.2631894550719203 -1.503664795552389 -0.06730968156923467 0.0005205104826018214 -0.0008672629483044147 0.00024601080804131925 -7.978451321832836e-05 -8.873055048752576e-05 0.00017812814621720463 1.3583136796951294 -4.9452948570251465 -1.1135430335998535 -0.5584221482276917 -0.15862521529197693 0.1507294625043869 0.7783424258232117 -3.8546242713928223 -1.4765162467956543 -0.2775532007217407 -3.398194394321763e-06 0.0 -0.09845029022689614 0.4926364003290946 0.5944408112940676 -2.3563522146114346 -0.015566339163333267 -0.00729607694765986 -0.00027993587767633486 -0.0004196067220830232 0.0002938803650661992 0.000693240628720597 -2.9275527144696323e-06 0.0003321770228757405 1.8658559607121439 13.68491999231033 -14.639834877823423 0.0465936994796518 -0.05414680781174157 0.06211381766294499 -0.09847877593741648 0.4926096749333949 0.5943984959155819 -2.356388544109562 -0.01558870583631925 -0.007255772874875099 0.0 0.0 0.0 0.0 0.0 0.0 0 31.5 32.75 31.25 35.5 38.25 39.25 0.463308 7 253 253 253 253 253 253 1 -0.038307227194309235 0.07661445438861847 -9.883264541625977 0.0 1.0 0.0 47.7030029296875 47.70121383666992 0.6579689979553223 47.59926223754883 47.54193115234375 47.513267517089844 47.55626678466797 47.498931884765625 47.41293716430664 0 1
7215.339999999999 -1.6657969999999995 -1.73928 1.6485809999999996 -2.263236 -1.5036709999999998 -0.06727699999999981 0.0 0.0 0.0 0.0 0.0 0.0 0.0 0.0 0.0 0.0 0.0 0.0 0.7784331440925598 -3.8545851707458496 -1.4765716791152954 -0.27756011486053467 -1.514749499165191e-07 0.0 8.943538227064577 -41.0634639230761 -16.784912917163915 -2.0182493670099158 -1.1691087067901894e-06 0.0 -1.6657894293414515 -1.7392589054503382 1.6485798994647425 -2.2632786236205042 -1.5036981741534632 -0.06730062166322881 -2.294899186522782e-16 3.543324744725851e-09 5.652967229252681e-05 -3.027915183948613e-37 -6.969256763607149e-29 0.00010413135896669701 1.3054782152175903 -4.730219841003418 -1.1944669485092163 -0.568169891834259 -0.1349106878042221 0.1409798115491867 0.7784331440925598 -3.8545851707458496 -1.4765716791152954 -0.27756011486053467 -1.514749499165191e-07 0.0 -0.09847806780847547 0.4926187871656393 0.5943957379277993 -2.356367413897082 -0.015613329304595504 -0.007297871657020389 9.201462771910942e-08 7.162995119008254e-07 -3.122938567427168e-05 -5.621577941075443e-05 7.897563545170251e-05 -7.369055009354426e-05 1.5183542468334836 13.718924475854207 -14.760626851978884 0.05104989441580395 -0.05003596074128516 0.06016825817330646 -0.09847877593741648 0.4926096749333949 0.5943984959155819 -2.356388544109562 -0.01558870583631925 -0.007255772874875099 0.0 0.0 0.0 0.0 0.0 0.0 0 31.5 32.75 31.25 35.5 38.25 39.25 0.46206 7 253 253 253 253 253 253 1 0.09576806426048279 0.13407529890537262 -9.959878921508789 0.0 1.0 0.0 47.668968200683594 47.67882537841797 0.6467790603637695 47.57059860229492 47.54193115234375 47.5275993347168 47.498931884765625 47.498931884765625 47.41293716430664 0 1
7215.44 -1.6657969999999995 -1.73928 1.6485809999999996 -2.263236 -1.5036709999999998 -0.06727699999999981 0.0 0.0 0.0 0.0 0.0 0.0 0.0 0.0 0.0 0.0 0.0 0.0 0.7784519195556641 -3.8544840812683105 -1.4765368700027466 -0.27755531668663025 3.3923856790352147e-06 0.0 8.943754402759641 -41.06238564293714 -16.78451766184817 -2.018214594507763 2.6182991362949646e-05 0.0 -1.6657846609698694 -1.739267965356344 1.6486294905291956 -2.263240953485006 -1.5036233107196253 -0.06723958650697881 0.0 0.0 1.365255502605578e-05 -0.0 -0.0 1.3294474460859478e-38 1.298517107963562 -4.865268230438232 -1.1347414255142212 -0.5754446983337402 -0.127494215965271 0.1367253065109253 0.7784519195556641 -3.8544840812683105 -1.4765368700027466 -0.27755531668663025 3.3923856790352147e-06 0.0 -0.09849047478029926 0.49261459329103735 0.5943669557869767 -2.3564411083116967 -0.015580133335394677 -0.007168817380615276 2.2150311380528122e-08 1.7224442019265286e-07 -7.541826218210914e-06 -1.3591070918755395e-05 1.2941957752268816e-06 -1.035935457341694e-08 1.2107811253752065 13.698288262026 -14.951619587336 0.048730969918744496 -0.051587696781857165 0.06613435989203874 -0.09847877593741648 0.4926096749333949 0.5943984959155819 -2.356388544109562 -0.01558870583631925 -0.007255772874875099 0.0 0.0 0.0 0.0 0.0 0.0 0 31.5 32.75 31.25 35.5 38.25 39.25 0.460152 7 253 253 253 253 253 253 1 0.2106897532939911 0.05746084079146385 -10.055646896362305 0.0 1.0 0.0 47.68688201904297 47.702110290527344 0.6512550115585327 47.57059860229492 47.584930419921875 47.584930419921875 47.54193115234375 47.513267517089844 47.44160079956055 0 1
7215.54 -1.6657969999999995 -1.73928 1.6485809999999996 -2.263236 -1.5036709999999998 -0.06727699999999981 0.0 0.0 0.0 0.0 0.0 0.0 0.0 0.0 0.0 0.0 0.0 0.0 0.7784059047698975 -3.8545889854431152 -1.476532220840454 -0.2775583267211914 1.1907529540167161e-07 0.0 8.943225391015018 -41.06350289252304 -16.784464809337834 -2.018236393574721 9.190427675329646e-07 0.0 -1.6658309141742151 -1.73923983196401 1.6485970656024378 -2.2632438145079554 -1.5036605040179651 -0.06728870073427373 0.0 0.0 -0.0 -0.0 -0.0 0.0 1.247230052947998 -4.7888288497924805 -1.227730631828308 -0.5701528191566467 -0.12414024770259857 0.12467856705188751 0.7784059047698975 -3.8545889854431152 -1.476532220840454 -0.2775583267211914 1.1907529540167161e-07 0.0 -0.0984617541142663 0.4926307070702985 0.5943716146284754 -2.356436353733518 -0.015565754283432664 -0.007259904254936921 0.0 0.0 0.0 0.0 0.0 0.0 1.6976208896313592 13.89395462221625 -14.884149213610794 0.04494656303823573 -0.054066467123407826 0.06017157980670899 -0.09847877593741648 0.4926096749333949 0.5943984959155819 -2.356388544109562 -0.01558870583631925 -0.007255772874875099 0.0 0.0 0.0 0.0 0.0 0.0 0 31.5 32.75 31.25 35.5 38.25 39.25 0.455412 7 253 253 253 253 253 253 1 0.15322890877723694 0.09576806426048279 -9.979032516479492 0.0 1.0 0.0 47.667179107666016 47.67882537841797 0.6221611499786377 47.59926223754883 47.584930419921875 47.57059860229492 47.513267517089844 47.47026824951172 47.427268981933594 0 1
7215.639999999999 -1.6657969999999995 -1.73928 1.6485809999999996 -2.263236 -1.5036709999999998 -0.06727699999999981 0.0 0.0 0.0 0.0 0.0 0.0 0.0 0.0 0.0 0.0 0.0 0.0 0.7784274220466614 -3.8545472621917725 -1.4765377044677734 -0.27755117416381836 3.100880121564842e-06 0.0 8.943473266255275 -41.06305699865395 -16.78452594819414 -2.0181844485089573 2.393310437270928e-05 0.0 -1.6658385435687464 -1.7392016849913539 1.6485393683062952 -2.263264318505758 -1.5036543051349085 -0.06725913683046514 0.0 0.0 -0.0 -0.0 -0.0 0.0 1.2294948101043701 -4.824161529541016 -1.1422721147537231 -0.5600471496582031 -0.11573776602745056 0.11611397564411163 0.7784274220466614 -3.8545472621917725 -1.4765377044677734 -0.27755117416381836 3.100880121564842e-06 0.0 -0.09845731108651987 0.4926476092793376 0.5943884903992965 -2.3563963506134202 -0.015526662528408062 -0.0072464324288770724 0.0 0.0 0.0 0.0 0.0 0.0 1.769020344494145 13.946183600216616 -14.883263789425001 0.04605645867489034 -0.05454743302464614 0.05860768912949179 -0.09847877593741648 0.4926096749333949 0.5943984959155819 -2.356388544109562 -0.01558870583631925 -0.007255772874875099 0.0 0.0 0.0 0.0 0.0 0.0 0 31.5 32.75 31.25 35.5 38.25 39.25 0.456421 7 253 253 253 253 253 253 1 0.038307227194309235 0.1149216815829277 -10.017339706420898 0.0 1.0 0.0 47.69673538208008 47.708377838134766 0.6669209599494934 47.59926223754883 47.57059860229492 47.54193115234375 47.54193115234375 47.513267517089844 47.47026824951172 0 1
7215.74 -1.6657969999999995 -1.73928 1.6485809999999996 -2.263236 -1.5036709999999998 -0.06727699999999981 0.0 0.0 0.0 0.0 0.0 0.0 0.0 0.0 0.0 0.0 0.0 0.0 0.778436541557312 -3.8545403480529785 -1.4765669107437134 -0.27755680680274963 1.1993090538453544e-06 0.0 8.943578073115138 -41.06298423004209 -16.7848596234168 -2.0182252742120435 9.256465202623462e-06 0.0 -1.6657846609698694 -1.739244123498434 1.6485312620746058 -2.263210435906881 -1.5036290327655237 -0.06725198427309209 0.0 0.0 -0.0 -0.0 -0.0 0.0 1.2366036176681519 -4.83651065826416 -1.1640530824661255 -0.563696563243866 -0.11971704661846161 0.12801027297973633 0.778436541557312 -3.8545403480529785 -1.4765669107437134 -0.27755680680274963 1.1993090538453544e-06 0.0 -0.09848894682869398 0.49262289680791604 0.5944047681185036 -2.356397718778697 -0.015593636794195741 -0.007186994536862897 0.0 0.0 0.0 0.0 0.0 0.0 1.5338219797872348 14.113939237100013 -14.738847348617481 0.045274868629356584 -0.05925848376595548 0.05662635783168338 -0.09847877593741648 0.4926096749333949 0.5943984959155819 -2.356388544109562 -0.01558870583631925 -0.007255772874875099 0.0 0.0 0.0 0.0 0.0 0.0 0 31.5 32.75 31.25 35.5 38.25 39.25 0.533341 7 253 253 253 253 253 253 1 0.09576806426048279 0.2106897532939911 -10.036493301391602 0.0 1.0 0.0 47.698524475097656 47.704795837402344 0.5975432395935059 47.59926223754883 47.55626678466797 47.54193115234375 47.584930419921875 47.455936431884766 47.427268981933594 0 0
7215.839999999999 -1.6657969999999995 -1.73928 1.6485809999999996 -2.263236 -1.5036709999999998 -0.06727699999999981 0.0 0.0 0.0 0.0 0.0 0.0 0.0 0.0 0.0 0.0 0.0 0.0 0.7784092426300049 -3.8545939922332764 -1.4765511751174927 -0.27755483984947205 1.0270903203490889e-06 0.0 8.94326392604461 -41.06355843043808 -16.784679021980132 -2.0182109291969295 7.92725247762593e-06 0.0 -1.6657727400409144 -1.739256044427389 1.648616139088766 -2.263219018975729 -1.5036738554583948 -0.06725198427309209 0.0 0.0 -0.0 -0.0 -0.0 0.0 1.2033171653747559 -4.776640892028809 -1.1549476385116577 -0.5777459144592285 -0.11595416069030762 0.12855766713619232 0.7784092426300049 -3.8545939922332764 -1.4765511751174927 -0.27755483984947205 1.0270903203490889e-06 0.0 -0.09848933585909128 0.4926176362401746 0.5943647902608186 -2.356464385592745 -0.015583333281419594 -0.007226283060295084 0.0 0.0 0.0 0.0 0.0 0.0 1.4153727397589075 13.983520503504721 -14.887158608107951 0.045839569531583094 -0.056877343683934434 0.05581582357703141 -0.09847877593741648 0.4926096749333949 0.5943984959155819 -2.356388544109562 -0.01558870583631925 -0.007255772874875099 0.0 0.0 0.0 0.0 0.0 0.0 0 31.5 32.75 31.25 35.5 38.25 39.25 0.462001 7 253 253 253 253 253 253 1 0.15322890877723694 0.09576806426048279 -9.959878921508789 0.0 1.0 0.0 47.66001510620117 47.68330383300781 0.6736348867416382 47.59926223754883 47.5275993347168 47.54193115234375 47.5275993347168 47.455936431884766 47.427268981933594 0 1
7215.94 -1.6657969999999995 -1.73928 1.6485809999999996 -2.263236 -1.5036709999999998 -0.06727699999999981 0.0 0.0 0.0 0.0 0.0 0.0 0.0 0.0 0.0 0.0 0.0 0.0 0.7784343957901001 -3.854550361633301 -1.4765304327011108 -0.27755963802337646 4.8174747462326195e-06 0.0 8.943552594664148 -41.06309176125988 -16.78444235604219 -2.018246031148716 3.718206450136425e-05 0.0 -1.6658666769610804 -1.739235063592428 1.6485684553729456 -2.263214727441305 -1.503669563923971 -0.06728870073427373 0.0 0.0 -0.0 -0.0 -0.0 0.0 1.200573444366455 -4.763920783996582 -1.1808825731277466 -0.5568625330924988 -0.10146662592887878 0.11331106722354889 0.7784343957901001 -3.854550361633301 -1.4765304327011108 -0.27755963802337646 4.8174747462326195e-06 0.0 -0.09844284055108175 0.49263522814792826 0.5943803615447746 -2.3564424695453314 -0.015518905867952418 -0.007287631175895647 0.0 0.0 0.0 0.0 0.0 0.0 1.5968010357294817 13.876889592005188 -14.77885142646645 0.044700426504669634 -0.04985089553627886 0.06123493973629069 -0.09847877593741648 0.4926096749333949 0.5943984959155819 -2.356388544109562 -0.01558870583631925 -0.007255772874875099 0.0 0.0 0.0 0.0 0.0 0.0 0 31.5 32.75 31.25 35.5 38.25 39.25 0.463189 7 253 253 253 253 253 253 1 0.19153612852096558 0.17238251864910126 -9.979032516479492 0.0 1.0 0.0 47.694942474365234 47.705692291259766 0.6087331771850586 47.61359786987305 47.55626678466797 47.5275993347168 47.54193115234375 47.47026824951172 47.48460006713867 0 1
7216.04 -1.6657969999999995 -1.73928 1.6485809999999996 -2.263236 -1.5036709999999998 -0.06727699999999981 0.0 0.0 0.0 0.0 0.0 0.0 0.0 0.0 0.0 0.0 0.0 0.0 0.7784399390220642 -3.854552984237671 -1.4765174388885498 -0.277553915977478 2.135428076144308e-06 0.0 8.943616495536585 -41.063118838686584 -16.78429656009663 -2.018204305990056 1.648158705917411e-05 0.0 -1.6658218542682093 -1.7392603359618128 1.6485961119281214 -2.263219018975729 -1.5036290327655237 -0.06729633012880498 0.0 0.0 -0.0 -0.0 -0.0 0.0 1.149724006652832 -4.767369270324707 -1.1843918561935425 -0.5367088913917542 -0.11886546015739441 0.11626662313938141 0.7784399390220642 -3.854552984237671 -1.4765174388885498 -0.277553915977478 2.135428076144308e-06 0.0 -0.09847117397726964 0.49262060059203094 0.5943781371241346 -2.3564376605696555 -0.015600470706403424 -0.007222001660312881 0.0 0.0 0.0 0.0 0.0 0.0 1.4884753396135664 13.718165209683107 -14.838282903965105 0.04915809806135196 -0.05597816333048423 0.056469032016573155 -0.09847877593741648 0.4926096749333949 0.5943984959155819 -2.356388544109562 -0.01558870583631925 -0.007255772874875099 0.0 0.0 0.0 0.0 0.0 0.0 0 31.5 32.75 31.25 35.5 38.25 39.25 0.496069 7 253 253 253 253 253 253 1 0.038307227194309235 0.05746084079146385 -9.940725326538086 0.0 1.0 0.0 47.72270965576172 47.738826751708984 0.6960148215293884 47.656593322753906 47.57059860229492 47.59926223754883 47.57059860229492 47.498931884765625 47.498931884765625 0 1
7216.139999999999 -1.6657969999999995 -1.73928 1.6485809999999996 -2.263236 -1.5036709999999998 -0.06727699999999981 0.0 0.0 0.0 0.0 0.0 0.0 0.0 0.0 0.0 0.0 0.0 0.0 0.7784184217453003 -3.85444974899292 -1.476593017578125 -0.27756235003471375 -1.7253789792448515e-06 0.0 8.943369610730747 -41.0620188224385 -16.785153532777304 -2.0182655060293877 -1.331675974148932e-05 0.0 -1.6658428351031702 -1.739227911035055 1.6485188643084925 -2.2632481060423792 -1.503707234059469 -0.06726390520204717 0.0 0.0 -0.0 -0.0 -0.0 0.0 1.1436898708343506 -4.774460792541504 -1.2092771530151367 -0.5194581151008606 -0.10375562310218811 0.08969387412071228 0.7784184217453003 -3.85444974899292 -1.476593017578125 -0.27756235003471375 -1.7253789792448515e-06 0.0 -0.0984494434488085 0.4926358762885744 0.594409546630004 -2.3563691760669685 -0.0155026467477904 -0.0073168546662578 0.0 0.0 0.0 0.0 0.0 0.0 1.7076866130137405 13.842594931209598 -14.683235059001355 0.04487023183477679 -0.050253284365834774 0.05591772557029132 -0.09847877593741648 0.4926096749333949 0.5943984959155819 -2.356388544109562 -0.01558870583631925 -0.007255772874875099 0.0 0.0 0.0 0.0 0.0 0.0 0 31.5 32.75 31.25 35.5 38.25 39.0 0.459649 7 253 253 253 253 253 253 1 0.019153613597154617 0.1149216815829277 -10.055646896362305 0.0 1.0 0.0 47.67792510986328 47.7191276550293 0.6915388107299805 47.61359786987305 47.584930419921875 47.55626678466797 47.48460006713867 47.513267517089844 47.455936431884766 0 1
7216.24 -1.6657969999999995 -1.73928 1.6485809999999996 -2.263236 -1.5036709999999998 -0.06727699999999981 0.0 0.0 0.0 0.0 0.0 0.0 0.0 0.0 0.0 0.0 0.0 0.0 0.7784515619277954 -3.85447096824646 -1.4765392541885376 -0.27755337953567505 3.979874236392789e-06 0.0 8.943750301108148 -41.062242782290326 -16.78454412345756 -2.018200396150459 3.0717323997469794e-05 0.0 -1.6658337751971644 -1.7392059765257777 1.6485570112811487 -2.2632366619505824 -1.5036619345294397 -0.06729728380312139 0.0 0.0 -0.0 -0.0 -0.0 0.0 1.1623378992080688 -4.840197563171387 -1.138190746307373 -0.5164200663566589 -0.09615108370780945 0.10004197061061859 0.7784515619277954 -3.85447096824646 -1.4765392541885376 -0.27755337953567505 3.979874236392789e-06 0.0 -0.09845884488644997 0.4926448688633371 0.5943762846209165 -2.3564373658738735 -0.015571768285416874 -0.00726710193357381 0.0 0.0 0.0 0.0 0.0 0.0 1.6669661803923035 13.82076317537641 -14.661959433979465 0.04696113843185083 -0.05359598812387662 0.05775039771990841 -0.09847877593741648 0.4926096749333949 0.5943984959155819 -2.356388544109562 -0.01558870583631925 -0.007255772874875099 0.0 0.0 0.0 0.0 0.0 0.0 0 31.5 32.75 31.25 35.5 38.0 39.25 0.464688 7 253 253 253 253 253 253 1 0.13407529890537262 0.15322890877723694 -9.959878921508789 0.0 1.0 0.0 47.66270446777344 47.68061447143555 0.6602069735527039 47.61359786987305 47.54193115234375 47.55626678466797 47.5275993347168 47.47026824951172 47.427268981933594 0 1
7216.339999999999 -1.6657969999999995 -1.73928 1.6485809999999996 -2.263236 -1.5036709999999998 -0.06727699999999981 0.0 0.0 0.0 0.0 0.0 0.0 0.0 0.0 0.0 0.0 0.0 0.0 0.7784515023231506 -3.8546674251556396 -1.4765944480895996 -0.27756401896476746 5.977321052341722e-06 0.0 8.943749822463902 -41.06433854677306 -16.785171419910775 -2.0182776538501135 4.613394745747835e-05 0.0 -1.6658175627337855 -1.739269872704977 1.6485350767718714 -2.2632481060423792 -1.503714386616842 -0.06729299226869756 0.0 0.0 -0.0 -0.0 -0.0 0.0 1.163071870803833 -4.9042649269104 -1.1906026601791382 -0.5141655802726746 -0.08701977133750916 0.10285310447216034 0.7784515023231506 -3.8546674251556396 -1.4765944480895996 -0.27756401896476746 5.977321052341722e-06 0.0 -0.09846265593123245 0.4926155209406767 0.5944207445264372 -2.356343557716856 -0.015564211529189225 -0.00733017530127157 0.0 0.0 0.0 0.0 0.0 0.0 1.561176764900325 13.743774434893927 -15.002320183515542 0.05388853300458532 -0.055312968421777894 0.05787317646759258 -0.09847877593741648 0.4926096749333949 0.5943984959155819 -2.356388544109562 -0.01558870583631925 -0.007255772874875099 0.0 0.0 0.0 0.0 0.0 0.0 0 31.5 32.75 31.25 35.5 38.0 39.25 0.5028 7 253 253 253 253 253 253 1 0.13407529890537262 0.17238251864910126 -9.959878921508789 0.0 1.0 0.0 47.698524475097656 47.704795837402344 0.6378270983695984 47.61359786987305 47.57059860229492 47.57059860229492 47.54193115234375 47.54193115234375 47.455936431884766 0 1
7216.44 -1.6657969999999995 -1.73928 1.6485809999999996 -2.263236 -1.5036709999999998 -0.06727699999999981 0.0 0.0 0.0 0.0 0.0 0.0 0.0 0.0 0.0 0.0 0.0 0.0 0.7783859372138977 -3.8546323776245117 -1.4765560626983643 -0.2775604724884033 -2.448391114739934e-06 0.0 8.942995841404976 -41.06396596083077 -16.784735114849894 -2.018251952885443 -1.88970865138562e-05 0.0 -1.6658294836627405 -1.739269872704977 1.6485641638385218 -2.263210435906881 -1.503707234059469 -0.06726056734193975 0.0 0.0 -0.0 -0.0 -0.0 0.0 1.19970703125 -4.867038726806641 -1.1754287481307983 -0.47624003887176514 -0.09883338212966919 0.11453591287136078 0.7783859372138977 -3.8546323776245117 -1.4765560626983643 -0.2775604724884033 -2.448391114739934e-06 0.0 -0.09845770506892605 0.4926162669692131 0.5943985995095551 -2.356409914099078 -0.015512625068978561 -0.007304223190602948 0.0 0.0 0.0 0.0 0.0 0.0 1.2912490922669926 14.043017010016001 -14.790250548213532 0.04399871771030999 -0.053646232647491986 0.05001988707569363 -0.09847877593741648 0.4926096749333949 0.5943984959155819 -2.356388544109562 -0.01558870583631925 -0.007255772874875099 0.0 0.0 0.0 0.0 0.0 0.0 0 31.5 32.75 31.25 35.5 38.0 39.25 0.461556 7 253 253 253 253 253 253 1 0.07661445438861847 0.09576806426048279 -9.90241813659668 0.0 1.0 0.0 47.693153381347656 47.69404983520508 0.5930672883987427 47.6279296875 47.54193115234375 47.57059860229492 47.5275993347168 47.48460006713867 47.455936431884766 0 1
7216.54 -1.6657969999999995 -1.73928 1.6485809999999996 -2.263236 -1.5036709999999998 -0.06727699999999981 0.0 0.0 0.0 0.0 0.0 0.0 0.0 0.0 0.0 0.0 0.0 0.0 0.7784029841423035 -3.8545994758605957 -1.4765429496765137 -0.27755725383758545 -5.193155629967805e-07 0.0 8.943192655294071 -41.06361511062981 -16.784585011584955 -2.018228441767393 -4.0081632606241355e-06 0.0 -1.6657803694354456 -1.739244123498434 1.6485713163958948 -2.2632228336729945 -1.5036457220660608 -0.06723529497255498 0.0 0.0 -0.0 -0.0 -0.0 0.0 1.158320426940918 -4.872311592102051 -1.2179629802703857 -0.4657987952232361 -0.08954258263111115 0.09926503896713257 0.7784029841423035 -3.8545994758605957 -1.4765429496765137 -0.27755725383758545 -5.193155629967805e-07 0.0 -0.09848881415877822 0.4926231707254098 0.5943845716728894 -2.3564263136321495 -0.015569851446113751 -0.0071930414631161815 0.0 0.0 0.0 0.0 0.0 0.0 1.7530413390924573 13.622456800736698 -14.842072192633648 0.05178701894461601 -0.045844850230625935 0.05850365910409081 -0.09847877593741648 0.4926096749333949 0.5943984959155819 -2.356388544109562 -0.01558870583631925 -0.007255772874875099 0.0 0.0 0.0 0.0 0.0 0.0 0 31.5 32.75 31.25 35.5 38.0 39.25 0.455136 7 253 253 253 253 253 253 1 -0.019153613597154617 0.07661445438861847 -9.998186111450195 0.0 1.0 0.0 47.71554183959961 47.72808074951172 0.6825868487358093 47.656593322753906 47.59926223754883 47.59926223754883 47.584930419921875 47.54193115234375 47.48460006713867 0 1
7216.639999999999 -1.6657969999999995 -1.73928 1.6485809999999996 -2.263236 -1.5036709999999998 -0.06727699999999981 0.0 0.0 0.0 0.0 0.0 0.0 0.0 0.0 0.0 0.0 0.0 0.0 0.7783730626106262 -3.8544344902038574 -1.4765253067016602 -0.27755531668663025 -4.286286639398895e-06 0.0 8.942848199672165 -41.06185487840874 -16.784385102357994 -2.0182144873541965 -3.308226439598702e-05 0.0 -1.6658056418048304 -1.739223142663473 1.648543659840719 -2.2632481060423792 -1.5036738554583948 -0.06725055376161748 0.0 0.0 -0.0 -0.0 -0.0 0.0 1.1689016819000244 -4.85625696182251 -1.2322436571121216 -0.4703782796859741 -0.07211720943450928 0.07335007190704346 0.7783730626106262 -3.8544344902038574 -1.4765253067016602 -0.27755531668663025 -4.286286639398895e-06 0.0 -0.09847186802359469 0.4926347449665884 0.5943937179528366 -2.3563963323103545 -0.015545774525908187 -0.007249449845118939 0.0 0.0 0.0 0.0 0.0 0.0 1.4858133872763362 13.701349384940736 -14.907627321142712 0.05019085490693432 -0.048675562134262655 0.05252882858478542 -0.09847877593741648 0.4926096749333949 0.5943984959155819 -2.356388544109562 -0.01558870583631925 -0.007255772874875099 0.0 0.0 0.0 0.0 0.0 0.0 0 31.5 32.75 31.25 35.5 38.0 39.25 0.512125 7 253 253 253 253 253 253 1 0.05746084079146385 0.07661445438861847 -9.959878921508789 0.0 1.0 0.0 47.664493560791016 47.67255401611328 0.606495201587677 47.59926223754883 47.54193115234375 47.498931884765625 47.498931884765625 47.47026824951172 47.427268981933594 0 1
7216.74 -1.6657969999999995 -1.73928 1.6485809999999996 -2.263236 -1.5036709999999998 -0.06727699999999981 0.0 0.0 0.0 0.0 0.0 0.0 0.0 0.0 0.0 0.0 0.0 0.0 0.7784264087677002 -3.854612112045288 -1.4765485525131226 -0.2775583565235138 7.849531868941995e-08 0.0 8.943461005405267 -41.06374929936118 -16.784648682035424 -2.0182365969657594 6.05839823903187e-07 0.0 -1.6657965818988245 -1.739235063592428 1.6485732237445276 -2.2632528744139613 -1.5036781469928187 -0.06726056734193975 0.0 0.0 -0.0 -0.0 -0.0 0.0 1.1847999095916748 -4.817192077636719 -1.2377322912216187 -0.4635961353778839 -0.05410623550415039 0.07051250338554382 0.7784264087677002 -3.854612112045288 -1.4765485525131226 -0.2775583565235138 7.849531868941995e-08 0.0 -0.09847620856557969 0.49262918642945525 0.5943838747562415 -2.356409258323845 -0.015565650157582597 -0.007253417124733546 0.0 0.0 0.0 0.0 0.0 0.0 1.6692193634284698 13.830965330087515 -14.932687031684518 0.04709296084414511 -0.051714544840958936 0.05639493978362528 -0.09847877593741648 0.4926096749333949 0.5943984959155819 -2.356388544109562 -0.01558870583631925 -0.007255772874875099 0.0 0.0 0.0 0.0 0.0 0.0 0 31.5 32.75 31.25 35.5 38.0 39.25 0.462109 7 253 253 253 253 253 253 1 0.07661445438861847 0.1149216815829277 -9.998186111450195 0.0 1.0 0.0 47.68509292602539 47.70121383666992 0.6042572259902954 47.584930419921875 47.54193115234375 47.55626678466797 47.498931884765625 47.498931884765625 47.44160079956055 0 1
7216.839999999999 -1.6657969999999995 -1.73928 1.6485809999999996 -2.263236 -1.5036709999999998 -0.06727699999999981 0.0 0.0 0.0 0.0 0.0 0.0 0.0 0.0 0.0 0.0 0.0 0.0 0.7784659266471863 -3.854560375213623 -1.4765915870666504 -0.2775609493255615 2.4269263576570665e-06 0.0 8.943915104084686 -41.06319952398313 -16.785138721676248 -2.018255577375124 1.8731417734815788e-05 0.0 -1.6658013502704065 -1.739256044427389 1.648550812398092 -2.2632438145079554 -1.5036738554583948 -0.0672844091998499 0.0 0.0 -0.0 -0.0 -0.0 0.0 1.1465587615966797 -4.836672782897949 -1.260796070098877 -0.4616919159889221 -0.057562947273254395 0.07248082756996155 0.7784659266471863 -3.854560375213623 -1.4765915870666504 -0.2775609493255615 2.4269263576570665e-06 0.0 -0.09847532204849 0.4926201762776053 0.5944049004385283 -2.356374723401546 -0.01559153601981529 -0.0072664449107184585 0.0 0.0 0.0 0.0 0.0 0.0 1.4441959825026904 14.048544414073527 -14.70382814446295 0.04354074129415441 -0.052465836913837244 0.051640364019418794 -0.09847877593741648 0.4926096749333949 0.5943984959155819 -2.356388544109562 -0.01558870583631925 -0.007255772874875099 0.0 0.0 0.0 0.0 0.0 0.0 0 31.5 32.75 31.25 35.5 38.0 39.25 0.465793 7 253 253 253 253 253 253 1 0.09576806426048279 0.09576806426048279 -10.017339706420898 0.0 1.0 0.0 47.674346923828125 47.69136047363281 0.6221611499786377 47.6279296875 47.584930419921875 47.57059860229492 47.55626678466797 47.5275993347168 47.455936431884766 0 1
7216.94 -1.6657969999999995 -1.73928 1.6485809999999996 -2.263236 -1.5036709999999998 -0.06727699999999981 0.0 0.0 0.0 0.0 0.0 0.0 0.0 0.0 0.0 0.0 0.0 0.0 0.778424084186554 -3.8545007705688477 -1.4765602350234985 -0.2775534689426422 -6.501972166006453e-06 0.0 8.94343459320013 -41.062561360830145 -16.78478161584177 -2.0182012212421667 -5.018329207710477e-05 0.0 -1.6658385435687464 -1.73927702526235 1.648543659840719 -2.263210435906881 -1.5036829153644007 -0.06726485887636358 0.0 0.0 -0.0 -0.0 -0.0 0.0 1.1026809215545654 -4.858099937438965 -1.245995283126831 -0.446727991104126 -0.05552782118320465 0.08273094892501831 0.778424084186554 -3.8545007705688477 -1.4765602350234985 -0.2775534689426422 -6.501972166006453e-06 0.0 -0.09845672843107914 0.49261394731684 0.5944134859646865 -2.356380976240163 -0.015519930179909472 -0.007285379623077393 0.0 0.0 0.0 0.0 0.0 0.0 1.5194226709005512 13.792173935484685 -14.898529664305117 0.04792383943029289 -0.054191200833185245 0.05457604289107605 -0.09847877593741648 0.4926096749333949 0.5943984959155819 -2.356388544109562 -0.01558870583631925 -0.007255772874875099 0.0 0.0 0.0 0.0 0.0 0.0 0 31.75 32.75 31.25 35.5 38.0 39.25 0.484525 7 253 253 253 253 253 253 1 0.17238251864910126 0.15322890877723694 -10.055646896362305 0.0 1.0 0.0 47.7298698425293 47.751365661621094 0.6423030495643616 47.656593322753906 47.61359786987305 47.59926223754883 47.57059860229492 47.5275993347168 47.455936431884766 0 1
7217.04 -1.6657969999999995 -1.73928 1.6485809999999996 -2.263236 -1.5036709999999998 -0.06727699999999981 0.0 0.0 0.0 0.0 0.0 0.0 0.0 0.0 0.0 0.0 0.0 0.0 0.7784256935119629 -3.8544890880584717 -1.4764918088912964 -0.2775542438030243 -1.4821225704508834e-06 0.0 8.943452793607973 -41.06243767342459 -16.784005022459294 -2.018206690935051 -1.1439265965208704e-05 0.0 -1.6658085028277796 -1.739244123498434 1.6485732237445276 -2.2632857761778773 -1.5036829153644007 -0.0672386328326624 0.0 0.0 -0.0 -0.0 -0.0 0.0 1.1560542583465576 -4.783414840698242 -1.2149419784545898 -0.46801167726516724 -0.04843835532665253 0.0622074119746685 0.7784256935119629 -3.8544890880584717 -1.4764918088912964 -0.2775542438030243 -1.4821225704508834e-06 0.0 -0.09847005280515997 0.4926271689977192 0.5943935486813662 -2.356368004108451 -0.015525238764170411 -0.007258805033544903 0.0 0.0 0.0 0.0 0.0 0.0 1.3731834596518269 14.021216926056283 -14.74057606459324 0.04498021897722004 -0.05389047212306283 0.04905411249887456 -0.09847877593741648 0.4926096749333949 0.5943984959155819 -2.356388544109562 -0.01558870583631925 -0.007255772874875099 0.0 0.0 0.0 0.0 0.0 0.0 0 31.5 32.75 31.25 35.5 38.0 39.25 0.465553 7 253 253 253 253 253 253 1 0.07661445438861847 0.17238251864910126 -9.998186111450195 0.0 1.0 0.0 47.69404983520508 47.711063385009766 0.6490170359611511 47.59926223754883 47.57059860229492 47.57059860229492 47.57059860229492 47.48460006713867 47.41293716430664 0 1
7217.139999999999 -1.6657969999999995 -1.73928 1.6485809999999996 -2.263236 -1.5036709999999998 -0.06727699999999981 0.0 0.0 0.0 0.0 0.0 0.0 0.0 0.0 0.0 0.0 0.0 0.0 0.7784188389778137 -3.8545868396759033 -1.4766284227371216 -0.27756237983703613 -3.539063072821591e-06 0.0 8.943374383821928 -41.06348149595772 -16.7855577076725 -2.018265667307553 -2.7315073357630556e-05 0.0 -1.6658294836627405 -1.7392860851683558 1.648562256489889 -2.2632366619505824 -1.503643814717428 -0.06729203859438115 0.0 0.0 -0.0 -0.0 -0.0 6.942893371331138e-09 1.1528434753417969 -4.836876392364502 -1.267492413520813 -0.474249005317688 -0.02923087775707245 0.05824155732989311 0.7784188389778137 -3.8545868396759033 -1.4766284227371216 -0.27756237983703613 -3.539063072821591e-06 0.0 -0.09846658574543272 0.4926101719372245 0.594412017789309 -2.356361741494415 -0.015582385327451511 -0.007249968136925295 -3.854080039184603e-25 -8.09206258227236e-27 -8.374343835142326e-27 4.0113105929615175e-12 4.9083486764886686e-09 -4.9103834417561654e-09 1.55603320096271 13.916155828080784 -14.752634556130992 0.045143685833945006 -0.04816108147399327 0.05310314942276103 -0.09847877593741648 0.4926096749333949 0.5943984959155819 -2.356388544109562 -0.01558870583631925 -0.007255772874875099 0.0 0.0 0.0 0.0 0.0 0.0 0 31.5 32.75 31.25 35.5 38.0 39.25 0.459793 7 253 253 253 253 253 253 1 -0.038307227194309235 0.19153612852096558 -9.921571731567383 0.0 1.0 0.0 47.668968200683594 47.67882537841797 0.6378270983695984 47.61359786987305 47.54193115234375 47.57059860229492 47.57059860229492 47.48460006713867 47.44160079956055 0 1
7217.24 -1.6657970025132736 -1.7392800015569145 1.648581001582606 -2.2632359994670033 -1.503670998320028 -0.0672770019628759 -1.6755160819145566e-06 -1.0379431758166978e-06 1.055070915731814e-06 3.553311520162883e-07 1.1199810966328275e-06 -1.3085839045627506e-06 -0.0005235987755982989 -0.000324357242442718 0.00032970966116619186 0.00011104098500509009 0.0003499940926977586 -0.00040893247017585954 0.7782624363899231 -3.854780673980713 -1.4764658212661743 -0.2775467336177826 1.4042312614037655e-05 -2.2679754692944698e-05 8.941987480959432 -41.06450838032636 -16.784100824397154 -2.018178024382625 3.0216859400077303e-05 -8.663613354731108e-05 -1.6657846609698694 -1.7392651043333949 1.6485641638385218 -2.263240953485006 -1.5036199728595179 -0.06724292436708623 0.0 0.0 -0.0 -0.0 -0.0 0.0 1.199070692062378 -4.771100997924805 -1.238240361213684 -0.4694880247116089 -0.03331650048494339 0.058040883392095566 0.7782624363899231 -3.854780673980713 -1.4764658212661743 -0.2775467336177826 1.4042312614037655e-05 -2.2679754692944698e-05 -0.09849089751212728 0.4926150143903148 0.594401682791874 -2.3563787021504146 -0.01558820192341122 -0.007173858742508023 0.0 0.0 0.0 0.0 0.0 0.0 1.349324395810738 13.91819972138471 -14.917687308424192 0.04789286350272514 -0.05481835842856865 0.048334870785132 -0.09847877497960174 0.49260967452837867 0.5943984957121033 -2.3563885445761916 -0.015588705978569959 -0.007255773021606744 6.386896703706462e-07 -2.7000742425050157e-07 -1.3565229434921658e-07 -3.1146733435389993e-07 -1.0007168291688805e-07 3.719724249417881e-08 0 31.5 32.75 31.25 35.5 38.0 39.25 0.675685 7 253 253 253 253 253 253 1 0.05746084079146385 0.15322890877723694 -10.055646896362305 1.0 1.0 2.319772776782898e-06 47.68598556518555 47.6976318359375 0.6758729219436646 47.64226150512695 47.57059860229492 47.584930419921875 47.584930419921875 47.47026824951172 47.455936431884766 0 2
7217.339999999999 -1.6659399606869751 -1.7393685608148193 1.6486710222113943 -2.263205681946868 -1.5035754394328986 -0.06738865279520745 -0.005394742904744398 -0.003341917540335816 0.0033970645809275105 0.0011440774767044453 0.003606059135883549 -0.004213313026715919 -0.14800392056911948 -0.09168498053047525 0.09319793088964352 0.031387585094772234 0.09893166353589986 -0.11559157823637627 0.36721473932266235 -4.22419548034668 -1.2022662162780762 -0.2518337666988373 0.07005441933870316 -0.08299858868122101 8.590533758178871 -41.29777152851466 -16.59269866484329 -2.0109417078199114 0.016352425183859567 -0.024489143594691204 -1.6659463087665003 -1.7393351993956507 1.6486437956439417 -2.263219495812887 -1.5036276022540491 -0.06739265123476201 -0.0051667336374521255 -0.004279680084437132 0.0037359530106186867 0.000989416497759521 0.0038665432948619127 -0.005488875322043896 0.7209352254867554 -5.0862507820129395 -0.9276962280273438 -0.4078103303909302 0.07572327554225922 -0.033908598124980927 0.36721473932266235 -4.22419548034668 -1.2022662162780762 -0.2518337666988373 0.07005441933870316 -0.08299858868122101 -0.09841304167186464 0.49260129614093673 0.5943878974396803 -2.3564106115302623 -0.015569066067864944 -0.007331306013910067 0.0018722655288319185 -0.0012861056898819001 -0.00014652289671063823 -0.00023928710593294484 -0.0011104073953961042 0.0014343279596891394 1.235044894708232 13.830370032592324 -14.844379909549055 0.05890840660295462 -0.015847216280484452 0.027786630228590393 -0.09842428505890193 0.49258663402683833 0.5943869204128823 -2.356415082093778 -0.015596795376535378 -0.007264114670025831 0.0020560980643769145 -0.0008695799284963187 -0.00043685637130955033 -0.0010024752246987827 -0.00032190286867842975 0.00011976371498125622 0 31.5 32.75 31.25 35.5 38.0 39.25 0.665892 7 253 253 253 253 253 253 1 0.2298433631658554 0.17238251864910126 -9.90241813659668 1.0 1.0 0.01279111862166717 47.71554183959961 47.72002029418945 0.6042572259902954 47.61359786987305 47.57059860229492 47.57059860229492 47.513267517089844 47.47026824951172 47.41293716430664 0 2
7217.44 -1.6677997119794012 -1.740520633411152 1.649842105867536 -2.2628112795437305 -1.502332308248162 -0.0688411250418346 -0.038887611250515625 -0.024089969148588377 0.02448749257352494 0.008246999150863384 0.025994014598783532 -0.030371360035631765 -0.5572836301617895 -0.34522422503986855 0.35092098270121663 0.11818462170708459 0.3725103793279817 -0.43524045909050685 -0.08791983127593994 -4.746083736419678 -0.6547313928604126 -0.09297418594360352 0.207564115524292 -0.21354791522026062 7.604588647818527 -41.899851838897646 -16.06295696622983 -1.9905684766307656 0.06170503401612652 -0.09220957895786366 -1.6677220503436487 -1.7407742939391078 1.6500371138202112 -2.262827058831686 -1.502387825642721 -0.06869012514223272 -0.03597090020775795 -0.023190109059214592 0.024618875235319138 0.008516866713762283 0.025487033650279045 -0.030198263004422188 0.0739089846611023 -5.23062801361084 -0.8781729340553284 -0.21159276366233826 0.17194949090480804 -0.21765434741973877 -0.08791983127593994 -4.746083736419678 -0.6547313928604126 -0.09297418594360352 0.207564115524292 -0.21354791522026062 -0.09775747284158716 0.4921723197376943 0.5942525692586527 -2.356688951392075 -0.015591158799780786 -0.007334491628899617 0.013455175047459479 -0.00619275496469319 -0.0037114403579356033 -0.008516141523045438 -0.002406965733359072 0.003298028354949703 1.0799935438936161 13.676839554052718 -14.9647013181224 0.05108050202803061 0.14213132070645146 -0.13552414222894876 -0.09771620262965452 0.49228636000237436 0.5942361196439405 -2.356759408560608 -0.015701669982082146 -0.00737178777466776 0.014790931563898945 -0.006289206561148201 -0.0031574741746241888 -0.007191367751234274 -0.0022920627603558175 0.0008630880686634687 0 31.5 32.75 31.25 35.5 38.0 39.25 0.672085 7 253 253 253 253 253 253 1 0.26815056800842285 0.13407529890537262 -10.017339706420898 1.0 1.0 0.09388181265742435 47.702110290527344 47.71285629272461 0.6378270983695984 47.6279296875 47.54193115234375 47.57059860229492 47.5275993347168 47.48460006713867 47.427268981933594 0 2
7217.54 -1.6754865067789977 -1.7452824236990905 1.6546824733911865 -2.2611811205253023 -1.4971941511381415 -0.07484453859363693 -0.1266602193333106 -0.07846305489006943 0.07975782210701764 0.026861169603883347 0.08466469100468454 -0.0989220731194451 -1.2283627275536182 -0.7609420907706207 0.7734988650958882 0.26050215082194444 0.8210861414689393 -0.9593555750325583 -0.32041242718696594 -4.861160755157471 -0.5187730193138123 -0.04175369814038277 0.23771455883979797 -0.2509523630142212 5.963947625350469 -42.79285733271657 -15.187460108406604 -1.955980685514525 0.13644397103624606 -0.20324690716557126 -1.6753457228290003 -1.7453638515868128 1.654745880757467 -2.261259695092672 -1.4972427527057093 -0.07485562959779912 -0.12328846007585526 -0.07415788620710373 0.07658325135707855 0.02668144181370735 0.08454496413469315 -0.09820093214511871 -0.4180416762828827 -5.2917561531066895 -0.7383636832237244 -0.13004601001739502 0.20313803851604462 -0.26297229528427124 -0.32041242718696594 -4.861160755157471 -0.5187730193138123 -0.04175369814038277 0.23771455883979797 -0.2509523630142212 -0.09487118666425116 0.4909887428203701 0.5936249690852626 -2.35807047309919 -0.016288022397393964 -0.007806205996137712 0.0463139134250366 -0.019264800715640736 -0.010678614082365302 -0.023907590982301732 -0.006578419858456544 0.0055862340351981316 0.608291816692537 14.011838739527354 -14.832046541014359 0.06339227657134412 0.14675693455946934 -0.13166224799780216 -0.09480491970335657 0.491034735490694 0.5936085535842128 -2.3581647598542435 -0.016128032390987704 -0.007800318819239172 0.047766623167007964 -0.020762157597195047 -0.01039739821064812 -0.022950260071739927 -0.007087437421859091 0.002806749270921949 0 31.5 32.75 31.25 35.5 38.0 39.25 0.722293 7 253 253 253 253 253 253 1 0.40222588181495667 0.325611412525177 -10.036493301391602 1.0 1.0 0.3076850188269946 47.654640197753906 47.64748001098633 0.7362986207008362 47.584930419921875 47.5275993347168 47.55626678466797 47.5275993347168 47.44160079956055 47.39860534667969 0 2
7217.639999999999 -1.695711245247482 -1.7578111779752374 1.6674179723617466 -2.256892006444689 -1.4836751374959913 -0.09064012988608727 -0.2890265241302612 -0.1790451978283805 0.181999732963738 0.06129462372280977 0.19319673916916286 -0.2257307235370746 -1.39626340159546 -0.864952646513914 0.8792257631098366 0.29610929334690506 0.9333175805273514 -1.0904865871356195 -0.5213145613670349 -4.880475044250488 -0.38298413157463074 -0.030198464170098305 0.2801258862018585 -0.2985135614871979 5.468421748668251 -42.57421698107086 -14.930413780996291 -1.9416365354699354 0.15704558299099497 -0.23102310203964052 -1.695714298878805 -1.757754465142721 1.66748553911318 -2.25683655361318 -1.4837220350848597 -0.09054309526552373 -0.28535550832748413 -0.17568834125995636 0.17656303942203522 0.06088821589946747 0.19203950464725494 -0.2257632315158844 -0.6224669814109802 -5.425661087036133 -0.6297040581703186 -0.15468280017375946 0.21895384788513184 -0.31654804944992065 -0.5213145613670349 -4.880475044250488 -0.38298413157463074 -0.030198464170098305 0.2801258862018585 -0.2985135614871979 -0.08725322826277637 0.48768648294035605 0.5918512046717104 -2.361906556411587 -0.017044610364235865 -0.008786179872949669 0.10506927452830876 -0.04793573831064743 -0.02292662452817498 -0.04710931303892608 -0.015066485673066704 0.009247038556025489 -0.024705864907661735 14.097844275172967 -15.19072914035137 0.06545078573969383 0.16112601766871743 -0.12355640721115385 -0.08726385991417478 0.4876628949188809 0.5919246357645352 -2.3617236395341856 -0.017195155951551754 -0.0088036915480454 0.10653305298183652 -0.04897919313986748 -0.024402121481505546 -0.049484954897161704 -0.013968393840590121 0.006352907510106726 0 31.5 32.75 31.25 35.5 38.0 39.25 0.719413 7 253 253 253 253 253 253 1 0.6129156351089478 0.3064578175544739 -10.285490036010742 1.0 1.0 0.7078214936812203 47.6313591003418 47.62777328491211 0.834770143032074 47.54193115234375 47.455936431884766 47.498931884765625 47.455936431884766 47.427268981933594 47.34127426147461 0 2
7217.74 -1.7315952146684852 -1.7800404609906453 1.6900140744736696 -2.2492819976056735 -1.459688875676438 -0.11866563517547224 -0.42865286428980764 -0.26554046247977203 0.26992230927472255 0.09090555305750048 0.28652849722189855 -0.3347793822506372 -1.3962634015954878 -0.8649526465139279 0.8792257631098366 0.29610929334690506 0.9333175805273652 -1.0904865871356195 -0.7000998258590698 -4.840559482574463 -0.2772034704685211 -0.020218506455421448 0.3122114837169647 -0.33614492416381836 5.302975560861001 -41.65139618592919 -14.871026514174398 -1.9306203143918967 0.16022013708660993 -0.2310158956068822 -1.7314570585833948 -1.7799936733641566 1.6898883024798792 -2.2493535480894984 -1.4598191420184534 -0.11840659776796514 -0.42534032464027405 -0.26415854692459106 0.2710815668106079 0.09042029082775116 0.28420811891555786 -0.33830007910728455 -0.7756302356719971 -5.247204303741455 -0.42655059695243835 -0.10507818311452866 0.25179997086524963 -0.36971867084503174 -0.7000998258590698 -4.840559482574463 -0.2772034704685211 -0.020218506455421448 0.3122114837169647 -0.33614492416381836 -0.07435714784960405 0.48142539661995754 0.5888792384013369 -2.3673973048672594 -0.01869890034186583 -0.010154160306907844 0.15028119272604623 -0.07615866301868403 -0.03917243844299743 -0.06787943335574484 -0.01912067843637799 0.013368014113807974 1.0960272394667026 14.537693071349304 -14.99600458326222 0.08448677381863508 0.10092195247520971 -0.18333704126123593 -0.07431063021872318 0.4814168129841659 0.5888211564384047 -2.367531507685339 -0.01889362477722758 -0.010163541152256735 0.15145875562141098 -0.07651152631026183 -0.03795061571560837 -0.06555629339284359 -0.015268270292699282 0.009149845314326444 0 31.5 32.75 31.25 35.5 38.0 39.25 0.707893 7 253 253 253 253 253 253 1 0.15322890877723694 0.6320692300796509 -9.864110946655273 1.0 1.0 1.0517960989636723 47.59732437133789 47.61344528198242 0.984715461730957 47.455936431884766 47.38426971435547 47.39860534667969 47.369937896728516 47.31260681152344 47.22661209106445 0 2
7217.839999999999 -1.781441818105443 -1.8109192704711923 1.7214024342166911 -2.238710895833189 -1.426369438051612 -0.15759600633621496 -0.5682792044493541 -0.3520357271311636 0.3578448855857071 0.12051648239219119 0.37986025527463424 -0.4438280409641998 -1.3962634015954323 -0.8649526465139279 0.8792257631098366 0.29610929334690506 0.9333175805273652 -1.0904865871356195 -0.8392347693443298 -4.744360446929932 -0.17099599540233612 -0.009534768760204315 0.3457234501838684 -0.3737756013870239 5.11060902908461 -40.269786221294545 -14.77982094359965 -1.9132909612534403 0.16471698334573048 -0.23100696093043616 -1.781081501637594 -1.8108793697752894 1.7211054007159632 -2.238819261590475 -1.4264596144305628 -0.1573575178729456 -0.5661515593528748 -0.35305601358413696 0.35921111702919006 0.11970891803503036 0.37869149446487427 -0.44611024856567383 -0.9955666065216064 -5.053154945373535 -0.2724306285381317 -0.08269350230693817 0.24315737187862396 -0.3673873841762543 -0.8392347693443298 -4.744360446929932 -0.17099599540233612 -0.009534768760204315 0.3457234501838684 -0.3737756013870239 -0.05738463765406969 0.4722357720225555 0.5844298629562036 -2.3741380231512004 -0.02097591458493938 -0.011153934277915792 0.1877787970135998 -0.10805881693732723 -0.05367656653104957 -0.07164586380707744 -0.013978541360982144 0.014206019119923918 -2.1466074603571137 14.06764221899843 -14.60096909199893 0.07676669510130901 0.1645711544699155 -0.11909285630602053 -0.0572294108191024 0.47224098170863754 0.5842678254621094 -2.3744851447140523 -0.020840200594952597 -0.011242424622004251 0.18866763886815002 -0.10759979007623394 -0.05349770315319326 -0.07185235398761548 -0.011239001178430741 0.011241173788699765 0 31.5 32.75 31.25 35.5 38.0 39.25 0.735877 7 253 253 253 253 253 253 1 1.3982138633728027 0.8427590131759644 -9.404424667358398 1.0 1.0 1.3975860802146327 47.59732437133789 47.589263916015625 1.2040385007858276 47.455936431884766 47.34127426147461 47.427268981933594 47.369937896728516 47.32693862915039 47.22661209106445 0 2
7217.94 -1.8452510555583554 -1.8504476064168776 1.761583051590811 -2.225178701127236 -1.3837168246215112 -0.20743124336831276 -0.7079055446089005 -0.4385309917825551 0.4457674618966916 0.1501274117268819 0.4731920133273699 -0.5528766996777624 -1.3962634015954878 -0.8649526465139279 0.8792257631098366 0.29610929334691893 0.9333175805273652 -1.0904865871356195 -0.9506250023841858 -4.594822883605957 -0.06141570955514908 0.0022443989291787148 0.3793591856956482 -0.4021398425102234 4.922251832880336 -38.35201283498266 -14.649290631305012 -1.8880551926348441 0.17016309923553424 -0.23099748946006438 -1.8449013868915003 -1.850276609460348 1.7614930311786097 -2.2252022228636683 -1.3839071432696741 -0.20722800890077764 -0.7056034803390503 -0.43824779987335205 0.4460957646369934 0.15479996800422668 0.47715261578559875 -0.5493578910827637 -1.0142346620559692 -4.904557228088379 -0.23157447576522827 -0.13704122602939606 0.26190948486328125 -0.46738144755363464 -0.9506250023841858 -4.594822883605957 -0.06141570955514908 0.0022443989291787148 0.3793591856956482 -0.4021398425102234 -0.037034391161767446 0.459841653011201 0.5780124822105848 -2.3814998971155665 -0.02271433565417922 -0.011397008379414177 0.21421829397028208 -0.14184771572888782 -0.07256207053904233 -0.06876296463477098 0.004757688582407604 0.014166539219775343 -0.419604663849358 13.412050467316332 -15.906998105966988 0.06252563769938911 0.1453831556112874 -0.17269881201562592 -0.03691712186097721 0.45978954923702425 0.5780363485188926 -2.381410486322315 -0.02263505730062785 -0.011456868796594261 0.2156874538776801 -0.14186713258406405 -0.07159997431746724 -0.0643227876336661 -0.0019277835663032428 0.01174815283944608 0 31.5 32.75 31.25 35.5 38.0 39.25 0.732001 7 253 253 253 253 253 253 1 0.28730422258377075 0.26815059781074524 -9.864110946655273 1.0 1.0 1.7478710059123814 47.566871643066406 47.568668365478516 1.3159379959106445 47.44160079956055 47.35560607910156 47.34127426147461 47.32693862915039 47.240943908691406 47.19794464111328 0 2
7218.04 -1.9230229270272234 -1.898625468827703 1.8105559265960294 -2.208685413487813 -1.331731035386138 -0.2681713462717674 -0.847531884768447 -0.5250262564339466 0.5336900382076761 0.1797383410615726 0.5665237713801056 -0.661925358391325 -1.3962634015954878 -0.8649526465139279 0.8792257631098366 0.29610929334690506 0.9333175805273375 -1.0904865871356195 -1.0577179193496704 -4.381838321685791 0.03244837373495102 0.015173427760601044 0.40171077847480774 -0.4202573299407959 4.782503754807144 -35.809512402173496 -14.488275477946543 -1.85445683037203 0.17650449625757075 -0.2309893244222374 -1.9226611296283167 -1.8981949291624964 1.810148064290182 -2.208706041375631 -1.3321288267718714 -0.26785070100893194 -0.8489312529563904 -0.5200129151344299 0.5313688516616821 0.17353597283363342 0.5631900429725647 -0.6554498672485352 -0.995868444442749 -5.211212158203125 0.04370764642953873 -0.048563480377197266 0.3550405204296112 -0.5053978562355042 -1.0577179193496704 -4.381838321685791 0.03244837373495102 0.015173427760601044 0.40171077847480774 -0.4202573299407959 -0.014553236056709615 0.4439610703297901 0.5698878835216823 -2.386809861870119 -0.02364355710146535 -0.010513113706881672 0.23239292191228983 -0.17575143972176327 -0.09254219298448953 -0.0362917754962583 0.011879847510655572 0.000969449308886261 3.175587026432729 16.07093768696005 -15.079678842015381 0.12030598719131858 0.08854874088575247 -0.2651641830703003 -0.01450262153134297 0.4438122518489426 0.5698468267048187 -2.3867087087617502 -0.023775410508899433 -0.010377691745975182 0.2304130251070647 -0.17775033676461305 -0.09272861473874146 -0.03852644871738022 0.010946151206242705 0.00921703710608307 0 31.5 32.75 31.5 35.5 38.0 39.25 0.726397 7 253 253 253 253 253 253 1 -0.5554547905921936 1.6280571222305298 -10.821791648864746 1.0 1.0 2.1070113726099953 47.53284454345703 47.54179763793945 1.550926923751831 47.369937896728516 47.26960754394531 47.28394317626953 47.26960754394531 47.18361282348633 47.1406135559082 0 2
7218.139999999999 -2.01287177505567 -1.9542847368423413 1.8671336624889021 -2.1896309293071514 -1.2716725182329558 -0.3383436099955395 -0.8845351379683527 -0.5479489096728059 0.5569909522723564 0.1875857193886422 0.5912582066655353 -0.6908250282163538 1.3962634015954323 0.8649526465139279 -0.8792257631098366 -0.29610929334690506 -0.933317580527393 1.0904865871356195 -0.5680128931999207 -3.6583452224731445 -0.2756608724594116 -0.0005338074406608939 0.364206463098526 -0.3670079708099365 10.785838734510861 -28.377717488160663 -18.281211495958857 -1.9857378505462078 -0.1497984645548403 0.23103053565657888 -2.0124195257769983 -1.953975339929098 1.8667519728290003 -2.18973507503652 -1.2720068136798304 -0.3377621809588831 -0.8856205940246582 -0.5436999797821045 0.5535764694213867 0.18675851821899414 0.5878337621688843 -0.6966603994369507 -0.6867577433586121 -4.206061363220215 -0.2534695565700531 -0.14048168063163757 0.24298693239688873 -0.3979370594024658 -0.5680128931999207 -3.6583452224731445 -0.2756608724594116 -0.0005338074406608939 0.364206463098526 -0.3670079708099365 0.00817073471147627 0.42479125797986855 0.5596970587894269 -2.3882983074879256 -0.023419644503053696 -0.008034409000557186 0.2099250606635443 -0.1888529256325508 -0.10459197062539415 0.0065740331422046916 0.0144398856332697 0.0025064945743326073 1.8844846873603502 13.939778316363915 -15.599818875808802 0.06322244010010407 0.09498837493277724 -0.24408122793846054 0.008268338116411762 0.4246844267880838 0.559601417342671 -2.3883502730595207 -0.023687427852618348 -0.008053576340399438 0.20814911626342905 -0.19028708485873658 -0.10488755924838725 0.00794155766338965 0.020885046520421724 0.0014959812380183068 0 31.5 32.75 31.5 35.5 38.0 39.25 0.728869 7 253 253 253 253 253 253 1 -0.1149216815829277 0.363918662071228 -10.15141487121582 1.0 1.0 2.2297269392874317 47.610755920410156 47.601802825927734 1.3606977462768555 47.455936431884766 47.34127426147461 47.369937896728516 47.34127426147461 47.298274993896484 47.212276458740234 0 2
7218.24 -2.0943439718445287 -2.004754864577052 1.9184366289005887 -2.172352903835021 -1.2172132854690396 -0.4019736798814968 -0.7449087978088063 -0.4614536450214143 0.46906837596137174 0.1579747900539515 0.49792644861279967 -0.5817763695027912 1.3962634015953768 0.8649526465139279 -0.8792257631098921 -0.29610929334690506 -0.9333175805273375 1.0904865871356195 -0.4818758964538574 -3.319493293762207 -0.35017409920692444 -0.005042566917836666 0.34620171785354614 -0.348891019821167 10.677869085502511 -25.31233346598205 -18.293158319293955 -1.9581623772881074 -0.1582792781716207 0.2310178840356954 -2.093825642262594 -2.004643579522604 1.9182422796832483 -2.1724897823729457 -1.217388931904928 -0.40147143999208623 -0.7431036233901978 -0.46742546558380127 0.4690816104412079 0.15801098942756653 0.5006427764892578 -0.5870267152786255 -0.8248414397239685 -3.342984437942505 -0.36747756600379944 -0.0331268385052681 0.17817164957523346 -0.3804044723510742 -0.4818758964538574 -3.319493293762207 -0.35017409920692444 -0.005042566917836666 0.34620171785354614 -0.348891019821167 0.02598847544987684 0.4071645766864559 0.5496946203708494 -2.3854474938534818 -0.022336502189123766 -0.005578937259978823 0.14994097954436322 -0.16230764078065993 -0.0919829712266733 0.050153324079341435 0.014737058106860268 0.0006255829107588706 -0.8297030384764035 11.995696777103976 -14.594198399227961 0.0701175827464816 0.15823815805447417 -0.19717197078885676 0.026154963154693657 0.40711633937396974 0.549614289439962 -2.3855721195682196 -0.022342165562988407 -0.005736690780509006 0.152053778289286 -0.1604933378131695 -0.09425215591608418 0.04417909693730101 0.0195522988522136 -0.006758890617789448 0 31.5 32.75 31.5 35.5 38.0 39.25 0.727345 7 253 253 253 253 253 253 1 0.0 -0.28730419278144836 -8.9064302444458 1.0 1.0 1.9019770940711178 47.600013732910156 47.60896682739258 1.0988529920578003 47.48460006713867 47.39860534667969 47.41293716430664 47.38426971435547 47.31260681152344 47.25527572631836 0 2
