INTO-CPS-Association/DigitalTwins_RoboSim/UR5e/experiments/mapping_urinterface_with_rmqfmu.csv
timestamp target_q_0 target_q_1 target_q_2 target_q_3 target_q_4 target_q_5 target_qd_0 target_qd_1 target_qd_2 target_qd_3 target_qd_4 target_qd_5 target_qdd_0 target_qdd_1 target_qdd_2 target_qdd_3 target_qdd_4 target_qdd_5 target_current_0 target_current_1 target_current_2 target_current_3 target_current_4 target_current_5 target_moment_0 target_moment_1 target_moment_2 target_moment_3 target_moment_4 target_moment_5 actual_q_0 actual_q_1 actual_q_2 actual_q_3 actual_q_4 actual_q_5 actual_qd_0 actual_qd_1 actual_qd_2 actual_qd_3 actual_qd_4 actual_qd_5 actual_current_0 actual_current_1 actual_current_2 actual_current_3 actual_current_4 actual_current_5 joint_control_output_0 joint_control_output_1 joint_control_output_2 joint_control_output_3 joint_control_output_4 joint_control_output_5 actual_TCP_pose_0 actual_TCP_pose_1 actual_TCP_pose_2 actual_TCP_pose_3 actual_TCP_pose_4 actual_TCP_pose_5 actual_TCP_speed_0 actual_TCP_speed_1 actual_TCP_speed_2 actual_TCP_speed_3 actual_TCP_speed_4 actual_TCP_speed_5 actual_TCP_force_0 actual_TCP_force_1 actual_TCP_force_2 actual_TCP_force_3 actual_TCP_force_4 actual_TCP_force_5 target_TCP_pose_0 target_TCP_pose_1 target_TCP_pose_2 target_TCP_pose_3 target_TCP_pose_4 target_TCP_pose_5 target_TCP_speed_0 target_TCP_speed_1 target_TCP_speed_2 target_TCP_speed_3 target_TCP_speed_4 target_TCP_speed_5 actual_digital_input_bits joint_temperatures_0 joint_temperatures_1 joint_temperatures_2 joint_temperatures_3 joint_temperatures_4 joint_temperatures_5 actual_execution_time robot_mode joint_mode_0 joint_mode_1 joint_mode_2 joint_mode_3 joint_mode_4 joint_mode_5 safety_mode actual_tool_accelerometer_0 actual_tool_accelerometer_1 actual_tool_accelerometer_2 speed_scaling target_speed_fraction actual_momentum actual_main_voltage actual_robot_voltage actual_robot_current actual_joint_voltage_0 actual_joint_voltage_1 actual_joint_voltage_2 actual_joint_voltage_3 actual_joint_voltage_4 actual_joint_voltage_5 actual_digital_output_bits runtime_state
5037.708 -1.6555951277362269 -1.8230325184264125 1.5874293486224573 0.7342745500751953 1.59031081199646 -1.5362404028521937 0.0 0.0 0.0 0.0 0.0 0.0 0.0 0.0 0.0 0.0 0.0 0.0 0.8160404562950134 -3.380401611328125 -1.2904201745986938 0.23571614921092987 0.007942101918160915 0.0 9.375614751800084 -36.011914408483676 -14.668837823954236 1.7139853815189217 0.06129845012490252 0.0 -1.6555984655963343 -1.8230282268919886 1.5874088446246546 0.734327955836914 1.5903241634368896 -1.5362303892718714 0.0 0.0 -0.0 0.0 -0.0 0.0 0.6804238557815552 -3.6311237812042236 -1.5650269985198975 0.24756884574890137 0.014130130410194397 0.04487934336066246 0.8160404562950134 -3.380401611328125 -1.2904201745986938 0.23571614921092987 0.007942101918160915 0.0 -0.10278459731023794 0.35133739916098017 0.5156603553696854 -1.4522935891567141 1.6526164289354786 0.8840078715265447 0.0 0.0 0.0 0.0 0.0 0.0 -0.7033568539911759 16.084241866026513 -12.875268841871662 -0.24167641366857637 0.05035336028499074 0.03127679842329523 -0.10278710150234481 0.3513424808861916 0.5156561744136434 -1.4522890657483043 1.6525762737345815 0.8840404100869974 0.0 0.0 0.0 0.0 0.0 0.0 0 31.25 32.5 31.25 35.25 38.25 39.25 0.462037 7 253 253 253 253 253 253 1 -2.432508945465088 -0.4405331015586853 -9.672574996948242 0.0 1.0 0.0 47.68151092529297 47.698524475097656 0.532641589641571 47.6279296875 47.584930419921875 47.513267517089844 47.55626678466797 47.48460006713867 47.455936431884766 0 1
5037.808 -1.6555951277362269 -1.8230325184264125 1.5874293486224573 0.7342745500751953 1.59031081199646 -1.5362404028521937 0.0 0.0 0.0 0.0 0.0 0.0 0.0 0.0 0.0 0.0 0.0 0.0 0.8160465359687805 -3.3802034854888916 -1.2904072999954224 0.23571918904781342 0.0079493448138237 0.0 9.375684329776785 -36.00980290694715 -14.668691007624929 1.7140073206611541 0.061354349978339544 0.0 -1.6555951277362269 -1.8230210743346156 1.5874913374530237 0.7342745500751953 1.5903198719024658 -1.53625995317568 0.0 0.0 -0.0 0.0 -0.0 0.0 0.7522958517074585 -3.644331216812134 -1.578644037246704 0.255542516708374 0.006541531533002853 0.05432284623384476 0.8160465359687805 -3.3802034854888916 -1.2904072999954224 0.23571918904781342 0.0079493448138237 0.0 -0.10278587314479103 0.35134276732737785 0.5156245370380684 -1.4523445902094856 1.6526143578237267 0.883974779854761 0.0 0.0 0.0 0.0 0.0 0.0 -0.8529260521242177 16.27867861041654 -12.510021253427272 -0.2477495650013563 0.056430318563085634 0.029062568317700793 -0.10278710150234481 0.3513424808861916 0.5156561744136434 -1.4522890657483043 1.6525762737345815 0.8840404100869974 0.0 0.0 0.0 0.0 0.0 0.0 0 31.25 32.5 31.25 35.5 38.25 39.25 0.449449 7 253 253 253 253 253 253 1 -2.3558945655822754 -0.363918662071228 -9.691728591918945 0.0 1.0 0.0 47.6761360168457 47.711063385009766 0.6557310223579407 47.59926223754883 47.54193115234375 47.55626678466797 47.513267517089844 47.498931884765625 47.41293716430664 0 1
5037.907999999999 -1.6555951277362269 -1.8230325184264125 1.5874293486224573 0.7342745500751953 1.59031081199646 -1.5362404028521937 0.0 0.0 0.0 0.0 0.0 0.0 0.0 0.0 0.0 0.0 0.0 0.0 0.8160504102706909 -3.3803162574768066 -1.2904582023620605 0.2357081025838852 0.007943223230540752 0.0 9.375729166607945 -36.011006098491194 -14.669269523796252 1.713926760584907 0.061307107338891435 0.0 -1.655562702809469 -1.8229834041991175 1.5874040762530726 0.7342938619801025 1.5902997255325317 -1.5363166967975062 0.0 0.0 -0.0 0.0 -0.0 0.0 0.6772565841674805 -3.5592336654663086 -1.6186716556549072 0.24751603603363037 0.026021815836429596 0.04094701260328293 0.8160504102706909 -3.3803162574768066 -1.2904582023620605 0.2357081025838852 0.007943223230540752 0.0 -0.10279856915321979 0.3513551668792994 0.5156494165640361 -1.4524096089140592 1.6525204610488713 0.8839989761510189 0.0 0.0 0.0 0.0 0.0 0.0 -0.6712401028509414 16.040063812071175 -12.57963823389933 -0.24483606887613277 0.05332555781677273 0.029640490146253057 -0.10278710150234481 0.3513424808861916 0.5156561744136434 -1.4522890657483043 1.6525762737345815 0.8840404100869974 0.0 0.0 0.0 0.0 0.0 0.0 0 31.25 32.5 31.25 35.5 38.25 39.25 0.461809 7 253 253 253 253 253 253 1 -2.3367409706115723 -0.4213795065879822 -9.691728591918945 0.0 1.0 0.0 47.68151092529297 47.682403564453125 0.5930672883987427 47.64226150512695 47.54193115234375 47.584930419921875 47.57059860229492 47.48460006713867 47.455936431884766 0 1
5038.008 -1.6555951277362269 -1.8230325184264125 1.5874293486224573 0.7342745500751953 1.59031081199646 -1.5362404028521937 0.0 0.0 0.0 0.0 0.0 0.0 0.0 0.0 0.0 0.0 0.0 0.0 0.8160237669944763 -3.3803188800811768 -1.2903870344161987 0.23572500050067902 0.007950032129883766 0.0 9.375423222522864 -36.01103311136405 -14.668460562914793 1.7140496386608024 0.0613596583850202 0.0 -1.6556037108050745 -1.8230282268919886 1.5873716513263147 0.7342657285877685 1.5903041362762451 -1.5362547079669397 0.0 0.0 -0.0 0.0 -0.0 0.0 0.7145973443984985 -3.647522211074829 -1.5758817195892334 0.27461469173431396 0.02955649048089981 0.05957500636577606 0.8160237669944763 -3.3803188800811768 -1.2903870344161987 0.23572500050067902 0.007950032129883766 0.0 -0.10278445278686388 0.35134964250680356 0.5156811081575216 -1.4522551013565346 1.6525226753926414 0.8840733478708607 0.0 0.0 0.0 0.0 0.0 0.0 -0.4264464462385926 16.03440798838109 -12.66166316511638 -0.24756403429365526 0.055050391261364705 0.03139959245732107 -0.10278710150234481 0.3513424808861916 0.5156561744136434 -1.4522890657483043 1.6525762737345815 0.8840404100869974 0.0 0.0 0.0 0.0 0.0 0.0 0 31.25 32.5 31.25 35.5 38.25 39.25 0.457585 7 253 253 253 253 253 253 1 -2.4899697303771973 -0.4405331015586853 -9.653421401977539 0.0 1.0 0.0 47.68330383300781 47.68598556518555 0.5550214648246765 47.6279296875 47.57059860229492 47.584930419921875 47.5275993347168 47.498931884765625 47.455936431884766 0 1
5038.108 -1.6555951277362269 -1.8230325184264125 1.5874293486224573 0.7342745500751953 1.59031081199646 -1.5362404028521937 0.0 0.0 0.0 0.0 0.0 0.0 0.0 0.0 0.0 0.0 0.0 0.0 0.8160467147827148 -3.380349636077881 -1.290382981300354 0.23571999371051788 0.007948693819344044 0.0 9.37568638646102 -36.01136078413776 -14.668414175220061 1.7140132100426406 0.061349329968604746 0.0 -1.6556251684771937 -1.8229910335936488 1.5874584356891077 0.7342731195637207 1.5903362035751343 -1.5362303892718714 0.0 0.0 -0.0 0.0 -0.0 0.0 0.6695420742034912 -3.6934752464294434 -1.5505250692367554 0.24396616220474243 0.021062534302473068 0.08246342092752457 0.8160467147827148 -3.380349636077881 -1.290382981300354 0.23571999371051788 0.007948693819344044 0.0 -0.10277213709003233 0.3513583430414422 0.5156291221182822 -1.4522810952736558 1.6526576462732756 0.8839621714635817 0.0 0.0 0.0 0.0 0.0 0.0 -0.6261910347070796 16.028591854779823 -12.502167696638832 -0.24894748481242088 0.051262301258129646 0.030719185737951602 -0.10278710150234481 0.3513424808861916 0.5156561744136434 -1.4522890657483043 1.6525762737345815 0.8840404100869974 0.0 0.0 0.0 0.0 0.0 0.0 0 31.25 32.5 31.25 35.5 38.25 39.25 0.463801 7 253 253 253 253 253 253 1 -2.470816135406494 -0.4405331015586853 -9.749189376831055 0.0 1.0 0.0 47.720916748046875 47.738826751708984 0.6042572259902954 47.656593322753906 47.584930419921875 47.584930419921875 47.584930419921875 47.513267517089844 47.455936431884766 0 1
5038.208 -1.6555951277362269 -1.8230325184264125 1.5874293486224573 0.7342745500751953 1.59031081199646 -1.5362404028521937 0.0 0.0 0.0 0.0 0.0 0.0 0.0 0.0 0.0 0.0 0.0 0.0 0.8160336017608643 -3.380295515060425 -1.2904611825942993 0.2357088029384613 0.007944449782371521 0.0 9.375536213789607 -36.01078487482108 -14.669303127857084 1.7139318643929484 0.061316576624118095 0.0 -1.655574146901266 -1.8230463467040003 1.5874503294574183 0.7342700201221923 1.5903329849243164 -1.5362919012652796 0.0 0.0 -0.0 0.0 -0.0 0.0 0.6907553672790527 -3.6668646335601807 -1.567206859588623 0.2407834827899933 0.01470983773469925 0.06735984981060028 0.8160336017608643 -3.380295515060425 -1.2904611825942993 0.2357088029384613 0.007944449782371521 0.0 -0.10279205974254849 0.35133462054854453 0.5156518376250178 -1.452331568406401 1.6525257624780911 0.8840014243994454 0.0 0.0 0.0 0.0 0.0 0.0 -0.29742289262037125 16.156098057281522 -12.573556647820176 -0.25094401937110766 0.055612683950957656 0.0377074335261345 -0.10278710150234481 0.3513424808861916 0.5156561744136434 -1.4522890657483043 1.6525762737345815 0.8840404100869974 0.0 0.0 0.0 0.0 0.0 0.0 0 31.25 32.5 31.25 35.5 38.25 39.25 0.454009 7 253 253 253 253 253 253 1 -2.5282769203186035 -0.38307225704193115 -9.672574996948242 0.0 1.0 0.0 47.69046401977539 47.69046401977539 0.6467790603637695 47.59926223754883 47.54193115234375 47.55626678466797 47.61359786987305 47.47026824951172 47.44160079956055 0 1
5038.308 -1.6555951277362269 -1.8230325184264125 1.5874293486224573 0.7342745500751953 1.59031081199646 -1.5362404028521937 0.0 0.0 0.0 0.0 0.0 0.0 0.0 0.0 0.0 0.0 0.0 0.0 0.816062331199646 -3.380312442779541 -1.2904391288757324 0.23571676015853882 0.007948346436023712 0.0 9.375865905032661 -36.01096261792996 -14.669052167954831 1.7139896856872296 0.061346647135356334 0.0 -1.6555755774127405 -1.8230115375914515 1.587442700062887 0.7343029218861084 1.590331792831421 -1.5362346808062952 0.0 0.0 -0.0 0.0 -0.0 0.0 0.7360758185386658 -3.645728588104248 -1.5383262634277344 0.24812546372413635 0.0030356459319591522 0.08135998249053955 0.816062331199646 -3.380312442779541 -1.2904391288757324 0.23571676015853882 0.007948346436023712 0.0 -0.10279101814212487 0.3513425703217459 0.5156411793177882 -1.4523297208469717 1.652619136135607 0.8839951500276686 0.0 0.0 0.0 0.0 0.0 0.0 -0.6587389821547596 16.085678271922806 -12.519692045429917 -0.24608917671487035 0.05231331372440611 0.03249776968910821 -0.10278710150234481 0.3513424808861916 0.5156561744136434 -1.4522890657483043 1.6525762737345815 0.8840404100869974 0.0 0.0 0.0 0.0 0.0 0.0 0 31.25 32.5 31.25 35.5 38.5 39.25 0.45492 7 253 253 253 253 253 253 1 -2.5091233253479004 -0.4213795065879822 -9.691728591918945 0.0 1.0 0.0 47.69046401977539 47.71375274658203 0.6288751363754272 47.6279296875 47.55626678466797 47.584930419921875 47.54193115234375 47.455936431884766 47.47026824951172 0 1
5038.407999999999 -1.6555951277362269 -1.8230325184264125 1.5874293486224573 0.7342745500751953 1.59031081199646 -1.5362404028521937 0.0 0.0 0.0 0.0 0.0 0.0 0.0 0.0 0.0 0.0 0.0 0.0 0.8160613179206848 -3.380465269088745 -1.2903870344161987 0.23572272062301636 0.007940169423818588 0.0 9.375854664398904 -36.012592923752024 -14.66846008093702 1.7140331102805613 0.061283533088584426 0.0 -1.655590836201803 -1.8229924641051234 1.5873974005328577 0.7342626291462402 1.5903702974319458 -1.536238972340719 0.0 0.0 -0.0 0.0 -0.0 0.0 0.6876655220985413 -3.6269161701202393 -1.5329854488372803 0.23417437076568604 0.007449537515640259 0.05819016322493553 0.8160613179206848 -3.380465269088745 -1.2903870344161987 0.23572272062301636 0.007940169423818588 0.0 -0.10277942450814664 0.35135899407705157 0.5156576702737037 -1.4522481384160593 1.6525838099747843 0.883991153474657 0.0 0.0 0.0 0.0 0.0 0.0 -0.39961789427795913 16.170079365937877 -12.65178074818159 -0.24756982494840502 0.05735389956257399 0.03359353333924815 -0.10278710150234481 0.3513424808861916 0.5156561744136434 -1.4522890657483043 1.6525762737345815 0.8840404100869974 0.0 0.0 0.0 0.0 0.0 0.0 0 31.25 32.5 31.25 35.5 38.5 39.25 0.460704 7 253 253 253 253 253 253 1 -2.451662540435791 -0.5171475410461426 -9.672574996948242 0.0 1.0 0.0 47.6707649230957 47.679718017578125 0.5953052639961243 47.6279296875 47.57059860229492 47.61359786987305 47.5275993347168 47.513267517089844 47.47026824951172 0 1
5038.508 -1.6555951277362269 -1.8230325184264125 1.5874293486224573 0.7342745500751953 1.59031081199646 -1.5362404028521937 0.0 0.0 0.0 0.0 0.0 0.0 0.0 0.0 0.0 0.0 0.0 0.0 0.8160321116447449 -3.3804731369018555 -1.2903953790664673 0.235725536942482 0.007948298938572407 0.0 9.375519107414698 -36.01267433811556 -14.668555419455476 1.7140535877565464 0.06134627660827908 0.0 -1.6555498282061976 -1.8230115375914515 1.5874293486224573 0.7342626291462402 1.5903362035751343 -1.5362723509417933 0.0 0.0 -0.0 0.0 -0.0 0.0 0.6880306005477905 -3.6065218448638916 -1.5866937637329102 0.22823986411094666 0.020745500922203064 0.05502064898610115 0.8160321116447449 -3.3804731369018555 -1.2903953790664673 0.235725536942482 0.007948298938572407 0.0 -0.1027989644883286 0.35134664919978364 0.5156498377679435 -1.4523427282706232 1.652533486419319 0.8840187042461096 0.0 0.0 0.0 0.0 0.0 0.0 -0.6039774944085248 16.06584671516768 -12.63654126491429 -0.24738826448416168 0.05339556973959829 0.03143894550928039 -0.10278710150234481 0.3513424808861916 0.5156561744136434 -1.4522890657483043 1.6525762737345815 0.8840404100869974 0.0 0.0 0.0 0.0 0.0 0.0 0 31.25 32.5 31.25 35.5 38.5 39.25 0.454716 7 253 253 253 253 253 253 1 -2.4133553504943848 -0.5171475410461426 -9.634267807006836 0.0 1.0 0.0 47.72718811035156 47.72270965576172 0.5863533020019531 47.6279296875 47.584930419921875 47.55626678466797 47.584930419921875 47.48460006713867 47.455936431884766 0 1
5038.608 -1.6555951277362269 -1.8230325184264125 1.5874293486224573 0.7342745500751953 1.59031081199646 -1.5362404028521937 0.0 0.0 0.0 0.0 0.0 0.0 0.0 0.0 0.0 0.0 0.0 0.0 0.8160393834114075 -3.3803632259368896 -1.2904284000396729 0.23571659624576569 0.00795068871229887 0.0 9.375602646409508 -36.0115044467725 -14.668929971555553 1.7139886015712804 0.061364729031935086 0.0 -1.6555832068072718 -1.8229881725706996 1.5874832312213343 0.7343165117451171 1.5902788639068604 -1.5362303892718714 0.0 0.0 -0.0 0.0 -0.0 0.0 0.6427550315856934 -3.696312189102173 -1.5496714115142822 0.22577935457229614 0.013683967292308807 0.07267769426107407 0.8160393834114075 -3.3803632259368896 -1.2904284000396729 0.23571659624576569 0.00795068871229887 0.0 -0.10279483747964643 0.35134787051914834 0.5156140868601055 -1.45240706807949 1.652673080559468 0.883993076388607 0.0 0.0 0.0 0.0 0.0 0.0 -0.6824439809223048 16.263163383331314 -12.49045611775555 -0.25471017871719825 0.05649584351873783 0.026317568355542838 -0.10278710150234481 0.3513424808861916 0.5156561744136434 -1.4522890657483043 1.6525762737345815 0.8840404100869974 0.0 0.0 0.0 0.0 0.0 0.0 0 31.25 32.5 31.25 35.5 38.5 39.25 0.460356 7 253 253 253 253 253 253 1 -2.432508945465088 -0.40222588181495667 -9.576807022094727 0.0 1.0 0.0 47.69046401977539 47.71464920043945 0.5930672883987427 47.6279296875 47.57059860229492 47.59926223754883 47.54193115234375 47.47026824951172 47.39860534667969 0 1
5038.708 -1.6555951277362269 -1.8230325184264125 1.5874293486224573 0.7342745500751953 1.59031081199646 -1.5362404028521937 0.0 0.0 0.0 0.0 0.0 0.0 0.0 0.0 0.0 0.0 0.0 0.0 0.8160647749900818 -3.380406618118286 -1.2904677391052246 0.23571625351905823 0.00794652383774519 0.0 9.375894304768469 -36.01196823349137 -14.669377681381253 1.7139860725137408 0.061332582248645705 0.0 -1.6556037108050745 -1.8230163059630335 1.5874112288104456 0.7343045908161621 1.5903198719024658 -1.5362632910357874 0.0 0.0 -0.0 0.0 -0.0 0.0 0.6934612989425659 -3.651458263397217 -1.5877962112426758 0.20502349734306335 0.02643393725156784 0.05475669354200363 0.8160647749900818 -3.380406618118286 -1.2904677391052246 0.23571625351905823 0.00794652383774519 0.0 -0.10278269343496388 0.351345529688138 0.5156567646255766 -1.4523091022012165 1.6525837836823758 0.8839966401706322 0.0 0.0 0.0 0.0 0.0 0.0 -0.34388443561400917 16.01009021869884 -12.753031215440815 -0.24473965269310544 0.056651578762298614 0.03446671875366897 -0.10278710150234481 0.3513424808861916 0.5156561744136434 -1.4522890657483043 1.6525762737345815 0.8840404100869974 0.0 0.0 0.0 0.0 0.0 0.0 0 31.25 32.5 31.25 35.5 38.5 39.25 0.460032 7 253 253 253 253 253 253 1 -2.470816135406494 -0.5171475410461426 -9.672574996948242 0.0 1.0 0.0 47.67165756225586 47.68330383300781 0.5751633644104004 47.670928955078125 47.54193115234375 47.55626678466797 47.5275993347168 47.48460006713867 47.47026824951172 0 1
5038.808 -1.6555951277362269 -1.8230325184264125 1.5874293486224573 0.7342745500751953 1.59031081199646 -1.5362404028521937 0.0 0.0 0.0 0.0 0.0 0.0 0.0 0.0 0.0 0.0 0.0 0.0 0.8160341382026672 -3.3803534507751465 -1.2905144691467285 0.23569922149181366 0.00794961303472519 0.0 9.375542750266431 -36.01140155351446 -14.66990813555083 1.7138621403091525 0.0613564229215597 0.0 -1.655623737965719 -1.8230072460570277 1.5873974005328577 0.7343165117451171 1.5902787446975708 -1.5362051169024866 0.0 0.0 -0.0 0.0 -0.0 0.0 0.717495858669281 -3.6187241077423096 -1.6132749319076538 0.22730833292007446 0.035906992852687836 0.06245496869087219 0.8160341382026672 -3.3803534507751465 -1.2905144691467285 0.23569922149181366 0.00794961303472519 0.0 -0.10278078540608751 0.3513503431358048 0.5156590111955004 -1.452282370810397 1.6526428566216653 0.8840511111128864 0.0 0.0 0.0 0.0 0.0 0.0 -0.6529394992781503 16.011506790205438 -12.776691375601038 -0.2446750458288375 0.05163454544231176 0.030804965440003818 -0.10278710150234481 0.3513424808861916 0.5156561744136434 -1.4522890657483043 1.6525762737345815 0.8840404100869974 0.0 0.0 0.0 0.0 0.0 0.0 0 31.25 32.5 31.25 35.5 38.5 39.25 0.459445 7 253 253 253 253 253 253 1 -2.5091233253479004 -0.49799394607543945 -9.730035781860352 0.0 1.0 0.0 47.67792510986328 47.7030029296875 0.6378270983695984 47.61359786987305 47.5275993347168 47.584930419921875 47.5275993347168 47.47026824951172 47.455936431884766 0 1
5038.907999999999 -1.6555951277362269 -1.8230325184264125 1.5874293486224573 0.7342745500751953 1.59031081199646 -1.5362404028521937 0.0 0.0 0.0 0.0 0.0 0.0 0.0 0.0 0.0 0.0 0.0 0.0 0.8160592317581177 -3.380319118499756 -1.2904436588287354 0.2357197403907776 0.00794166699051857 0.0 9.3758305257751 -36.011035499432325 -14.669103431878701 1.714011382456647 0.06129509211004108 0.0 -1.655557934437887 -1.8229624233641566 1.5874632040606897 0.7342838483997802 1.590343713760376 -1.536206070576803 0.0 0.0 -0.0 0.0 -0.0 0.0 0.6770957708358765 -3.6527280807495117 -1.559982180595398 0.19822880625724792 0.02148107811808586 0.06660282611846924 0.8160592317581177 -3.380319118499756 -1.2904436588287354 0.2357197403907776 0.00794166699051857 0.0 -0.10279407970982316 0.3513595200239033 0.515616516630957 -1.4523509781827342 1.6526722215342262 0.8839778897300609 0.0 0.0 0.0 0.0 0.0 0.0 -0.32619006986402677 16.248592243800818 -12.460159257871158 -0.2530377992260022 0.05718912422973584 0.03736128444417516 -0.10278710150234481 0.3513424808861916 0.5156561744136434 -1.4522890657483043 1.6525762737345815 0.8840404100869974 0.0 0.0 0.0 0.0 0.0 0.0 0 31.25 32.5 31.25 35.5 38.5 39.25 0.462109 7 253 253 253 253 253 253 1 -2.451662540435791 -0.4596867263317108 -9.672574996948242 0.0 1.0 0.0 47.718231201171875 47.749576568603516 0.6311131119728088 47.656593322753906 47.59926223754883 47.61359786987305 47.59926223754883 47.513267517089844 47.498931884765625 0 1
5039.008 -1.6555951277362269 -1.8230325184264125 1.5874293486224573 0.7342745500751953 1.59031081199646 -1.5362404028521937 0.0 0.0 0.0 0.0 0.0 0.0 0.0 0.0 0.0 0.0 0.0 0.0 0.8160417079925537 -3.3803391456604004 -1.2904452085494995 0.2357189655303955 0.007947429083287716 0.0 9.375629214740039 -36.011251260591415 -14.669121309215807 1.714005785821822 0.06133956483560672 0.0 -1.6556208769427698 -1.8230115375914515 1.587437931691305 0.7342838483997802 1.5903041362762451 -1.5362752119647425 0.0 0.0 -0.0 0.0 -0.0 0.0 0.7148011922836304 -3.6774189472198486 -1.5121681690216064 0.2170727550983429 0.032982535660266876 0.06103834509849548 0.8160417079925537 -3.3803391456604004 -1.2904452085494995 0.2357189655303955 0.007947429083287716 0.0 -0.10277843946485848 0.35135070790317985 0.5156445424513066 -1.4523194183417258 1.6525883439500866 0.8839884468335247 0.0 0.0 0.0 0.0 0.0 0.0 -0.7991151982871574 16.09119350412382 -12.770118787767949 -0.24331805930140216 0.050310645206577326 0.028937965877699624 -0.10278710150234481 0.3513424808861916 0.5156561744136434 -1.4522890657483043 1.6525762737345815 0.8840404100869974 0.0 0.0 0.0 0.0 0.0 0.0 0 31.25 32.5 31.5 35.5 38.25 39.25 0.459121 7 253 253 253 253 253 253 1 -2.3558945655822754 -0.4405331015586853 -9.59596061706543 0.0 1.0 0.0 47.66539001464844 47.67165756225586 0.6243991255760193 47.64226150512695 47.5275993347168 47.57059860229492 47.54193115234375 47.47026824951172 47.455936431884766 0 1
5039.108 -1.6555951277362269 -1.8230325184264125 1.5874293486224573 0.7342745500751953 1.59031081199646 -1.5362404028521937 0.0 0.0 0.0 0.0 0.0 0.0 0.0 0.0 0.0 0.0 0.0 0.0 0.8160831332206726 -3.38033127784729 -1.2904986143112183 0.23570403456687927 0.00794022623449564 0.0 9.376105481847292 -36.01116390255889 -14.669728397786608 1.7138971801395775 0.06128397451600853 0.0 -1.6555874983416956 -1.8230024776854457 1.5873883406268519 0.7342910009571533 1.5902503728866577 -1.5362136999713343 0.0 0.0 -0.0 0.0 -0.0 0.0 0.647878885269165 -3.6757993698120117 -1.5698386430740356 0.203864187002182 0.025117047131061554 0.056769005954265594 0.8160831332206726 -3.38033127784729 -1.2904986143112183 0.23570403456687927 0.00794022623449564 0.0 -0.10279671088716072 0.3513529956918655 0.5156630937365916 -1.4523231375324825 1.6525869045530623 0.8841116390830989 0.0 0.0 0.0 0.0 0.0 0.0 -0.5173782170206587 15.954288234091585 -12.77110129603283 -0.2442770594633169 0.055456637541609455 0.035139726337500246 -0.10278710150234481 0.3513424808861916 0.5156561744136434 -1.4522890657483043 1.6525762737345815 0.8840404100869974 0.0 0.0 0.0 0.0 0.0 0.0 0 31.25 32.5 31.25 35.5 38.25 39.25 0.462205 7 253 253 253 253 253 253 1 -2.3942017555236816 -0.4596867263317108 -9.787496566772461 0.0 1.0 0.0 47.69046401977539 47.69942092895508 0.5841153264045715 47.6279296875 47.584930419921875 47.5275993347168 47.55626678466797 47.498931884765625 47.427268981933594 0 1
5039.208 -1.6555951277362269 -1.8230325184264125 1.5874293486224573 0.7342745500751953 1.59031081199646 -1.5362404028521937 0.0 0.0 0.0 0.0 0.0 0.0 0.0 0.0 0.0 0.0 0.0 0.0 0.8160629868507385 -3.3801984786987305 -1.2904824018478394 0.2357105165719986 0.007942326366901398 0.0 9.375873308226506 -36.00975005665595 -14.669543985181276 1.7139443018674234 0.06130018029378402 0.0 -1.6555874983416956 -1.8229667148985804 1.5873850027667444 0.7342535692402343 1.590259075164795 -1.53625995317568 0.0 0.0 -0.0 0.0 -0.0 0.0 0.706897497177124 -3.63179612159729 -1.5565325021743774 0.23703435063362122 0.05232810229063034 0.046905770897865295 0.8160629868507385 -3.3801984786987305 -1.2904824018478394 0.2357105165719986 0.007942326366901398 0.0 -0.10279406535552049 0.3513712340337096 0.5156548752607182 -1.4523467047235377 1.6525451149315695 0.8840814691334423 0.0 0.0 0.0 0.0 0.0 0.0 -0.4843642544618436 16.20208487893641 -12.341113606177338 -0.25619492459124654 0.0551389127164814 0.03511841597107811 -0.10278710150234481 0.3513424808861916 0.5156561744136434 -1.4522890657483043 1.6525762737345815 0.8840404100869974 0.0 0.0 0.0 0.0 0.0 0.0 0 31.25 32.5 31.25 35.5 38.25 39.25 0.461341 7 253 253 253 253 253 253 1 -2.3558945655822754 -0.4596867263317108 -9.615114212036133 0.0 1.0 0.0 47.70121383666992 47.70121383666992 0.548307478427887 47.6279296875 47.584930419921875 47.55626678466797 47.59926223754883 47.513267517089844 47.455936431884766 0 1
5039.308 -1.6555951277362269 -1.8230325184264125 1.5874293486224573 0.7342745500751953 1.59031081199646 -1.5362404028521937 0.0 0.0 0.0 0.0 0.0 0.0 0.0 0.0 0.0 0.0 0.0 0.0 0.8160311579704285 -3.380368947982788 -1.2904220819473267 0.23571909964084625 0.007948243990540504 0.0 9.37550853486613 -36.01156764273728 -14.668859698972803 1.7140068329673623 0.061345858854771035 0.0 -1.6555874983416956 -1.8230253658690394 1.5874460379229944 0.7342654901691894 1.590364694595337 -1.536243740712301 0.0 0.0 -0.0 0.0 -0.0 0.0 0.6963064670562744 -3.6675565242767334 -1.5549858808517456 0.2318277359008789 0.055540792644023895 0.04864562675356865 0.8160311579704285 -3.380368947982788 -1.2904220819473267 0.23571909964084625 0.007948243990540504 0.0 -0.10278256400746036 0.3513438844147734 0.5156469393969845 -1.4522707022173797 1.6525901134175585 0.8839837371979232 0.0 0.0 0.0 0.0 0.0 0.0 -0.46551351327043755 16.287950665997588 -12.409086283811337 -0.25346509709367354 0.057373488713609935 0.03194986716823429 -0.10278710150234481 0.3513424808861916 0.5156561744136434 -1.4522890657483043 1.6525762737345815 0.8840404100869974 0.0 0.0 0.0 0.0 0.0 0.0 0 31.25 32.5 31.25 35.5 38.5 39.25 0.576205 7 253 253 253 253 253 253 1 -2.432508945465088 -0.4596867263317108 -9.634267807006836 0.0 1.0 0.0 47.70389938354492 47.7191276550293 0.5975432395935059 47.69959259033203 47.57059860229492 47.59926223754883 47.59926223754883 47.54193115234375 47.513267517089844 0 2
5039.407999999999 -1.6555954731754605 -1.8230296825346244 1.587431419240383 0.734173053240073 1.590206048608109 -1.536190663198635 -1.4099560554681272e-05 0.00011575068522996514 8.451501737364186e-05 -0.004142727964175865 -0.004276056667386111 0.002030189941181044 -0.00041734699241856516 0.0034262202828069664 0.0025016445142597944 -0.12262474773960547 -0.12657127735462909 0.060093622258958763 0.8147276043891907 -3.359281301498413 -1.2826101779937744 0.13961505889892578 -0.07572521269321442 0.0404406301677227 9.372631420429075 -35.984763646405966 -14.660768284769372 1.6844078478771012 0.03367458776802458 0.012742992950614184 -1.655574146901266 -1.8230191669859828 1.5874016920672815 0.7342535692402343 1.5902364253997803 -1.5361898581134241 0.0 0.0 -0.0 -0.00537870405241847 -0.005323302466422319 0.0020528656896203756 0.6454434394836426 -3.6795217990875244 -1.5377357006072998 0.10848833620548248 -0.08573722094297409 0.1395760476589203 0.8147276043891907 -3.359281301498413 -1.2826101779937744 0.13961505889892578 -0.07572521269321442 0.0404406301677227 -0.10280333357638094 0.3513507320459698 0.5156652850591485 -1.4523021176795046 1.6525672892118142 0.8841711316233533 -0.000626776521134212 0.0008708212056757937 0.00035011838573878365 0.005758390782511766 0.0038962771667732784 0.0037272320903529972 -0.689411634407332 16.072523662691236 -12.437423021106639 -0.2522952574985337 0.04870047231889903 0.028784702518586676 -0.10279929021512214 0.35135988221593856 0.5156608803226703 -1.452264016096311 1.652528845664314 0.8842262828849092 -0.0004975021712930674 0.0007102205085063251 0.00019212126930324224 0.004284262760713496 0.003493575591035362 0.0027964286709658685 0 31.25 32.5 31.25 35.5 38.5 39.25 0.664992 7 253 253 253 253 253 253 1 -2.432508945465088 -0.363918662071228 -9.691728591918945 1.0 1.0 0.0016138186842692601 47.663597106933594 47.67255401611328 0.5236895680427551 47.61359786987305 47.54193115234375 47.55626678466797 47.54193115234375 47.48460006713867 47.44160079956055 0 2
5039.508 -1.6556007681359413 -1.8229862134278028 1.5874631580789993 0.7326172897985876 1.5886002147965803 -1.5354282440108253 -0.00011394746897252623 0.0009354545173686981 0.0006830193240808609 -0.03348000558803353 -0.03455751918948776 0.016407249320565177 -0.0016978172876906433 0.013938272308793584 0.010176987928804821 -0.49885208326169717 -0.5149070359233634 0.2444680148764207 0.8063194155693054 -3.218059539794922 -1.229041576385498 -0.016049275174736977 -0.2089950293302536 0.20557206869125366 9.36388944973559 -35.90818969747551 -14.634239072953472 1.5924387750808484 -0.052283431659560384 0.051839655864240095 -1.655574146901266 -1.8230420551695765 1.5874312559710901 0.7326115804859619 1.5886441469192505 -1.5354507605182093 0.0 0.0 -0.0 -0.032862838357686996 -0.03421991690993309 0.015146232210099697 0.6454071402549744 -3.353954315185547 -1.439741849899292 0.007162857335060835 -0.18374724686145782 0.19779446721076965 0.8063194155693054 -3.218059539794922 -1.229041576385498 -0.016049275174736977 -0.2089950293302536 0.20557206869125366 -0.10299127116417407 0.3516061363690257 0.5157670816927503 -1.4518301668511364 1.6517058607930886 0.8870953138195574 -0.004050004366416225 0.005332956339366758 0.002148510143310116 0.03546351122689107 0.02685192451332432 0.02306364110361281 -0.9164238582933508 15.920071840333328 -12.989465483450482 -0.26036488020797954 -0.04946195510275291 0.06389654218598562 -0.1029861437432329 0.35162638091035964 0.5157332789696741 -1.451880879948972 1.6518000818778662 0.8870745266342768 -0.004021538784480532 0.005730349880384293 0.0015633766078590994 0.034594785103497436 0.02820304678564139 0.02264519088915953 0 31.25 32.5 31.25 35.5 38.25 39.25 0.657145 7 253 253 253 253 253 253 1 -2.5474305152893066 -0.4405331015586853 -9.519346237182617 1.0 1.0 0.013305639110319388 47.6761360168457 47.700321197509766 0.5527834892272949 47.6279296875 47.57059860229492 47.584930419921875 47.57059860229492 47.48460006713867 47.48460006713867 0 2
5039.608 -1.655623874869848 -1.8227965181339112 1.5876016635317065 0.7258280773017869 1.5815924996836666 -1.5321011148730364 -0.0003858675653842366 0.0031677891610894554 0.0023129518020010976 -0.11337547346856813 -0.11702432634621995 0.05556091247191391 -0.0038415259842697357 0.03153710098151275 0.02302672016214432 -1.1287158247537536 -1.1650421822912636 0.5531397508314988 0.7842678427696228 -3.048815965652466 -1.1040012836456299 -0.05821387097239494 -0.2536531686782837 0.22425507009029388 9.351382318541464 -35.78482522215764 -14.598176516226903 1.4328659794403884 -0.1992454571217249 0.11729026397261039 -1.655562702809469 -1.8229276142516078 1.5874822775470179 0.7258083063312988 1.581581711769104 -1.5321505705462855 0.0 0.0034605495166033506 0.0007851265254430473 -0.1117822602391243 -0.11365200579166412 0.05525325611233711 0.591952919960022 -2.977773427963257 -1.0502036809921265 -0.021795155480504036 -0.2343204766511917 0.30404600501060486 0.7842678427696228 -3.048815965652466 -1.1040012836456299 -0.05821387097239494 -0.2536531686782837 0.22425507009029388 -0.10382816585004696 0.3527416879784972 0.5161548681330268 -1.450151221575866 1.6483026474710365 0.8996716050559779 -0.013334589440471367 0.01913711237676266 0.005936338543873729 0.11620070911763467 0.09320427668113233 0.07493094603781326 -0.791310719736229 15.641551907419998 -13.31483446290329 -0.2639185473172497 -0.04078859638631825 0.05898805340896186 -0.10380204179904157 0.3527842257657878 0.5160550232054895 -1.4502272150726914 1.6485808143954335 0.89948521359363 -0.013631448377409516 0.019265186076837647 0.005451328686923278 0.11672082292018104 0.0950472658599599 0.07735585599850094 0 31.25 32.5 31.25 35.5 38.5 39.25 0.661441 7 253 253 253 253 253 253 1 -2.6240451335906982 -0.363918662071228 -9.442731857299805 1.0 1.0 0.045298784169947696 47.6976318359375 47.71464920043945 0.5953052639961243 47.64226150512695 47.57059860229492 47.59926223754883 47.57059860229492 47.48460006713867 47.455936431884766 0 2
5039.708 -1.6556862880133743 -1.8222841359144466 1.5879757778800923 0.7074898692410192 1.562664098513169 -1.5231142719361594 -0.0009161836899205135 0.007521432281065488 0.005491751333013789 -0.26919277220277454 -0.27785641691749746 0.13192091372898865 -0.00684847308215548 0.05622270630096159 0.04105084121427569 -2.0122159722156527 -2.0769767164581787 0.9861088301241216 0.7420233488082886 -2.7415077686309814 -0.8710626363754272 -0.13002465665340424 -0.33338800072669983 0.2562677562236786 9.33671562902172 -35.64123080923923 -14.555564717976177 1.1992207816372216 -0.4117694852849282 0.20908208198582617 -1.655623737965719 -1.8223377666869105 1.5878904501544397 0.7076112466999511 1.5626983642578125 -1.5232232252704065 -0.0004667157190851867 0.01073390617966652 0.007056138478219509 -0.2653736472129822 -0.2745039463043213 0.13242030143737793 0.3993789851665497 -2.7332708835601807 -0.6358444690704346 -0.11225327104330063 -0.27680331468582153 0.28494223952293396 0.7420233488082886 -2.7415077686309814 -0.8710626363754272 -0.13002465665340424 -0.33338800072669983 0.2562677562236786 -0.10602998620610958 0.3558303387144095 0.5170189625093421 -1.4460100474041317 1.639432846805811 0.9328049651096095 -0.03212420175593076 0.045226200807923334 0.011840366486816328 0.265707067095995 0.22230127074354866 0.1851665028111119 -0.734944558590134 15.693288054506308 -12.851713931706149 -0.28102058519601947 -0.05783537005536485 0.045924018171327664 -0.10600955895120405 0.35586924326276836 0.51697044325745 -1.4459112693807177 1.6395691062000413 0.9328522147874566 -0.03244220281809836 0.04482490324184166 0.013925964316627536 0.27437325491453435 0.22265500065451838 0.1879503914932233 0 31.25 32.5 31.25 35.5 38.5 39.25 0.691141 7 253 253 253 253 253 253 1 -2.7006595134735107 -0.1149216815829277 -9.404424667358398 1.0 1.0 0.10750480581184135 47.68688201904297 47.69136047363281 0.6243991255760193 47.670928955078125 47.55626678466797 47.57059860229492 47.55626678466797 47.513267517089844 47.455936431884766 0 2
5039.808 -1.6558009260730673 -1.8213430119757605 1.588662936715228 0.6738069545282097 1.5278971398134418 -1.506607584740924 -0.0013765775039509221 0.011301046492656185 0.008251425369704135 -0.404465522053415 -0.4174827570770439 0.19821283017571661 -0.004603938140304098 0.03779614211590725 0.027596740366903592 -1.3527274985064008 -1.39626340159546 0.6629191644672849 0.710568904876709 -2.5868377685546875 -0.6769565343856812 -0.14972029626369476 -0.3638731837272644 0.26582789421081543 9.36490388359145 -35.855702866573886 -14.638897013372965 1.3149861027297538 -0.28809898555376023 0.1405255185898174 -1.6557014624225062 -1.821270605126852 1.5887139479266565 0.6740395265766601 1.5279604196548462 -1.5065210501300257 -0.002232307568192482 0.012629329226911068 0.009596554562449455 -0.4028211832046509 -0.4148796796798706 0.1933915615081787 0.34039750695228577 -2.8754043579101562 -0.6749812364578247 -0.12393329292535782 -0.2759511172771454 0.3188827335834503 0.710568904876709 -2.5868377685546875 -0.6769565343856812 -0.14972029626369476 -0.3638731837272644 0.26582789421081543 -0.11010467896078503 0.36134679450418705 0.5187548085434894 -1.4387889272679377 1.622131178331743 0.9933603062291317 -0.04825550274797039 0.06495371860713448 0.022257789714253188 0.4000285561544046 0.320789703638898 0.29278029083066204 -0.9530507347145882 15.709264961834993 -12.733661632855643 -0.30163861004320836 -0.07144476776842087 0.04322762084113853 -0.11007631113484583 0.36136893676384274 0.5188210240925276 -1.4385723856983827 1.62182325294256 0.993528688154655 -0.04891337209277123 0.06470797579471772 0.023487223501826682 0.40459047083712524 0.325750596545623 0.2940674056735777 0 31.25 32.5 31.25 35.5 38.5 39.25 0.689677 7 253 253 253 253 253 253 1 -3.00711727142334 0.15322890877723694 -9.346963882446289 1.0 1.0 0.16142915090780985 47.711063385009766 47.71554183959961 0.6624449491500854 47.64226150512695 47.59926223754883 47.59926223754883 47.61359786987305 47.48460006713867 47.455936431884766 0 2
5039.907999999999 -1.6559616035141644 -1.8200239266159155 1.589626062954033 0.6265967648303361 1.47916754709776 -1.4834717059010156 -0.0018369713179813311 0.015080660704246884 0.01101109940639448 -0.5397382719040555 -0.5571090972365904 0.2645047466224446 -0.004603938140304098 0.03779614211590725 0.027596740366903592 -1.3527274985064563 -1.3962634015954878 0.6629191644672849 0.6789011359214783 -2.5945892333984375 -0.5506643056869507 -0.19173265993595123 -0.40856531262397766 0.28369906544685364 9.382313213432079 -35.959169892830616 -14.69316460403847 1.253417867205769 -0.32174358959153054 0.1404881498198225 -1.6559684912311 -1.8199573955931605 1.5897019545184534 0.6268560129353027 1.479549527168274 -1.4837005774127405 -0.002273354446515441 0.013823284767568111 0.011281145736575127 -0.5388131141662598 -0.5604647397994995 0.26598796248435974 0.35727283358573914 -2.854762554168701 -0.7914942502975464 -0.1298617720603943 -0.3354795277118683 0.3062518239021301 0.6789011359214783 -2.5945892333984375 -0.5506643056869507 -0.19173265993595123 -0.40856531262397766 0.28369906544685364 -0.11574388132438206 0.36867936465645956 0.5216749030861111 -1.429742755935985 1.594612720080526 1.0764572370176753 -0.06578580146887694 0.08061592717271203 0.03591714622236108 0.5257610205157881 0.41973974977181017 0.415645158676245 -1.2738172082915389 15.312942287489514 -12.945685764626642 -0.295549334237993 -0.10024803159284988 0.006795417896692212 -0.11579498185392546 0.3686952994090249 0.5217564650538189 -1.4296239536718056 1.5943832427822506 1.0771660085353096 -0.06546230549718812 0.08111715106536094 0.03568839702068554 0.5254972670231383 0.4169265661838922 0.41375194679760746 0 31.25 32.5 31.25 35.5 38.25 39.25 0.686449 7 253 253 253 253 253 253 1 -3.485957622528076 0.6703764796257019 -8.96389102935791 1.0 1.0 0.21329799310379124 47.68061447143555 47.6761360168457 0.6221611499786377 47.64226150512695 47.55626678466797 47.55626678466797 47.54193115234375 47.44160079956055 47.38426971435547 0 2
5040.008 -1.656168320336664 -1.8183268798349115 1.590865156596507 0.5658593001473985 1.4164753203661236 -1.4537066354164345 -0.00229736513201174 0.018860274915837583 0.013770773443084828 -0.675011021754696 -0.6967354373961369 0.33079666306917255 -0.004603938140304098 0.03779614211590725 0.027596740366903592 -1.3527274985064008 -1.3962634015954323 0.6629191644672849 0.6477147340774536 -2.605720281600952 -0.5539849996566772 -0.23346419632434845 -0.4417262077331543 0.3015688955783844 9.40548154988367 -36.10022586948453 -14.767327208048643 1.170967159444928 -0.3633806158447058 0.14044055661535526 -1.6561277548419397 -1.8182641468443812 1.5908997694598597 0.5662237840839843 1.4168862104415894 -1.4539569059955042 -0.0031420753803104162 0.01930856518447399 0.012437594123184681 -0.6746649146080017 -0.6971621513366699 0.3332059979438782 0.3676517903804779 -2.9215188026428223 -0.6909338235855103 -0.16247817873954773 -0.3831615149974823 0.34250321984291077 0.6477147340774536 -2.605720281600952 -0.5539849996566772 -0.23346419632434845 -0.4417262077331543 0.3015688955783844 -0.1231292682260154 0.37739483658480955 0.5259765752531852 -1.4207115400053454 1.55503678509115 1.1814286238498697 -0.08162423553856477 0.09284172880676304 0.05101187512675146 0.6344034169772749 0.49263887703729475 0.5489991664398917 -1.5833806823055456 16.06334442699781 -12.057185105007557 -0.30753865107783457 -0.1354101194562582 -0.01481306677302531 -0.12316524660447707 0.3774250028729593 0.5260505340461515 -1.4205395172895916 1.5547606857631942 1.1821610273164542 -0.08189890365264764 0.09250034003895329 0.05061971560454553 0.6338986741839431 0.4899901305510497 0.5504922735075088 0 31.25 32.5 31.25 35.5 38.25 39.25 0.698257 7 253 253 253 253 253 253 1 -3.869029998779297 1.091755986213684 -8.868123054504395 1.0 1.0 0.2629947572370739 47.69584274291992 47.69046401977539 0.64006507396698 47.64226150512695 47.55626678466797 47.55626678466797 47.513267517089844 47.455936431884766 47.39860534667969 0 2
5040.108 -1.6564210765405667 -1.8162518716327476 1.59238021764265 0.49159456047939687 1.3398204596185326 -1.4173123732871815 -0.0027577589460421486 0.02263988912742828 0.01653044747977517 -0.8102837716053364 -0.8363617775556833 0.3970885795159005 -0.004603938140304098 0.03779614211590725 0.027596740366902725 -1.3527274985064008 -1.3962634015954878 0.6629191644672849 0.6170206665992737 -2.619751453399658 -0.5587899088859558 -0.2782648503780365 -0.4734606444835663 0.3194376230239868 9.434148216534767 -36.27445365772155 -14.858764407009122 1.0662169281760527 -0.41044983601805063 0.14038387659841495 -1.6564067045794886 -1.8162461719908656 1.5924299399005335 0.4918829637714843 1.3401511907577515 -1.4175995031939905 -0.0027550875674933195 0.022531162947416306 0.016439707949757576 -0.8066935539245605 -0.8370895981788635 0.39809343218803406 0.29949644207954407 -2.928234577178955 -0.7595828175544739 -0.21498480439186096 -0.37243056297302246 0.35371649265289307 0.6170206665992737 -2.619751453399658 -0.5587899088859558 -0.2782648503780365 -0.4734606444835663 0.3194376230239868 -0.1321242395178867 0.38693844276869926 0.5318947135800345 -1.4135229055333027 1.5000568676211279 1.3055500195789898 -0.09797318477917738 0.09672062663729612 0.0673475444207065 0.7232775309614156 0.5386287675624792 0.7066265080422909 -2.993964037720236 17.468360556372236 -10.068638276688004 -0.29926341627292796 -0.16649298648090555 -0.036493229171725816 -0.13215838191392015 0.3869715316155786 0.5319507446281273 -1.413391260957957 1.499892806406992 1.3061639089664863 -0.09783547430127519 0.09717090219538374 0.06762931856692993 0.7266491026352946 0.5369326145079953 0.7064172646104261 0 31.25 32.5 31.25 35.5 38.5 39.25 0.690745 7 253 253 253 253 253 253 1 -4.156333923339844 1.6855180263519287 -9.02135181427002 1.0 1.0 0.30975634235610283 47.67882537841797 47.68151092529297 0.7161567211151123 47.670928955078125 47.584930419921875 47.54193115234375 47.55626678466797 47.44160079956055 47.39860534667969 0 2
5040.208 -1.6567198721258727 -1.8137989020094256 1.594171246092462 0.40380254582633107 1.249202964854987 -1.3742889195132548 -0.0032181527600725576 0.026419503339018977 0.01929012151646552 -0.9455565214559769 -0.9759881177152298 0.4633804959626285 -0.004603938140304098 0.03779614211590725 0.02759674036690446 -1.3527274985064008 -1.3962634015954878 0.6629191644672849 0.5866328477859497 -2.636808395385742 -0.5646395683288574 -0.3260674774646759 -0.507366955280304 0.3373054265975952 9.46660188582309 -36.48311732289049 -14.962440325411489 0.9396538454572859 -0.4590794748297018 0.140320153396646 -1.6566780249225062 -1.8138214550414027 1.5941985289203089 0.40419964372601314 1.2495908737182617 -1.3742993513690394 -0.0036063124425709248 0.027167268097400665 0.01897149533033371 -0.9447837471961975 -0.973763644695282 0.457789808511734 0.33195653557777405 -2.9285356998443604 -0.8035728335380554 -0.2937602996826172 -0.4758325219154358 0.39401012659072876 0.5866328477859497 -2.636808395385742 -0.5646395683288574 -0.3260674774646759 -0.507366955280304 0.3373054265975952 -0.14266649396130543 0.3965305349889458 0.539545285793934 -1.4109252640770713 1.4267871370490925 1.445370744533465 -0.11218506919795374 0.09394385151147797 0.08487034571877032 0.80110052865894 0.5424742663865829 0.8795334826655768 -3.6081013389193917 16.978749303001937 -11.288259279050742 -0.40407674384055875 -0.2250100128157872 -0.08099235417211414 -0.14269449423969952 0.3965818323243937 0.5395936460646829 -1.4109586393853217 1.4262747963265725 1.445837446730323 -0.11262593987085447 0.09353678706589762 0.08512009851595331 0.8008209880183346 0.5476962041722533 0.8813904642042779 0 31.25 32.5 31.25 35.5 38.5 39.25 0.702889 7 253 253 253 253 253 253 1 -4.730942726135254 3.2369606494903564 -8.14028549194336 1.0 1.0 0.35270583860025884 47.72180938720703 47.71375274658203 0.7295846939086914 47.6279296875 47.57059860229492 47.57059860229492 47.54193115234375 47.455936431884766 47.38426971435547 0 2
5040.308 -1.6570591800648433 -1.8110133452335537 1.5962051120591327 0.30410720555015813 1.146299050289102 -1.325432108551599 -0.0034529536052280633 0.02834710658693021 0.02069755527517758 -1.0145456238798027 -1.0471975511965976 0.4971893733504594 0.0 0.0 0.0 0.0 0.0 0.0 0.5747203230857849 -2.6766977310180664 -0.577403724193573 -0.318844199180603 -0.4886314570903778 0.32883670926094055 9.528735169485815 -36.94290650025546 -15.129639531886806 1.1070274512188023 -0.20385869822926192 -0.00018511323996255876 -1.657065216694967 -1.8110352955260218 1.5962632338153284 0.3046112495609741 1.1468065977096558 -1.3257916609393519 -0.0030139731243252754 0.026912355795502663 0.020188143476843834 -1.0136420726776123 -1.049911379814148 0.5008150339126587 0.3097256124019623 -2.932342052459717 -0.8649656772613525 -0.2310493439435959 -0.4158593714237213 0.3842759132385254 0.5747203230857849 -2.6766977310180664 -0.577403724193573 -0.318844199180603 -0.4886314570903778 0.32883670926094055 -0.15436560827576615 0.40520114501159893 0.5486749569997863 -1.4166901120978868 1.3322572827730965 1.5934039277012935 -0.11826546231391584 0.07526492906917917 0.09498069754340342 0.8026552454428952 0.4849827487467004 1.0077118904305373 -5.966416826220284 16.970669932190518 -7.884761303219065 -0.34150713471268795 -0.24874019908918926 -0.07812985120765452 -0.15442526820674865 0.40524311903436633 0.548752284145924 -1.4166550998906993 1.3317941133416826 1.5942156026285108 -0.11768286683600115 0.07596006098357633 0.0942619108041873 0.8025282873254045 0.4808112036533129 1.0051789517035483 0 31.25 32.5 31.25 35.5 38.5 39.25 0.693997 7 253 253 253 253 253 253 1 -4.884171485900879 3.869029998779297 -7.603984832763672 1.0 1.0 0.36754000169975837 47.66807556152344 47.69046401977539 0.7206327319145203 47.64226150512695 47.54193115234375 47.55626678466797 47.5275993347168 47.44160079956055 47.38426971435547 0 2
5040.407999999999 -1.6574044754253663 -1.808178634574861 1.5982748675866505 0.2026526431621778 1.0415792951694423 -1.2757131712165526 -0.0034529536052280633 0.02834710658693021 0.02069755527517758 -1.0145456238798027 -1.0471975511965976 0.4971893733504594 0.0 0.0 0.0 0.0 0.0 0.0 0.5771345496177673 -2.6944220066070557 -0.5853243470191956 -0.34018245339393616 -0.49281150102615356 0.32883796095848083 9.55704255254339 -37.14377779064651 -15.221737464968273 0.9518532269815135 -0.23641508057124996 -0.00017540067380745114 -1.6573498884784144 -1.8081661663451136 1.598302189503805 0.20324818670239253 1.042104959487915 -1.2759478727923792 -0.0032565516885370016 0.028909487649798393 0.01902683451771736 -1.0183829069137573 -1.048215627670288 0.4938317835330963 0.24644608795642853 -3.0713982582092285 -0.7702014446258545 -0.31489160656929016 -0.49870848655700684 0.3827846348285675 0.5771345496177673 -2.6944220066070557 -0.5853243470191956 -0.34018245339393616 -0.49281150102615356 0.32883796095848083 -0.16593841579522361 0.4115907056026074 0.558037811793089 -1.4322625979333583 1.2253484203686655 1.7319232766714605 -0.113223703021421 0.0525307284556487 0.09341298344607134 0.7528432804904425 0.35901573001130543 1.0537590626482864 -5.607132035343375 17.138110647606403 -7.978431586801524 -0.36999929302117135 -0.30082137338663284 -0.17932050274600184 -0.16597364709045015 0.4116241457013852 0.5581231656133662 -1.4322501235679355 1.2246364064242852 1.732584033197556 -0.11304443672644071 0.05186660925287298 0.09235837230963871 0.7461935039699941 0.3616426068235481 1.0528021179394873 0 31.25 32.5 31.25 35.5 38.5 39.25 0.701293 7 253 253 253 253 253 253 1 -5.171475410461426 4.577713489532471 -6.742072105407715 1.0 1.0 0.35528884489865126 47.651058197021484 47.65285110473633 0.7004908323287964 47.584930419921875 47.513267517089844 47.5275993347168 47.47026824951172 47.427268981933594 47.32693862915039 0 2
5040.508 -1.6577497707858893 -1.8053439239161682 1.6003446231141683 0.10119808077419745 0.9368595400497823 -1.225994233881507 -0.0034529536052280633 0.02834710658693021 0.02069755527517758 -1.0145456238798027 -1.0471975511965976 0.4971893733504594 0.0 0.0 0.0 0.0 0.0 0.0 0.579343318939209 -2.7117128372192383 -0.5932008624076843 -0.3613147437572479 -0.4950771927833557 0.32883942127227783 9.582877723115491 -37.33960055455251 -15.313513939526812 0.7981310378417986 -0.254212508864783 -0.00016373091799843845 -1.6577523390399378 -1.8053127727904261 1.6003759543048304 0.10186974584545894 0.9374608993530273 -1.2261765638934534 -0.004726131912320852 0.02810276299715042 0.019261358305811882 -1.0142850875854492 -1.0464305877685547 0.49766796827316284 0.3620527386665344 -3.0460004806518555 -0.8242236375808716 -0.3983123004436493 -0.4842436909675598 0.3665637671947479 0.579343318939209 -2.7117128372192383 -0.5932008624076843 -0.3613147437572479 -0.4950771927833557 0.32883942127227783 -0.17692170083304262 0.4156681534542148 0.5669716189493358 -1.4580520112150324 1.1084523159426123 1.8559628349182746 -0.1063978595172441 0.029786255552393972 0.08672471222994092 0.6934020209542996 0.23499058948644108 1.0833502997319786 -6.3000278469405275 16.88394456058527 -6.648190186382643 -0.370922315335946 -0.355814093761218 -0.2449955976805189 -0.17698609609140012 0.4156733825020659 0.5670715480064727 -1.4581778452322223 1.107454321018217 1.856603294138171 -0.10696496104862925 0.029478061005632966 0.08588869507441721 0.691909083128718 0.23368329196330356 1.085542609613047 0 31.25 32.5 31.25 35.5 38.5 39.25 0.698149 7 253 253 253 253 253 253 1 -5.612009048461914 5.382165431976318 -5.746084213256836 1.0 1.0 0.34254212056883593 47.668968200683594 47.67344665527344 0.7967243194580078 47.584930419921875 47.513267517089844 47.54193115234375 47.369937896728516 47.39860534667969 47.31260681152344 0 2
5040.608 -1.6580950661464122 -1.8025092132574745 1.602414378641686 -0.0002564816137828885 0.8321397849301224 -1.1762752965464607 -0.0034529536052280633 0.02834710658693021 0.02069755527517758 -1.0145456238798027 -1.0471975511965976 0.4971893733504594 0.0 0.0 0.0 0.0 0.0 0.0 0.5812312364578247 -2.7283573150634766 -0.6008496284484863 -0.3820107579231262 -0.4976719915866852 0.3288411498069763 9.60490879678056 -37.52844844667786 -15.402618443028109 0.6475506951627802 -0.2565375890648541 -0.00015024776526643263 -1.6580293814288538 -1.802516599694723 1.6024468580829065 0.00021760045971674913 0.8325917720794678 -1.1767156759845179 -0.0035843532532453537 0.0272833239287138 0.020458996295928955 -1.0156828165054321 -1.047018051147461 0.4995788633823395 0.3205709159374237 -3.0423569679260254 -0.8819010257720947 -0.3425601124763489 -0.43953022360801697 0.38015273213386536 0.5812312364578247 -2.7283573150634766 -0.6008496284484863 -0.3820107579231262 -0.4976719915866852 0.3288411498069763 -0.18730299067701534 0.4175885297811691 0.5751076125605654 -1.4946583260096782 0.9819424683050109 1.9640465086603387 -0.09945392433926314 0.009429792996151772 0.07613207218860872 0.6415177738675992 0.1014400564076331 1.1018277564273653 -8.349886194285995 15.143440412830873 -7.065978054905022 -0.3884613557891199 -0.3918855952611931 -0.24247429480594027 -0.18731909778869335 0.4176056069492761 0.5751668194465741 -1.4947032937305709 0.9815333730855486 1.964599242804415 -0.0994600441352235 0.009660478648050141 0.07540180898803048 0.6403282651047805 0.09903008406111907 1.1018251311302167 0 31.25 32.5 31.25 35.5 38.25 39.25 0.706105 7 253 253 253 253 253 253 1 -5.861005783081055 5.822698593139648 -4.577713489532471 1.0 1.0 0.3294180693377178 47.67882537841797 47.668968200683594 0.7072047591209412 47.59926223754883 47.54193115234375 47.55626678466797 47.48460006713867 47.455936431884766 47.35560607910156 0 2
5040.708 -1.6584403615069343 -1.7996745025987817 1.6044841341692038 -0.101711044001763 0.7274200298104625 -1.1265563592114152 -0.0034529536052280633 0.02834710658693021 0.02069755527517758 -1.0145456238798027 -1.0471975511965976 0.4971893733504594 0.0 0.0 0.0 0.0 0.0 0.0 0.5827482342720032 -2.744394302368164 -0.6080902814865112 -0.4020242393016815 -0.495954304933548 0.32884305715560913 9.622546808558882 -37.71075445110707 -15.486941737142391 0.5018999096868113 -0.24356732784695193 -0.0001351261089962103 -1.6584504286395472 -1.799633642236227 1.6045215765582483 -0.10118480146441655 0.7279663681983948 -1.1265786329852503 -0.0031326604075729847 0.02844022773206234 0.02107139304280281 -1.0153858661651611 -1.048672080039978 0.4928739070892334 0.30355605483055115 -3.1641011238098145 -0.9101775884628296 -0.4346012771129608 -0.48696696758270264 0.40852826833724976 0.5827482342720032 -2.744394302368164 -0.6080902814865112 -0.4020242393016815 -0.495954304933548 0.32884305715560913 -0.1967775628583637 0.41774535717158046 0.5819635558470679 -1.5415975666671704 0.8494434985841857 2.054611849377543 -0.09088285902323039 -0.006861080701410569 0.06151683991832777 0.595668547542167 -0.04254961895900572 1.101394223134123 -8.800632033588744 14.855161174074986 -5.614866343240071 -0.3255891748153246 -0.409724560680358 -0.3050136416567145 -0.19683188378238498 0.41771574565909597 0.582041478171655 -1.5418634405726914 0.8483844596781998 2.0548794328732365 -0.09056934352289593 -0.0068545551728083284 0.06160627276358855 0.592093572354849 -0.03992669809183985 1.100438596206065 0 31.25 32.5 31.25 35.5 38.25 39.25 0.699205 7 253 253 253 253 253 253 1 -6.378153324127197 6.129156112670898 -3.734954595565796 1.0 1.0 0.3160450908089071 47.6976318359375 47.7191276550293 0.7653924822807312 47.6279296875 47.57059860229492 47.55626678466797 47.57059860229492 47.427268981933594 47.34127426147461 0 2
5040.808 -1.6587856568674573 -1.796839791940089 1.6065538896967215 -0.203165606389744 0.6227002746908026 -1.0768374218763688 -0.0034529536052280633 0.02834710658693021 0.02069755527517758 -1.0145456238798027 -1.0471975511965976 0.4971893733504594 0.0 0.0 0.0 0.0 0.0 0.0 0.5837903022766113 -2.760037899017334 -0.6150206327438354 -0.42127636075019836 -0.49235400557518005 0.32884517312049866 9.634969711002842 -37.88860205396112 -15.56766576327193 0.36179105633712033 -0.2160540306526524 -0.00011850022338481301 -1.6588118712054651 -1.7968465290465296 1.6065309683429163 -0.20262940347705083 0.6231836676597595 -1.0772536436664026 -0.004387182183563709 0.028006548061966896 0.01986934430897236 -1.0119658708572388 -1.0453933477401733 0.5019185543060303 0.43088433146476746 -3.2616498470306396 -0.730734646320343 -0.48046284914016724 -0.5032631158828735 0.39045608043670654 0.5837903022766113 -2.760037899017334 -0.6150206327438354 -0.42127636075019836 -0.49235400557518005 0.32884517312049866 -0.20534031829839552 0.4163769522034104 0.5873813785993492 -1.5991475994672555 0.7103295054949317 2.1253558464931657 -0.07989391364271192 -0.019400818286693617 0.045758762490454685 0.5430510790961622 -0.17621712103387532 1.0791664581760758 -9.02208504381807 14.38337363804764 -5.522877487857975 -0.298509823242135 -0.44841852217761385 -0.3747846160933939 -0.20538891417766703 0.41636392724259486 0.5874055799855701 -1.5994239439153728 0.709765293845239 2.1257847653093775 -0.0803579474772466 -0.019498861595482104 0.045338995268512094 0.547826356524473 -0.18057211121692296 1.0805895329113782 0 31.25 32.5 31.25 35.5 38.25 39.25 0.706345 7 253 253 253 253 253 253 1 -6.378153324127197 6.742072105407715 -2.7964274883270264 1.0 1.0 0.30256688395119596 47.65911865234375 47.658226013183594 0.7721064686775208 47.584930419921875 47.513267517089844 47.498931884765625 47.47026824951172 47.41293716430664 47.32693862915039 0 2
5040.907999999999 -1.6591309522279802 -1.7940050812813961 1.6086236452242393 -0.30462016877772413 0.5179805195711429 -1.0271184845413224 -0.0034529536052280633 0.02834710658693021 0.02069755527517758 -1.0145456238798027 -1.0471975511965976 0.4971893733504594 0.0 0.0 0.0 0.0 0.0 0.0 0.584536612033844 -2.7751853466033936 -0.6214861869812012 -0.43968838453292847 -0.487066388130188 0.3288474380970001 9.6438149613971 -38.06036273168946 -15.643146003492692 0.22780340522386033 -0.1754848000617008 -0.00010057259284836866 -1.6591466108905237 -1.7940126858153285 1.6085675398456019 -0.30405600488696294 0.5185033679008484 -1.0273073355304163 -0.003537483047693968 0.029195884242653847 0.020543722435832024 -1.0125138759613037 -1.0450060367584229 0.49323341250419617 0.41158196330070496 -3.142270088195801 -0.7691340446472168 -0.4173862636089325 -0.4469251036643982 0.379798024892807 0.584536612033844 -2.7751853466033936 -0.6214861869812012 -0.43968838453292847 -0.487066388130188 0.3288474380970001 -0.21282090583753377 0.4139744766088134 0.5910578290864141 -1.6664777450275434 0.5684975002691939 2.175594408572189 -0.06876059408333073 -0.027386969111998376 0.027268992913207016 0.5089518672952396 -0.3201913172491525 1.0392392603596625 -10.935767157400083 12.192088064913662 -6.021026591063096 -0.25423028755566257 -0.4468546786408978 -0.3793577113026212 -0.21286246168010176 0.4139579784702949 0.5910577895053276 -1.666836752906101 0.5676919862879294 2.175757852910681 -0.0689170762680334 -0.027889704572208126 0.0275288237506005 0.5081159494996358 -0.32014499778739036 1.0419413844556586 0 31.25 32.5 31.25 35.5 38.25 39.25 0.694333 7 253 253 253 253 253 253 1 -6.224924564361572 6.493074893951416 -2.2601263523101807 1.0 1.0 0.2891571189183186 47.66001510620117 47.65553665161133 0.7228707075119019 47.57059860229492 47.5275993347168 47.513267517089844 47.455936431884766 47.427268981933594 47.31260681152344 0 2
5041.008 -1.6594762475885032 -1.7911703706227033 1.610693400751757 -0.40607473116570425 0.41326076445148296 -0.9773995472062769 -0.0034529536052280633 0.02834710658693021 0.02069755527517758 -1.0145456238798027 -1.0471975511965976 0.4971893733504594 0.0 0.0 0.0 0.0 0.0 0.0 0.5848609805107117 -2.789752721786499 -0.6275585889816284 -0.45732182264328003 -0.4803236126899719 0.3288498520851135 9.647676131176192 -38.22595846284391 -15.713786710089268 0.09948533909217731 -0.12363739910577937 -8.155906148918647e-05 -1.6594799200641077 -1.7911025486388148 1.6106484572040003 -0.4055265945247193 0.41387057304382324 -0.9777305761920374 -0.0032735499553382397 0.026491794735193253 0.021609563380479813 -1.0169293880462646 -1.0497989654541016 0.500196099281311 0.38157063722610474 -3.123548984527588 -0.8051389455795288 -0.4612311124801636 -0.41333574056625366 0.36661356687545776 0.5848609805107117 -2.789752721786499 -0.6275585889816284 -0.45732182264328003 -0.4803236126899719 0.3288498520851135 -0.21909672844120492 0.41099179125374646 0.5928744058559186 -1.7427284348886247 0.42524364436318374 2.203303479996683 -0.05673002044631185 -0.032773671023877314 0.0096076177107506 0.47422542393317413 -0.4555332291929057 0.9880524475753671 -10.8094596990598 11.664318628257464 -5.939793143452047 -0.19765952445950913 -0.45200271329211517 -0.44129147004583397 -0.21913522905608734 0.41093409876277287 0.5928925951411503 -1.7432031583658887 0.42443599273517485 2.203427671870903 -0.05636403896942444 -0.03184406395608471 0.00915649349964719 0.47350869985021343 -0.455823021598496 0.9846380513090746 0 31.25 32.5 31.25 35.5 38.25 39.25 0.705697 7 253 253 253 253 253 253 1 -6.799532890319824 6.301538944244385 -1.5322890281677246 1.0 1.0 0.27606240651430636 47.645687103271484 47.63404083251953 0.7049667835235596 47.57059860229492 47.498931884765625 47.498931884765625 47.498931884765625 47.369937896728516 47.32693862915039 0 2
5041.108 -1.6598215429490262 -1.7883356599640097 1.6127631562792748 -0.5075292935536844 0.30854100933182305 -0.9276806098712314 -0.0034529536052280633 0.02834710658693021 0.02069755527517758 -1.0145456238798027 -1.0471975511965976 0.4971893733504594 0.0 0.0 0.0 0.0 0.0 0.0 0.5847346186637878 -2.803821563720703 -0.6333011388778687 -0.47427183389663696 -0.47008705139160156 0.3288523554801941 9.646156240331543 -38.385648911779796 -15.780845079841415 -0.0238802043316511 -0.06277287780743511 -6.162078040762447e-05 -1.6597526709186 -1.7883287868895472 1.6126816908465784 -0.507034496670105 0.3090125024318695 -0.9280293623553675 -0.004299898631870747 0.026713306084275246 0.022033696994185448 -1.012712836265564 -1.0439304113388062 0.4973784387111664 0.4837978482246399 -3.068878173828125 -0.7707871198654175 -0.4673750102519989 -0.4146624505519867 0.397215873003006 0.5847346186637878 -2.803821563720703 -0.6333011388778687 -0.47427183389663696 -0.47008705139160156 0.3288523554801941 -0.2241105867136392 0.40774091858485023 0.5929307227700581 -1.8268532627675096 0.28293777373513807 2.2076985750320044 -0.04247001417235849 -0.03168011271247439 -0.008631729261569455 0.4431172443098313 -0.5819914669459966 0.9063224546292973 -11.113144543432313 10.188004825857165 -6.354103024179949 -0.1377375592039239 -0.44378541996696386 -0.47536589759673165 -0.22410292318546154 0.4077365205862482 0.5929034050422702 -1.827248042889239 0.28250152704957726 2.2077077580923357 -0.04284140379984864 -0.031384577950442034 -0.008787420295925344 0.4444971971369438 -0.5848111390402579 0.90931063146951 0 31.25 32.5 31.25 35.5 38.5 39.25 0.700873 7 253 253 253 253 253 253 1 -7.220912456512451 6.320692539215088 -0.8810662031173706 1.0 1.0 0.263741532774652 47.668968200683594 47.682403564453125 0.7564405202865601 47.57059860229492 47.5275993347168 47.5275993347168 47.498931884765625 47.39860534667969 47.35560607910156 0 2
5041.208 -1.6601668383095483 -1.7855009493053169 1.6148329118067926 -0.6089838559416654 0.20382125421216335 -0.877961672536185 -0.0034529536052280633 0.02834710658693021 0.02069755527517758 -1.0145456238798027 -1.0471975511965976 0.4971893733504594 0.0 0.0 0.0 0.0 0.0 0.0 0.5842375159263611 -2.8176963329315186 -0.6389122009277344 -0.4906128942966461 -0.46140575408935547 0.3288549780845642 9.640633742001729 -38.54335059012959 -15.846257377954576 -0.14275535166684236 0.004144522353641759 -4.1043661551748034e-05 -1.6601184050189417 -1.7855354748167933 1.6148155371295374 -0.608489529495575 0.20422007143497467 -0.8780778090106409 -0.0032952027395367622 0.027377987280488014 0.021271822974085808 -1.0146338939666748 -1.046946406364441 0.4960028827190399 0.38644832372665405 -3.185929536819458 -0.7810099720954895 -0.4648204743862152 -0.338106632232666 0.4042283296585083 0.5842375159263611 -2.8176963329315186 -0.6389122009277344 -0.4906128942966461 -0.46140575408935547 0.3288549780845642 -0.22768624654297834 0.40478062189647024 0.5911951412220586 -1.9170398584503352 0.145207301373784 2.1881314169796258 -0.028661314381116697 -0.02717874274182531 -0.02515237593949408 0.42326377345422683 -0.7040465966876781 0.8173113467326185 -12.05100539963695 8.95137574034975 -7.0442034673256995 -0.07021478587459037 -0.4943179707105657 -0.45272792641956605 -0.2276767061422553 0.40479700298909893 0.5911814098765784 -1.9173117759651477 0.14457924102244019 2.1879022417237506 -0.028515368575866763 -0.02673692914571287 -0.0253448279833575 0.4215099970609688 -0.7044301689575445 0.8170669698656762 0 31.25 32.5 31.25 35.5 38.5 39.25 0.705109 7 253 253 253 253 253 253 1 -6.780379295349121 6.320692539215088 -1.015141487121582 1.0 1.0 0.2533457504897085 47.668968200683594 47.66001510620117 0.8123902678489685 47.55626678466797 47.5275993347168 47.5275993347168 47.44160079956055 47.44160079956055 47.31260681152344 0 2
5041.308 -1.6605121336700712 -1.782666238646624 1.6169026673343103 -0.7104384183296455 0.09910149909250343 -0.8282427352011386 -0.0034529536052280633 0.02834710658693021 0.02069755527517758 -1.0145456238798027 -1.0471975511965976 0.4971893733504594 0.0 0.0 0.0 0.0 0.0 0.0 0.5833103060722351 -2.8313801288604736 -0.6443987488746643 -0.506565511226654 -0.4523051083087921 0.3288576304912567 9.629911411712776 -38.69917799122414 -15.909935360581695 -0.25881193412191966 0.0743697457415701 -2.0037490870270607e-05 -1.6604602972613733 -1.782708307305807 1.616821591054098 -0.709892527466156 0.09968900680541992 -0.8286860624896448 -0.0036332649178802967 0.028982918709516525 0.020721884444355965 -1.0140047073364258 -1.0504993200302124 0.5014733076095581 0.4729733467102051 -3.1354784965515137 -0.7583220601081848 -0.5348674654960632 -0.324511855840683 0.40803292393684387 0.5833103060722351 -2.8313801288604736 -0.6443987488746643 -0.506565511226654 -0.4523051083087921 0.3288576304912567 -0.22979887871738094 0.4025033152609523 0.5879770269258411 -2.0107308578618874 0.013840165953041397 2.143996570555818 -0.013626421577409637 -0.01835909039458225 -0.040189405397658605 0.3993770154853676 -0.8135034295726666 0.7122615985388383 -11.419330367029142 8.727639508964295 -7.255792255394496 -0.01607191964188226 -0.4491857213626335 -0.5028734909339735 -0.2297854438816364 0.4025150107139491 0.5879102714542069 -2.0113660069196957 0.01347376718187353 2.1438107645874993 -0.013573347626324925 -0.018318796258307846 -0.039630997578411535 0.40490215967711307 -0.8122021090721503 0.7094642988666354 0 31.25 32.5 31.25 35.5 38.5 39.25 0.692929 7 253 253 253 253 253 253 1 -7.527369976043701 5.765237808227539 -0.8044517636299133 1.0 1.0 0.24751474744086785 47.6761360168457 47.693153381347656 0.7788203954696655 47.5275993347168 47.513267517089844 47.513267517089844 47.513267517089844 47.41293716430664 47.34127426147461 0 2
5041.407999999999 -1.6608574290305942 -1.7798315279879304 1.618972422861828 -0.8118929807176256 -0.0056182560271569315 -0.778523797866093 -0.0034529536052280633 0.02834710658693021 0.02069755527517758 -1.0145456238798027 -1.0471975511965976 0.4971893733504594 0.0 0.0 0.0 0.0 0.0 0.0 0.5819513201713562 -2.845233917236328 -0.6498124599456787 -0.5222731232643127 -0.4431951344013214 0.3288603127002716 9.614041959311457 -38.85614366619625 -15.973166829394552 -0.3730166460451029 0.14471731676725702 1.1974517671446739e-06 -1.6608594099627894 -1.7798482380309046 1.6189230124102991 -0.8114214104465027 -0.005068604146138966 -0.7785962263690394 -0.0036385750863701105 0.027494825422763824 0.020317906513810158 -1.0185909271240234 -1.046029806137085 0.4932416081428528 0.4700177013874054 -3.0473272800445557 -0.7437692880630493 -0.43963509798049927 -0.3553878664970398 0.3982061445713043 0.5819513201713562 -2.845233917236328 -0.6498124599456787 -0.5222731232643127 -0.4431951344013214 0.3288603127002716 -0.23037690402310765 0.40124628727920003 0.5834071946287023 -2.1065978281060933 -0.10729233663541482 2.0762838753201454 0.0017634146759091288 -0.0067879950897363536 -0.0498709675224687 0.40424563494872 -0.905341776403518 0.5882550687185574 -11.759599200528854 7.41789309693556 -8.188203567299045 0.07575699500256591 -0.46538664724320367 -0.5009497575920531 -0.23037767624433275 0.40123940186839135 0.583356866842721 -2.107058154604779 -0.10799428825921545 2.0758204502188704 0.0017791786735613846 -0.006720836472777046 -0.05087230299894241 0.39494690062933463 -0.9059289653065243 0.5884659127672338 0 31.25 32.5 31.25 35.5 38.5 39.25 0.704557 7 253 253 253 253 253 253 1 -7.565677642822266 5.439626216888428 -0.7661445140838623 1.0 1.0 0.2470941527771506 47.658226013183594 47.654640197753906 0.69825279712677 47.57059860229492 47.498931884765625 47.498931884765625 47.48460006713867 47.38426971435547 47.34127426147461 0 2
5041.508 -1.6612027243911172 -1.7769968173292376 1.6210421783893458 -0.9133475431056066 -0.1103380111468164 -0.7288048605310466 -0.0034529536052280633 0.02834710658693021 0.02069755527517758 -1.0145456238798027 -1.0471975511965976 0.4971893733504594 0.0 0.0 0.0 0.0 0.0 0.0 0.5801990628242493 -2.85916805267334 -0.6551154255867004 -0.5378537774085999 -0.43450120091438293 0.3288629949092865 9.593661864068642 -39.01454381352022 -16.03523384646539 -0.4863214687310262 0.2119293974888431 2.2422622794713892e-05 -1.6611340681659144 -1.7770000896849574 1.6210725943194788 -0.9127987188151856 -0.10992652574648076 -0.7291486899005335 -0.003204919397830963 0.02980298362672329 0.02120819501578808 -1.0152784585952759 -1.0474058389663696 0.5017254948616028 0.4252032935619354 -3.2044291496276855 -0.7979114651679993 -0.5078842639923096 -0.24943363666534424 0.36842501163482666 0.5801990628242493 -2.85916805267334 -0.6551154255867004 -0.5378537774085999 -0.43450120091438293 0.3288629949092865 -0.22945743236150193 0.4012282799180229 0.5778485531640125 -2.201461767556371 -0.21675166883008204 1.9854527467915115 0.01722058569919711 0.007828321066397418 -0.05917131272361784 0.3861453561090059 -0.9833137434091843 0.4570066247875545 -11.41947888750728 6.39658903117372 -9.809230595816734 0.11596062593434295 -0.4894575198721493 -0.4747532980410487 -0.22942323804747924 0.40125238424220533 0.5778584788459031 -2.2017864969814283 -0.2171073430559672 1.9849714797167457 0.01732247691972323 0.00731951288836629 -0.05843930543419438 0.39182863181219213 -0.9837621073239617 0.45638344345789844 0 31.25 32.5 31.25 35.5 38.5 39.25 0.696805 7 253 253 253 253 253 253 1 -7.7763671875 4.960785865783691 -0.8619126081466675 1.0 1.0 0.24924302396092737 47.65911865234375 47.654640197753906 0.69825279712677 47.57059860229492 47.513267517089844 47.5275993347168 47.455936431884766 47.455936431884766 47.35560607910156 0 2
5041.608 -1.6615480197516401 -1.7741621066705449 1.6231119339168634 -1.014802105493576 -0.21505776626646522 -0.6790859231960065 -0.0034529536052280633 0.02834710658693021 0.02069755527517758 -1.0145456238798027 -1.0471975511965976 0.4971893733504594 0.0 0.0 0.0 0.0 0.0 0.0 0.5780385732650757 -2.873591184616089 -0.6605789065361023 -0.5535494089126587 -0.4265906810760498 0.328865647315979 9.568620929393594 -39.17843874699133 -16.098500031919475 -0.6004342968899166 0.27315097669104016 4.3348707872014456e-05 -1.6614730993853968 -1.7741276226439417 1.6230819861041468 -1.0142803353122254 -0.2145331541644495 -0.6793487707721155 -0.0034756839741021395 0.02846679277718067 0.02125989831984043 -1.0102390050888062 -1.0504850149154663 0.4947960674762726 0.44279947876930237 -3.285290002822876 -0.8823855519294739 -0.5529570579528809 -0.22987549006938934 0.38071542978286743 0.5780385732650757 -2.873591184616089 -0.6605789065361023 -0.5535494089126587 -0.4265906810760498 0.328865647315979 -0.2269586321002907 0.4027474245001259 0.5718274912081358 -2.2923966954923767 -0.3110160693574219 1.8736500924402915 0.03281851925225914 0.022470151915065392 -0.06290319228587121 0.3928058668142329 -1.0465272704493396 0.31829561996492944 -11.155984775115224 7.350560937348897 -11.049938575568596 0.17499930367645275 -0.4553111465283588 -0.5104695114784439 -0.2269144698616731 0.4027564065787411 0.5718069690016062 -2.2928036108172267 -0.31138193220210975 1.8729833663050548 0.03282693504965879 0.022950332876686918 -0.061873814988990465 0.39563763367815447 -1.0442595293464187 0.31580686724793283 0 31.25 32.5 31.25 35.5 38.5 39.25 0.705709 7 253 253 253 253 253 253 1 -8.044517517089844 4.750096321105957 -1.6089035272598267 1.0 1.0 0.2523038404747676 47.6761360168457 47.68509292602539 0.7631545066833496 47.59926223754883 47.5275993347168 47.54193115234375 47.498931884765625 47.41293716430664 47.34127426147461 0 2
5041.708 -1.661893315112163 -1.771327396011852 1.625181689444381 -1.1162566678815447 -0.31977752138611315 -0.6293669858609654 -0.0034529536052280633 0.02834710658693021 0.02069755527517758 -1.0145456238798027 -1.0471975511965976 0.4971893733504594 0.0 0.0 0.0 0.0 0.0 0.0 0.5754596590995789 -2.888023614883423 -0.6661260724067688 -0.5694865584373474 -0.4198192059993744 0.32886821031570435 9.538718111881558 -39.34262697510725 -16.1632067135982 -0.7162619616187051 0.3256203505728463 6.377218136672939e-05 -1.6618884245501917 -1.7712699375548304 1.6251800696002405 -1.1157739025405427 -0.3192327658282679 -0.6296041647540491 -0.004144423641264439 0.028907787054777145 0.019203554838895798 -1.015149712562561 -1.0456236600875854 0.4978182315826416 0.48932045698165894 -3.428962230682373 -0.8048678040504456 -0.4949456751346588 -0.2901553213596344 0.38913199305534363 0.5754596590995789 -2.888023614883423 -0.6661260724067688 -0.5694865584373474 -0.4198192059993744 0.32886821031570435 -0.22289031903919237 0.40587540957203283 0.5656339412054306 -2.376957868672362 -0.38829543463378613 1.7429925217309816 0.04822514483101195 0.03965971723742389 -0.06020841770242962 0.40735249258050066 -1.084904306042499 0.16897755851515778 -11.146966394681602 6.150587350158481 -11.233016189767227 0.24511016866265697 -0.42124829019335785 -0.4694190115864828 -0.2228669683725983 0.4058645302542508 0.565630592714335 -2.3773411497535735 -0.38869927854616426 1.7422322926080411 0.04805787387046326 0.03924229320855941 -0.060908824626848025 0.40636655768750096 -1.0864288652112593 0.16952485144611723 0 31.25 32.5 31.25 35.5 38.5 39.25 0.699913 7 253 253 253 253 253 253 1 -7.833827972412109 4.424484729766846 -2.183511972427368 1.0 1.0 0.25570539229083883 47.67524337768555 47.6761360168457 0.7430126070976257 47.584930419921875 47.5275993347168 47.54193115234375 47.498931884765625 47.41293716430664 47.35560607910156 0 2
5041.808 -1.6622386104726852 -1.7684926853531593 1.6272514449718984 -1.2177112302695132 -0.4244972765057611 -0.5796480485259252 -0.0034529536052280633 0.02834710658693021 0.02069755527517758 -1.0145456238798027 -1.0471975511965976 0.4971893733504594 0.0 0.0 0.0 0.0 0.0 0.0 0.5726166367530823 -2.9028308391571045 -0.6721329092979431 -0.5857753157615662 -0.4168231785297394 0.3288707137107849 9.505647522216453 -39.511193969725255 -16.232992517935724 -0.8346286076984 0.36700649489957693 8.349329738929675e-05 -1.6621759573565882 -1.7684809170165003 1.627277676259176 -1.2171323162368317 -0.4239252249347132 -0.5800378958331507 -0.0036308567505329847 0.02888229861855507 0.02045704610645771 -1.0152729749679565 -1.0483589172363281 0.49983030557632446 0.40127161145210266 -3.340665578842163 -0.8756611943244934 -0.5435444116592407 -0.2307654172182083 0.3955141603946686 0.5726166367530823 -2.9028308391571045 -0.6721329092979431 -0.5857753157615662 -0.4168231785297394 0.3288707137107849 -0.21737827204911037 0.41055956794162113 0.559774084179002 -2.452357371142017 -0.4473051508500301 1.5965547322894789 0.06285559090157307 0.05541761997402569 -0.0556936090569535 0.4217879861790839 -1.1108505801316244 0.020348422536838523 -9.962081621317116 7.151694490356571 -13.144909702765453 0.26592247880570213 -0.40978492950448697 -0.46502230089076985 -0.21731983962076684 0.41059468379059266 0.559774212775327 -2.45274462320905 -0.447420717304417 1.5956757820944272 0.06278065287808114 0.0552289718953099 -0.055480498197274936 0.42390890561521316 -1.1097545618753166 0.020438424642824166 0 31.25 32.5 31.25 35.5 38.25 39.25 0.698737 7 253 253 253 253 253 253 1 -8.02536392211914 4.367023944854736 -2.853888511657715 1.0 1.0 0.2592159173129608 47.68688201904297 47.68151092529297 0.7183946967124939 47.584930419921875 47.55626678466797 47.55626678466797 47.5275993347168 47.44160079956055 47.35560607910156 0 2
5041.907999999999 -1.6625839058332081 -1.7656579746944665 1.629321200499416 -1.3191657926574827 -0.529217031625409 -0.529929111190885 -0.0034529536052280633 0.02834710658693021 0.02069755527517758 -1.0145456238798027 -1.0471975511965976 0.4971893733504594 0.0 0.0 0.0 0.0 0.0 0.0 0.5693893432617188 -2.9180171489715576 -0.6780360341072083 -0.6024068593978882 -0.4132063686847687 0.33052605390548706 9.46807234566897 -39.6837767022096 -16.30186789892108 -0.9555332379273687 0.3952129545410424 0.00010229403933811563 -1.6625540892230433 -1.7656156025328578 1.6293366591082972 -1.3186108332923432 -0.5286477247821253 -0.5299995581256312 -0.0040179467760026455 0.02814466692507267 0.020443325862288475 -1.0144615173339844 -1.0505805015563965 0.4938604533672333 0.417961061000824 -3.360029697418213 -0.9612941145896912 -0.5731637477874756 -0.18115556240081787 0.3892069160938263 0.5693893432617188 -2.9180171489715576 -0.6780360341072083 -0.6024068593978882 -0.4132063686847687 0.33052605390548706 -0.21038679014526915 0.4168457932928812 0.5546676575075146 -2.516475902395517 -0.48606145944274204 1.4377620560805227 0.07713805676957079 0.06984966112591232 -0.04598442437360941 0.4509089746401784 -1.1176574646027753 -0.12612115803879942 -9.038296942643322 5.992721817164694 -13.998307768120455 0.2939642318087141 -0.3548102932025125 -0.4032652429298993 -0.21033543342015784 0.4168680432271818 0.5546787334219113 -2.5166041215148236 -0.4864739235477032 1.43672857423222 0.07676591394522164 0.06994876945929203 -0.045731717253435875 0.44805957440191047 -1.1142082339311732 -0.12852878833403136 0 31.25 32.5 31.25 35.5 38.25 39.0 0.700993 7 253 253 253 253 253 253 1 -8.159439086914062 3.5051112174987793 -3.639186382293701 1.0 1.0 0.2627193762555163 47.63494110107422 47.62688064575195 0.7228707075119019 47.584930419921875 47.48460006713867 47.498931884765625 47.47026824951172 47.35560607910156 47.34127426147461 0 2
5042.008 -1.662929201193731 -1.7628232640357737 1.6313909560269335 -1.4206203550454521 -0.6339367867450578 -0.48021017385584486 -0.0034529536052280633 0.02834710658693021 0.02069755527517758 -1.0145456238798027 -1.0471975511965976 0.4971893733504594 0.0 0.0 0.0 0.0 0.0 0.0 0.5658467411994934 -2.9334373474121094 -0.6841634511947632 -0.6194474697113037 -0.41146016120910645 0.33052825927734375 9.426842022428906 -39.85912847402739 -16.37327609649867 -1.0793752226021949 0.4089897510936754 0.00011994106537638452 -1.6628811995135706 -1.762855669061178 1.6314438025103968 -1.4201538276723404 -0.6333978811847132 -0.48059589067568 -0.0031112676952034235 0.029117168858647346 0.020540375262498856 -1.0158990621566772 -1.0469602346420288 0.5018375515937805 0.3573596179485321 -3.326075315475464 -1.003907561302185 -0.5450636744499207 -0.2604689300060272 0.36947163939476013 0.5658467411994934 -2.9334373474121094 -0.6841634511947632 -0.6194474697113037 -0.41146016120910645 0.33052825927734375 -0.2020647976231299 0.42445550301574503 0.550758895886023 -2.566567024901125 -0.5055796201705489 1.2699457054828487 0.08959966874613715 0.08277459183005224 -0.032164612287528066 0.47543196243258107 -1.0999058849257104 -0.2762193588316362 -8.356404829912169 7.882574102507454 -15.27121382478809 0.3515236099511041 -0.3677635903422689 -0.39967557615141835 -0.20199855334172542 0.42451161206595645 0.5507606095767043 -2.5668667175070143 -0.5053992741000937 1.2691012089803102 0.08979479860755049 0.08248669774058455 -0.03200703438945567 0.4785174930436785 -1.1002418783929344 -0.2745203973607682 0 31.25 32.5 31.25 35.5 38.25 39.0 0.707761 7 253 253 253 253 253 253 1 -7.738059997558594 3.5434184074401855 -4.807557106018066 1.0 1.0 0.26615145088028674 47.661808013916016 47.66986846923828 0.7922483682632446 47.584930419921875 47.5275993347168 47.54193115234375 47.455936431884766 47.39860534667969 47.35560607910156 0 2
5042.108 -1.6632744965542532 -1.759988553377081 1.633460711554451 -1.5220749174334216 -0.7386565418647058 -0.4304912365208038 -0.0034529536052280633 0.02834710658693021 0.02069755527517758 -1.0145456238798027 -1.0471975511965976 0.4971893733504594 0.0 0.0 0.0 0.0 0.0 0.0 0.5619317889213562 -2.949335813522339 -0.6902618408203125 -0.6367335319519043 -0.4117119312286377 0.3305303156375885 9.381337091707598 -40.04029140958856 -16.44423958805368 -1.2050488125049597 0.40735945837735255 0.00013625732698914969 -1.6632550398456019 -1.7599503002562464 1.6334622542010706 -1.5215673011592408 -0.7381761709796351 -0.4307206312762659 -0.0030058736447244883 0.02744787558913231 0.01965516433119774 -1.0139397382736206 -1.0475660562515259 0.4940437078475952 0.3739074170589447 -3.3935420513153076 -0.8580650091171265 -0.6087473630905151 -0.15704254806041718 0.3937966227531433 0.5619317889213562 -2.949335813522339 -0.6902618408203125 -0.6367335319519043 -0.4117119312286377 0.3305303156375885 -0.1924679921383673 0.43323523520773327 0.5483680094475724 -2.601877280595381 -0.5043804199002633 1.0974873126162565 0.10141652143759647 0.09153276745985217 -0.014147013223815307 0.5183174834521014 -1.0698268599771157 -0.41155945850462006 -7.270212822602505 6.952467199120505 -15.645819578999987 0.31910049221512793 -0.3472921999453894 -0.3190039823958479 -0.19241515321697794 0.43326490214289826 0.5483922836645253 -2.6019188023716624 -0.5043512792298387 1.0966186268815978 0.10166397291046242 0.0920143277693458 -0.01483923008265504 0.5148903139244013 -1.0687642977280456 -0.4148337796366188 0 31.25 32.5 31.25 35.5 38.25 39.0 0.703405 7 253 253 253 253 253 253 1 -6.971915245056152 3.5242648124694824 -5.51624059677124 1.0 1.0 0.26948002984467617 47.674346923828125 47.664493560791016 0.7452505826950073 47.59926223754883 47.5275993347168 47.5275993347168 47.513267517089844 47.44160079956055 47.35560607910156 0 2
5042.208 -1.6636197919147762 -1.757153842718389 1.6355304670819686 -1.6235294798213902 -0.8433762969843546 -0.3807722991857636 -0.0034529536052280633 0.02834710658693021 0.02069755527517758 -1.0145456238798027 -1.0471975511965976 0.4971893733504594 0.0 0.0 0.0 0.0 0.0 0.0 0.5578268766403198 -2.9649524688720703 -0.6964566707611084 -0.6542238593101501 -0.41162410378456116 0.3305321931838989 9.333541309322662 -40.218281998695474 -16.51665840403609 -1.3322110018842945 0.3903348151951045 0.0001510644696970823 -1.663548771535055 -1.7571402988829554 1.6355722586261194 -1.622993608514303 -0.8427918593036097 -0.38102895418276006 -0.0037618158385157585 0.028835754841566086 0.020993169397115707 -1.0137132406234741 -1.0475869178771973 0.4990673363208771 0.3206322193145752 -3.356032371520996 -1.0009207725524902 -0.6276611685752869 -0.1909084916114807 0.35898664593696594 0.5578268766403198 -2.9649524688720703 -0.6964566707611084 -0.6542238593101501 -0.41162410378456116 0.3305321931838989 -0.18180263785375345 0.44273522388926456 0.5478457614773345 -2.620626765158315 -0.48426960742042924 0.9240629615783651 0.11231542915688515 0.09798388273057727 0.00446539012334784 0.5536648387127683 -1.0212914182534991 -0.5480093682625768 -5.994876698727715 9.115421058114606 -16.27435747222661 0.35615779559531335 -0.3344676941720924 -0.2999554831978142 -0.1817105475454417 0.4427904483557637 0.547884365513864 -2.6206313263542835 -0.48405656559958976 0.9230386135583178 0.11219029822580293 0.09782625518385991 0.005071988607470879 0.5567010573676165 -1.021101733072173 -0.5470000883461963 0 31.25 32.5 31.25 35.5 38.5 39.0 0.710797 7 253 253 253 253 253 253 1 -6.6846113204956055 3.2752678394317627 -6.550536155700684 1.0 1.0 0.2727005796705743 47.658226013183594 47.668968200683594 0.7430126070976257 47.55626678466797 47.5275993347168 47.54193115234375 47.498931884765625 47.38426971435547 47.32693862915039 0 2
5042.308 -1.6639650872752991 -1.7543191320596963 1.6376002226094861 -1.7249840422093587 -0.9480960521040025 -0.3310533618507234 -0.0034529536052280633 0.02834710658693021 0.02069755527517758 -1.0145456238798027 -1.0471975511965976 0.4971893733504594 0.0 0.0 0.0 0.0 0.0 0.0 0.5533748269081116 -2.9805662631988525 -0.7022433876991272 -0.6716020107269287 -0.41582873463630676 0.33053386211395264 9.281766599515622 -40.39589907220133 -16.584274816853394 -1.4586079840289274 0.35816430392203613 0.0001642074581662855 -1.6639459768878382 -1.7543279133238734 1.6375544706927698 -1.7244068584837855 -0.9475205580340784 -0.3313687483416956 -0.0036381701938807964 0.029078438878059387 0.020481407642364502 -1.018450140953064 -1.0464597940444946 0.49694567918777466 0.3128865957260132 -3.420776605606079 -0.8920838832855225 -0.6552871465682983 -0.2610674202442169 0.4180793762207031 0.5533748269081116 -2.9805662631988525 -0.7022433876991272 -0.6716020107269287 -0.41582873463630676 0.33053386211395264 -0.17010135834821463 0.45263239316263293 0.5494677919295564 -2.6223791113300017 -0.44607213865491996 0.7528043470963178 0.12122261477578235 0.09998372411022392 0.02709476436499092 0.6067141175725743 -0.9589586643824549 -0.667996941744154 -5.7244236840515805 8.625742026107545 -16.458201679614827 0.2938701826771958 -0.2650780935545302 -0.22023513280045898 -0.17002717887548974 0.4526877325189237 0.549470300794511 -2.6223666333406728 -0.4457358341787235 0.7518886673791294 0.12121499699755849 0.09937158222643121 0.026888289458579642 0.6033965473912621 -0.958944322583803 -0.6688547780549654 0 31.25 32.5 31.25 35.5 38.5 39.0 0.696481 7 253 253 253 253 253 253 1 -5.267243385314941 2.9879636764526367 -7.680599212646484 1.0 1.0 0.2758383280248623 47.69673538208008 47.69404983520508 0.731822669506073 47.57059860229492 47.54193115234375 47.55626678466797 47.498931884765625 47.41293716430664 47.34127426147461 0 2
5042.407999999999 -1.664310382635822 -1.7514844214010035 1.6396699781370037 -1.8264386045973282 -1.0528158072236504 -0.28133442451568236 -0.0034529536052280633 0.02834710658693021 0.02069755527517758 -1.0145456238798027 -1.0471975511965976 0.4971893733504594 0.0 0.0 0.0 0.0 0.0 0.0 0.5487268567085266 -2.9952845573425293 -0.7077090740203857 -0.6886785626411438 -0.4218432307243347 0.3288823366165161 9.227662301503845 -40.564291969758045 -16.64820070956565 -1.582899363077985 0.3120051656546999 0.00017555175991925114 -1.664290730153219 -1.7515136204161585 1.639585320149557 -1.825951715508932 -1.0522778669940394 -0.28140575090517217 -0.003128157928586006 0.028899995610117912 0.020854948088526726 -1.0124194622039795 -1.0479001998901367 0.4948323369026184 0.3301495611667633 -3.3561720848083496 -0.9032968282699585 -0.713487982749939 -0.22607043385505676 0.3629843294620514 0.5487268567085266 -2.9952845573425293 -0.7077090740203857 -0.6886785626411438 -0.4218432307243347 0.3288823366165161 -0.15759651125919386 0.4624563982240456 0.5533184353152851 -2.607023586896376 -0.39113698407511965 0.5871782291972606 0.1285101215795695 0.0963233944868279 0.04890750788269351 0.6523209062931004 -0.8858143058203127 -0.776187198964899 -4.381523151483231 10.142349639668094 -17.049604333098976 0.3053257829771449 -0.2841103584297422 -0.19997868977294414 -0.1575219995607497 0.4625099511134865 0.5532941730488387 -2.6069509244961764 -0.39100127240834115 0.5863354343126135 0.12860717867301977 0.09627911677170527 0.04966687354733987 0.6543574209675385 -0.8842805474505792 -0.7785960708045676 0 31.25 32.5 31.25 35.5 38.5 39.25 0.703549 7 253 253 253 253 253 253 1 -4.539406776428223 2.604891538619995 -8.274360656738281 1.0 1.0 0.27895548479151483 47.62598419189453 47.63941955566406 0.8079142570495605 47.5275993347168 47.48460006713867 47.498931884765625 47.455936431884766 47.38426971435547 47.31260681152344 0 2
5042.508 -1.6646511266889439 -1.748687074811091 1.641712452401211 -1.9265559034323125 -1.1561552605756606 -0.23227082806651467 -0.003248239474153508 0.026666500949879407 0.019470466084894153 -0.9543965892928377 -0.9851126924738995 0.4677126695827529 0.0046039381403038815 -0.03779614211590204 -0.02759674036690446 1.3527274985065674 1.3962634015953768 -0.6629191644671462 0.5645872950553894 -3.014721632003784 -0.711479663848877 -0.6491954922676086 -0.37827569246292114 0.3033520579338074 9.244419923223806 -40.77926401387429 -16.676600210855483 -1.3919691164031 0.555717782518494 -0.14030098343499461 -1.6646578947650355 -1.7487460575499476 1.641665283833639 -1.92604460338735 -1.155548397694723 -0.2326415220843714 -0.0038606147281825542 0.0250583253800869 0.019618535414338112 -0.9558522701263428 -0.9884536266326904 0.4731242060661316 0.2942648231983185 -3.34335994720459 -0.8560603260993958 -0.6460922956466675 -0.19115954637527466 0.34827882051467896 0.5645872950553894 -3.014721632003784 -0.711479663848877 -0.6491954922676086 -0.37827569246292114 0.3033520579338074 -0.1446152622459494 0.47160506560318666 0.5593141515308666 -2.5752212120966744 -0.3232998951868051 0.43189479952147125 0.12686057515780294 0.08289218744089552 0.0684283391035776 0.6665979732253065 -0.7542696930133329 -0.8280192397439747 -2.599294355595516 11.557319312163996 -17.056221435738312 0.2693654719926308 -0.24976006796286276 -0.1598328631246842 -0.14454047187563554 0.4716663680043301 0.5593069233918537 -2.5751542500138522 -0.3227410576481073 0.4311030209149012 0.12624712717591643 0.08326328750167007 0.06782940907891331 0.6661850444384413 -0.7530401039760757 -0.8218573013944733 0 31.25 32.5 31.25 35.5 38.5 39.25 0.704953 7 253 253 253 253 253 253 1 -4.137180328369141 2.451662540435791 -8.983044624328613 1.0 1.0 0.2657714214428523 47.6367301940918 47.654640197753906 0.7228707075119019 47.55626678466797 47.498931884765625 47.498931884765625 47.48460006713867 47.38426971435547 47.31260681152344 0 2
5042.608 -1.6649529309456579 -1.7462094054266828 1.6435215153078655 -2.015231924869057 -1.2476852128150657 -0.18881415693058035 -0.002787845660123151 0.022886886738289133 0.01671079204820411 -0.8191238394422129 -0.845486352314369 0.4014207531360321 0.0046039381403038815 -0.03779614211590204 -0.02759674036690446 1.3527274985061233 1.3962634015949327 -0.6629191644673682 0.5928663611412048 -3.024247646331787 -0.7167750597000122 -0.6318309903144836 -0.35835251212120056 0.2854684591293335 9.187360377903776 -40.87244144426947 -16.702781252824057 -1.486698203078463 0.4963181021676666 -0.1403618019546688 -1.664933983479635 -1.7462331257262171 1.6435068289386194 -2.0147696934142054 -1.2471984068499964 -0.18896562257875615 -0.0032695310655981302 0.02271789126098156 0.018816392868757248 -0.8202446103096008 -0.8442040085792542 0.40036246180534363 0.29306817054748535 -3.4175338745117188 -0.9238985180854797 -0.6959787011146545 -0.2342216968536377 0.3378773331642151 0.5928663611412048 -3.024247646331787 -0.7167750597000122 -0.6318309903144836 -0.35835251212120056 0.2854684591293335 -0.13272026697200698 0.4789159208307645 0.5664162877741242 -2.5339148885051945 -0.2523762906808166 0.30278875543249417 0.11122771194307549 0.06282893255259309 0.07266433440799663 0.611507755809321 -0.5808013880238442 -0.7625460898612517 -1.6404139169694725 12.42218448749758 -17.42025952699697 0.22510469036305172 -0.2370047042839229 -0.123563094021933 -0.13264759577361565 0.47895803237069573 0.5664496097952074 -2.533671293050923 -0.25205257466608827 0.3020961086554443 0.11117475381951217 0.06276366206609885 0.0735863715242631 0.612156486803802 -0.5810995870981804 -0.7638695393422359 0 31.25 32.5 31.25 35.5 38.5 39.25 0.709345 7 253 253 253 253 253 253 1 -2.8155813217163086 1.6855180263519287 -9.327810287475586 1.0 1.0 0.23058936375880815 47.645687103271484 47.643898010253906 0.7049667835235596 47.57059860229492 47.5275993347168 47.513267517089844 47.455936431884766 47.38426971435547 47.34127426147461 0 2
5042.708 -1.6652086958209686 -1.7441096974634336 1.6450546108108512 -2.090380671320739 -1.3252525310385144 -0.15198667743931704 -0.0023274518460927925 0.019107272526698846 0.01395111801151408 -0.6838510895915872 -0.7058600121548375 0.3351288366893117 0.0046039381403038815 -0.03779614211590898 -0.02759674036689752 1.3527274985061233 1.3962634015953768 -0.6629191644671462 0.6215491890907288 -3.0316929817199707 -0.721342146396637 -0.6116929650306702 -0.33984798192977905 0.2675856351852417 9.134929055702903 -40.94175525513548 -16.72013037373444 -1.56119375528588 0.44129305483428344 -0.14041685462104778 -1.6651657263385218 -1.7440868816771449 1.6449874083148401 -2.090004106561178 -1.3248122374164026 -0.15197736421693975 -0.002845783019438386 0.020811796188354492 0.014597275294363499 -0.6845033168792725 -0.7113949060440063 0.3293694257736206 0.32901620864868164 -3.5807273387908936 -0.8867350816726685 -0.6825242042541504 -0.19778227806091309 0.31167566776275635 0.6215491890907288 -3.0316929817199707 -0.721342146396637 -0.6116929650306702 -0.33984798192977905 0.2675856351852417 -0.12245002885915066 0.4842753692270773 0.5737422572849254 -2.489372941950134 -0.18590124331813698 0.20058026488520078 0.0950901469950546 0.045266156211892394 0.07029673630577692 0.5394483075193026 -0.4444797610740029 -0.6720953562377459 -1.3812899628920934 13.364146260901009 -16.492809436827294 0.20576018087816503 -0.18097326437499406 -0.08007283918578165 -0.12237276631539265 0.4842912272607126 0.5737636782281833 -2.4891400923026965 -0.18572166193681824 0.1999302197841941 0.09407281596514885 0.04438997872920806 0.07153810712822699 0.5405558132768131 -0.4365933397099477 -0.6730913408837338 0 31.25 32.5 31.25 35.5 38.25 39.25 0.709405 7 253 253 253 253 253 253 1 -1.7621324062347412 1.5514426231384277 -9.730035781860352 1.0 1.0 0.19446991889498194 47.6367301940918 47.65195846557617 0.7049667835235596 47.57059860229492 47.513267517089844 47.498931884765625 47.5275993347168 47.38426971435547 47.369937896728516 0 2
5042.808 -1.6654184213148762 -1.7423879509213434 1.6463117389101682 -2.1520021427873566 -1.3888572152460164 -0.12178838959272476 -0.0018670580320624356 0.015327658315108572 0.011191443974824036 -0.5485783397409616 -0.5662336719953069 0.26883692024259087 0.0046039381403038815 -0.03779614211590204 -0.02759674036689752 1.3527274985061233 1.3962634015949327 -0.6629191644673682 0.6509454250335693 -3.037550449371338 -0.7255375981330872 -0.5890632271766663 -0.3182287812232971 0.24970382452011108 9.090657993228211 -40.99245108135588 -16.73310257201838 -1.617548941007148 0.39378983864472067 -0.14046384129894848 -1.6653688589679163 -1.742368837396139 1.646341625844137 -2.1516109905638636 -1.3885348478900355 -0.12179261842836553 -0.001302484655752778 0.01515151746571064 0.011542323045432568 -0.5523692965507507 -0.5706660747528076 0.26627981662750244 0.3308579623699188 -3.5438506603240967 -0.8603314757347107 -0.6930017471313477 -0.19804954528808594 0.27534374594688416 0.6509454250335693 -3.037550449371338 -0.7255375981330872 -0.5890632271766663 -0.3182287812232971 0.24970382452011108 -0.11393484056083258 0.48793565613987205 0.5804743263369095 -2.446882812076772 -0.1277405183469536 0.12197586176146982 0.07618111012286419 0.029453592780074513 0.06382927742927126 0.4569566570708044 -0.32297542693356207 -0.5599656200532261 -0.11405079931021112 13.679156312193209 -15.989664936028092 0.1634341296172956 -0.14909091939324137 -0.05179628943383756 -0.11386888996276387 0.48794934595934086 0.5805559605154613 -2.446500584838003 -0.12757148722735956 0.1214748858991083 0.0758842657019135 0.029384648205580642 0.06344927366491945 0.453405790940765 -0.3173732707578695 -0.5598724328984201 0 31.25 32.5 31.25 35.5 38.25 39.25 0.719557 7 253 253 253 253 253 253 1 -0.9385270476341248 0.9385271072387695 -9.730035781860352 1.0 1.0 0.15745686387207727 47.69404983520508 47.692256927490234 0.7004908323287964 47.64226150512695 47.59926223754883 47.584930419921875 47.584930419921875 47.498931884765625 47.35560607910156 0 2
5042.907999999999 -1.6655821074273813 -1.741044165800412 1.647292899605816 -2.2000963392689163 -1.4384992654375655 -0.09821929339080526 -0.001406664218032077 0.011548044103518285 0.008431769938133993 -0.41330558989033594 -0.4266073318357755 0.20254500379587048 0.0046039381403038815 -0.03779614211590898 -0.02759674036690446 1.3527274985065674 1.3962634015953768 -0.6629191644671462 0.681094229221344 -3.04213547706604 -0.8404338955879211 -0.5615110397338867 -0.2860281765460968 0.23182322084903717 9.055252174574708 -41.028925442373726 -16.742111195107558 -1.6582503645479643 0.355678482752741 -0.1405013608562766 -1.6655338446246546 -1.741009374658102 1.6471856276141565 -2.1997739277281703 -1.4381392637835901 -0.09832650819887334 -0.001533645554445684 0.011609727516770363 0.007647053804248571 -0.4173128008842468 -0.43025654554367065 0.2037641555070877 0.28077811002731323 -3.5597500801086426 -0.9198663234710693 -0.6462120413780212 -0.19339482486248016 0.23399437963962555 0.681094229221344 -3.04213547706604 -0.8404338955879211 -0.5615110397338867 -0.2860281765460968 0.23182322084903717 -0.10728084430662863 0.4902904369054728 0.5863045717282551 -2.4097543323789563 -0.0804894460529357 0.06418278104092141 0.057771158192978705 0.01825112765785141 0.052013644458063224 0.357705591910498 -0.22194183689904037 -0.43533129905228096 1.371179599024633 13.888666297493941 -15.522751743399622 0.14139194327801374 -0.10535628445335328 -0.022080960367163012 -0.10721121806901518 0.49029160540746064 0.5863096080972381 -2.409554067590708 -0.08015480055382909 0.06373781950027098 0.05722765440441225 0.01805976841152748 0.05103376270946857 0.3533604167368641 -0.21950447825187844 -0.43196069369078166 0 31.25 32.5 31.25 35.5 38.25 39.25 0.704161 7 253 253 253 253 253 253 1 -0.6895301342010498 0.5363011956214905 -10.074800491333008 1.0 1.0 0.1196073180464995 47.66539001464844 47.663597106933594 0.6445410251617432 47.59926223754883 47.55626678466797 47.54193115234375 47.54193115234375 47.47026824951172 47.39860534667969 0 2
5043.008 -1.6656997541584833 -1.7400783421006398 1.6479980928977946 -2.2346632607654158 -1.4741786816131643 -0.0812793888335559 -0.00094627040400172 0.007768429891928025 0.005672095901443949 -0.2780328400397103 -0.2869809916762449 0.13625308734914965 0.0046039381403038815 -0.037796142115895104 -0.02759674036690446 1.3527274985065674 1.3962634015953768 -0.6629191644673682 0.7123106122016907 -3.1945269107818604 -1.0412092208862305 -0.5304991602897644 -0.24369841814041138 0.21394388377666473 9.029270411703996 -41.05423962115977 -16.748713947893272 -1.6855918772932625 0.3278588795622674 -0.14052867428624605 -1.6656816641436976 -1.7400995693602503 1.6478655974017542 -2.234526296655172 -1.4739120642291468 -0.08142692247499639 -0.0015063406899571419 0.007261242717504501 0.005169261712580919 -0.2793622612953186 -0.2906625270843506 0.13937000930309296 0.2983166575431824 -3.660207748413086 -0.8917714953422546 -0.5894867181777954 -0.15778712928295135 0.23894180357456207 0.7123106122016907 -3.1945269107818604 -1.0412092208862305 -0.5304991602897644 -0.24369841814041138 0.21394388377666473 -0.10247175102606086 0.491656799360241 0.5907308676267699 -2.381044704196359 -0.04543028283193129 0.02443877040584623 0.039188587644253564 0.00990463997632266 0.036453651526500125 0.2454219757523844 -0.13884858199757977 -0.30025672317924407 1.5476183616275567 13.24355618038403 -15.450771047166212 0.09079394229283916 -0.07951971133824962 -0.0027219771281878566 -0.10242700519368222 0.4916718217977302 0.5906676226886085 -2.3810879411999037 -0.04510709638867009 0.02418697321260088 0.038454970546529126 0.010035172198887235 0.03575502428410783 0.24342613523971784 -0.13811798474237255 -0.29492120130519095 0 31.25 32.5 31.25 35.5 38.25 39.25 0.718453 7 253 253 253 253 253 253 1 -0.2298433631658554 0.40222588181495667 -9.84495735168457 1.0 1.0 0.08104198815147005 47.67882537841797 47.68151092529297 0.6736348867416382 47.6279296875 47.54193115234375 47.54193115234375 47.513267517089844 47.47026824951172 47.41293716430664 0 2
